lut/fujifilm/F-Log/F-Log_LUT_E_Ver.1.27/X-S20/XS20_FLog_FGamut_to_ETERNA-BB_BT.709_33gird_V.1.00.cube
#title:FLog_FGamut_to_ETERNA-BB_BT.709
#FUJIFILM Corporation
#Gamma:F-Log to ETERNA BLEACH BYPASS
#Gamut:F-Gamut to ITU-R BT.709
#Version:1.00
LUT_3D_SIZE 33
0.000000 0.000000 0.000000
0.000000 0.000000 0.000000
0.003715 0.000000 0.000000
0.025802 0.003743 0.007281
0.037924 0.004136 0.007727
0.064119 0.006878 0.010569
0.095791 0.006830 0.013414
0.133523 0.006978 0.016479
0.192367 0.009975 0.026605
0.272323 0.013804 0.054171
0.361861 0.013760 0.076546
0.441624 0.013265 0.101184
0.507507 0.016427 0.117699
0.564004 0.016793 0.138961
0.604274 0.020537 0.151125
0.634576 0.019170 0.164352
0.654319 0.023051 0.169680
0.654319 0.023051 0.169680
0.654319 0.023051 0.169680
0.654319 0.023051 0.169680
0.654319 0.023051 0.169680
0.654319 0.023051 0.169680
0.654319 0.023051 0.169680
0.654319 0.023051 0.169680
0.654319 0.023051 0.169680
0.654319 0.023051 0.169680
0.654319 0.023051 0.169680
0.654319 0.023051 0.169680
0.654319 0.023051 0.169680
0.654319 0.023051 0.169680
0.654319 0.023051 0.169680
0.654319 0.023051 0.169680
0.654319 0.023051 0.169680
0.000000 0.000000 0.000000
0.000000 0.000000 0.000000
0.000000 0.000000 0.000000
0.020528 0.000534 0.003375
0.035578 0.003858 0.006751
0.057475 0.003695 0.010126
0.082300 0.007133 0.012968
0.119057 0.005969 0.016789
0.164410 0.009941 0.023008
0.235769 0.010650 0.037793
0.306339 0.013027 0.063183
0.390795 0.013426 0.088044
0.462152 0.013126 0.108020
0.524318 0.016371 0.125289
0.573780 0.016908 0.138430
0.611703 0.019700 0.153078
0.640637 0.019703 0.162844
0.654319 0.023051 0.169680
0.654319 0.023051 0.169680
0.654319 0.023051 0.169680
0.654319 0.023051 0.169680
0.654319 0.023051 0.169680
0.654319 0.023051 0.169680
0.654319 0.023051 0.169680
0.654319 0.023051 0.169680
0.654319 0.023051 0.169680
0.654319 0.023051 0.169680
0.654319 0.023051 0.169680
0.654319 0.023051 0.169680
0.654319 0.023051 0.169680
0.654319 0.023051 0.169680
0.654319 0.023051 0.169680
0.654319 0.023051 0.169680
0.000000 0.000000 0.000000
0.000000 0.000000 0.000000
0.000000 0.000000 0.000000
0.009776 0.000115 0.000000
0.029517 0.003661 0.006527
0.045354 0.003301 0.009681
0.074871 0.007297 0.014475
0.099505 0.006747 0.012660
0.139585 0.006503 0.020164
0.192367 0.009975 0.026605
0.263915 0.013664 0.051241
0.337620 0.013644 0.072195
0.413667 0.013903 0.094124
0.482680 0.013660 0.111395
0.540155 0.016347 0.126711
0.585115 0.019977 0.144289
0.622455 0.020455 0.155253
0.645913 0.022911 0.166750
0.654319 0.023051 0.169680
0.654319 0.023051 0.169680
0.654319 0.023051 0.169680
0.654319 0.023051 0.169680
0.654319 0.023051 0.169680
0.654319 0.023051 0.169680
0.654319 0.023051 0.169680
0.654319 0.023051 0.169680
0.654319 0.023051 0.169680
0.654319 0.023051 0.169680
0.654319 0.023051 0.169680
0.654319 0.023051 0.169680
0.654319 0.023051 0.169680
0.654319 0.023051 0.169680
0.654319 0.023051 0.169680
0.003313 0.013259 0.000136
0.000000 0.010995 0.003375
0.000583 0.002987 0.000222
0.000000 0.000000 0.000000
0.023458 0.003464 0.006305
0.037924 0.004136 0.007727
0.061189 0.003612 0.009371
0.086016 0.006715 0.013945
0.119057 0.005969 0.016789
0.156981 0.010442 0.022785
0.219932 0.010675 0.036371
0.291873 0.013026 0.058301
0.368899 0.013926 0.082937
0.441624 0.013265 0.101184
0.503792 0.016509 0.118453
0.557943 0.017268 0.135277
0.597236 0.019699 0.148195
0.629884 0.019619 0.157206
0.654319 0.023388 0.167949
0.654319 0.023051 0.169680
0.654319 0.023051 0.169680
0.654319 0.023051 0.169680
0.654319 0.023051 0.169680
0.654319 0.023051 0.169680
0.654319 0.023051 0.169680
0.654319 0.023051 0.169680
0.654319 0.023051 0.169680
0.654319 0.023051 0.169680
0.654319 0.023051 0.169680
0.654319 0.023051 0.169680
0.654319 0.023051 0.169680
0.654319 0.023051 0.169680
0.654319 0.023051 0.169680
0.003293 0.035249 0.006887
0.005839 0.029194 0.005686
0.003694 0.022580 0.002535
0.007802 0.020151 0.004266
0.016995 0.016608 0.006972
0.038306 0.014131 0.006663
0.058642 0.009668 0.010569
0.074871 0.007297 0.014475
0.099505 0.006747 0.012660
0.137238 0.006224 0.019187
0.186306 0.009778 0.026383
0.250819 0.013638 0.042898
0.324522 0.012946 0.067312
0.399200 0.014238 0.087512
0.469190 0.014300 0.109219
0.525295 0.017348 0.126266
0.573780 0.016908 0.138430
0.611703 0.019700 0.153078
0.638292 0.019759 0.160136
0.654319 0.023051 0.169680
0.654319 0.023051 0.169680
0.654319 0.023051 0.169680
0.654319 0.023051 0.169680
0.654319 0.023051 0.169680
0.654319 0.023051 0.169680
0.654319 0.023051 0.169680
0.654319 0.023051 0.169680
0.654319 0.023051 0.169680
0.654319 0.023051 0.169680
0.654319 0.023051 0.169680
0.654319 0.023051 0.169680
0.654319 0.023051 0.169680
0.654319 0.023051 0.169680
0.003666 0.056573 0.007468
0.000000 0.051995 0.007023
0.003283 0.046917 0.006801
0.006808 0.041838 0.006578
0.013652 0.037679 0.010039
0.037894 0.038466 0.010929
0.061362 0.031607 0.010399
0.084435 0.026086 0.012573
0.105748 0.023272 0.013996
0.136837 0.020237 0.016618
0.172615 0.017425 0.022921
0.224231 0.013915 0.034109
0.286790 0.013805 0.059054
0.361861 0.013760 0.076546
0.431850 0.013487 0.099984
0.495384 0.016369 0.115523
0.547191 0.016849 0.131371
0.591176 0.019838 0.146242
0.623824 0.019421 0.156984
0.645913 0.022911 0.166750
0.654319 0.023051 0.169680
0.654319 0.023051 0.169680
0.654319 0.023051 0.169680
0.654319 0.023051 0.169680
0.654319 0.023051 0.169680
0.654319 0.023051 0.169680
0.654319 0.023051 0.169680
0.654319 0.023051 0.169680
0.654319 0.023051 0.169680
0.654319 0.023051 0.169680
0.654319 0.023051 0.169680
0.654319 0.023051 0.169680
0.654319 0.023051 0.169680
0.009315 0.080770 0.013688
0.007562 0.072483 0.009558
0.006002 0.068184 0.010090
0.009918 0.061095 0.010620
0.003666 0.056573 0.007468
0.032206 0.059594 0.011289
0.056651 0.054720 0.006543
0.078547 0.054556 0.009919
0.103182 0.053671 0.009833
0.129186 0.051415 0.013207
0.165357 0.046593 0.020266
0.217950 0.044059 0.032431
0.282079 0.037590 0.051738
0.345422 0.035140 0.069540
0.406228 0.026407 0.092086
0.466844 0.014021 0.108242
0.521974 0.016092 0.124313
0.569089 0.016349 0.136477
0.605643 0.019503 0.152855
0.632814 0.022549 0.160136
0.654319 0.023051 0.169680
0.654319 0.023051 0.169680
0.654319 0.023051 0.169680
0.654319 0.023051 0.169680
0.654319 0.023051 0.169680
0.654319 0.023051 0.169680
0.654319 0.023051 0.169680
0.654319 0.023051 0.169680
0.654319 0.023051 0.169680
0.654319 0.023051 0.169680
0.654319 0.023051 0.169680
0.654319 0.023051 0.169680
0.654319 0.023051 0.169680
0.016725 0.102933 0.017200
0.016926 0.096262 0.016755
0.013412 0.089674 0.017062
0.014198 0.085990 0.016840
0.009315 0.080770 0.013688
0.029259 0.078991 0.013379
0.050963 0.074503 0.013825
0.071882 0.074707 0.009300
0.097886 0.072451 0.012675
0.122915 0.069556 0.013345
0.155169 0.072494 0.016410
0.203463 0.067729 0.025645
0.263284 0.070358 0.043669
0.330925 0.070813 0.060938
0.394269 0.068028 0.080469
0.457221 0.065908 0.106169
0.514312 0.058264 0.124277
0.559283 0.050900 0.138481
0.594106 0.022768 0.149172
0.617764 0.019561 0.155031
0.645328 0.019925 0.166527
0.654319 0.023051 0.169680
0.654319 0.023051 0.169680
0.654319 0.023051 0.169680
0.654319 0.023051 0.169680
0.654319 0.023051 0.169680
0.654319 0.023051 0.169680
0.654319 0.023051 0.169680
0.654319 0.023051 0.169680
0.654319 0.023051 0.169680
0.654319 0.023051 0.169680
0.654319 0.023051 0.169680
0.654319 0.023051 0.169680
0.030387 0.128945 0.027324
0.022574 0.119787 0.026434
0.024145 0.113427 0.020797
0.022977 0.108126 0.016891
0.016725 0.102933 0.017200
0.029631 0.098970 0.020882
0.048598 0.098230 0.009214
0.072649 0.093349 0.014097
0.092592 0.091569 0.013788
0.119180 0.092972 0.013926
0.148506 0.092308 0.017523
0.192299 0.091982 0.024274
0.249582 0.091352 0.031468
0.308034 0.094342 0.051223
0.376069 0.091779 0.074437
0.439996 0.091308 0.097652
0.498055 0.095301 0.121843
0.554160 0.097677 0.142351
0.598145 0.099657 0.162414
0.628255 0.093629 0.174441
0.651924 0.079092 0.178656
0.656463 0.029664 0.172831
0.656665 0.023330 0.170656
0.656665 0.023330 0.170656
0.656665 0.023330 0.170656
0.656665 0.023330 0.170656
0.656665 0.023330 0.170656
0.656665 0.023330 0.170656
0.656665 0.023330 0.170656
0.656665 0.023330 0.170656
0.656665 0.023330 0.170656
0.654319 0.023051 0.169680
0.654319 0.023051 0.169680
0.032119 0.159222 0.038202
0.031736 0.150574 0.032343
0.029592 0.143960 0.029192
0.032530 0.135557 0.030477
0.030387 0.128945 0.027324
0.031957 0.121575 0.026878
0.049555 0.120525 0.020403
0.068331 0.114115 0.012726
0.091989 0.111917 0.013396
0.113493 0.114435 0.012555
0.144580 0.111737 0.013445
0.181337 0.110573 0.017265
0.235487 0.112339 0.028898
0.294725 0.111646 0.048430
0.359629 0.113160 0.067430
0.423165 0.114699 0.089891
0.485330 0.116600 0.114082
0.542412 0.119279 0.139028
0.588541 0.128209 0.160512
0.626072 0.132676 0.176137
0.655982 0.132646 0.192069
0.680818 0.123746 0.198460
0.680637 0.107755 0.195618
0.676358 0.082524 0.191130
0.666219 0.051770 0.179051
0.660178 0.029247 0.173808
0.656665 0.023330 0.170656
0.656665 0.023330 0.170656
0.656665 0.023330 0.170656
0.656665 0.023330 0.170656
0.656665 0.023330 0.170656
0.656665 0.023330 0.170656
0.656665 0.023330 0.170656
0.026413 0.201667 0.048774
0.025444 0.190367 0.040960
0.035230 0.178815 0.040515
0.034847 0.169495 0.038117
0.032119 0.159222 0.038202
0.032321 0.153224 0.034296
0.048357 0.147536 0.030082
0.070456 0.142719 0.022628
0.093137 0.139880 0.020590
0.114841 0.136737 0.014114
0.142215 0.134456 0.014028
0.178579 0.135302 0.017095
0.228432 0.134837 0.025796
0.283561 0.136571 0.043598
0.347488 0.136772 0.063351
0.411023 0.137303 0.091004
0.471821 0.140236 0.113465
0.531248 0.143531 0.137657
0.582461 0.151683 0.158387
0.625267 0.158687 0.181378
0.658107 0.161923 0.198511
0.682350 0.161031 0.208055
0.696042 0.153384 0.211516
0.692144 0.137811 0.207694
0.689416 0.128211 0.204320
0.685319 0.119308 0.200945
0.682006 0.106386 0.199079
0.676941 0.085511 0.191352
0.670891 0.074318 0.187754
0.668938 0.072365 0.185801
0.669139 0.066031 0.183625
0.666411 0.056767 0.178520
0.664266 0.049481 0.178827
0.016588 0.257536 0.060989
0.020121 0.241126 0.059121
0.019940 0.225470 0.054547
0.026009 0.215008 0.049664
0.029343 0.204933 0.049972
0.026613 0.195669 0.044867
0.046174 0.184231 0.043891
0.067295 0.178100 0.037191
0.092131 0.171888 0.029739
0.113836 0.168745 0.023261
0.139648 0.164181 0.013324
0.173667 0.164412 0.017145
0.217460 0.164422 0.022165
0.276303 0.165738 0.040941
0.338862 0.165965 0.064157
0.401419 0.166864 0.083910
0.467301 0.168010 0.110808
0.526337 0.172642 0.137708
0.583217 0.182329 0.161367
0.627001 0.189973 0.187067
0.663555 0.193799 0.199984
0.687989 0.196558 0.215918
0.707539 0.194773 0.225239
0.704036 0.177861 0.218712
0.698376 0.164659 0.215867
0.695065 0.152407 0.210539
0.692144 0.137811 0.207694
0.689024 0.129884 0.205296
0.686486 0.125617 0.199661
0.686295 0.120620 0.200191
0.685319 0.119308 0.200945
0.685127 0.114311 0.201477
0.684150 0.113671 0.198769
0.000110 0.319872 0.083055
0.000000 0.301902 0.074797
0.003854 0.287140 0.070445
0.009732 0.271346 0.067825
0.020303 0.256782 0.063695
0.019920 0.246788 0.064758
0.034788 0.235128 0.060097
0.061388 0.226209 0.053398
0.089938 0.219578 0.046922
0.110082 0.213143 0.035785
0.143325 0.206736 0.032992
0.172458 0.203092 0.026738
0.216252 0.203437 0.030028
0.269821 0.202890 0.037977
0.333748 0.202755 0.059461
0.398653 0.203596 0.081922
0.462188 0.204463 0.107844
0.523175 0.210377 0.140155
0.581426 0.219030 0.165546
0.632639 0.226173 0.191468
0.669778 0.231978 0.209801
0.697533 0.236666 0.224227
0.717667 0.237193 0.237230
0.717486 0.221202 0.234388
0.712030 0.202001 0.227637
0.707740 0.188101 0.224793
0.701106 0.174595 0.217511
0.698376 0.164659 0.215867
0.695065 0.152407 0.210539
0.693503 0.148444 0.209340
0.693503 0.148444 0.209340
0.692920 0.145458 0.209117
0.694682 0.143087 0.208141
0.000000 0.388181 0.110449
0.000000 0.369515 0.102192
0.000080 0.352520 0.094910
0.000291 0.335527 0.087628
0.000000 0.321882 0.082300
0.000000 0.308236 0.076972
0.019487 0.293786 0.072312
0.049408 0.284779 0.074488
0.084412 0.276336 0.068989
0.116093 0.266635 0.061536
0.143275 0.261374 0.051597
0.180626 0.253210 0.047075
0.221097 0.253308 0.043220
0.269581 0.254549 0.046731
0.336247 0.253354 0.066484
0.398412 0.254919 0.092406
0.468009 0.256319 0.116820
0.527042 0.260615 0.145449
0.588615 0.269852 0.176254
0.641781 0.278949 0.204128
0.680481 0.288045 0.227121
0.713320 0.292288 0.239063
0.736586 0.289747 0.251089
0.740120 0.272665 0.252684
0.729386 0.249920 0.243758
0.719822 0.232476 0.238737
0.713973 0.214949 0.232965
0.708515 0.196085 0.224484
0.704619 0.180511 0.220665
0.704036 0.177861 0.218712
0.701106 0.174595 0.217511
0.702868 0.172224 0.216535
0.702868 0.172224 0.216535
0.000000 0.460119 0.140774
0.000585 0.441788 0.130785
0.000000 0.423481 0.124258
0.000031 0.406824 0.115247
0.000000 0.391505 0.108942
0.000000 0.376521 0.100906
0.000463 0.362514 0.093848
0.034491 0.352085 0.092562
0.075555 0.343503 0.089016
0.117011 0.332910 0.086222
0.146538 0.326584 0.084184
0.183103 0.321769 0.081613
0.228074 0.318436 0.075051
0.279105 0.314293 0.073902
0.340295 0.317234 0.086734
0.406176 0.319387 0.108442
0.468342 0.321960 0.129171
0.536951 0.332033 0.162905
0.603416 0.336166 0.190027
0.657750 0.350899 0.220077
0.705248 0.359134 0.241562
0.739064 0.363346 0.259672
0.766629 0.363374 0.272899
0.779737 0.352405 0.277867
0.761000 0.315841 0.266852
0.744801 0.284555 0.256281
0.733093 0.259825 0.251571
0.724314 0.239369 0.242868
0.718462 0.222178 0.235364
0.711828 0.208335 0.229812
0.713590 0.205629 0.230567
0.712030 0.202001 0.227637
0.710077 0.199712 0.227414
0.000306 0.532723 0.177265
0.000000 0.512743 0.169762
0.000537 0.494747 0.158043
0.000749 0.478089 0.149032
0.000567 0.463442 0.139266
0.000385 0.448458 0.131230
0.000000 0.434813 0.125902
0.029539 0.421480 0.125149
0.074318 0.412815 0.120848
0.115382 0.404233 0.117300
0.156639 0.398966 0.121876
0.193597 0.393484 0.113137
0.242282 0.388390 0.114473
0.296242 0.387177 0.116255
0.351179 0.387611 0.115550
0.414323 0.391832 0.133796
0.481763 0.397614 0.158434
0.548420 0.406743 0.185023
0.618400 0.417128 0.213567
0.679971 0.427372 0.239179
0.733136 0.437477 0.261863
0.772229 0.445907 0.278687
0.799401 0.446599 0.298082
0.818951 0.444142 0.310863
0.802369 0.403869 0.296163
0.783442 0.362981 0.282219
0.767050 0.327370 0.268718
0.749876 0.295107 0.257172
0.737582 0.267726 0.250507
0.728803 0.246597 0.245266
0.724897 0.242355 0.243090
0.724705 0.238367 0.238430
0.723729 0.237055 0.239184
0.010407 0.606784 0.206306
0.000258 0.587026 0.197602
0.000000 0.569391 0.187613
0.000679 0.553038 0.183039
0.003236 0.536660 0.175005
0.000000 0.521086 0.171183
0.003457 0.507999 0.167808
0.035532 0.496626 0.159380
0.084610 0.490193 0.158009
0.125281 0.482613 0.158897
0.168298 0.475647 0.159035
0.219331 0.470832 0.161348
0.266647 0.466770 0.160952
0.321976 0.464859 0.162734
0.378868 0.466911 0.165715
0.436735 0.470276 0.167941
0.499093 0.478518 0.184679
0.568094 0.488263 0.210515
0.641002 0.502585 0.236797
0.703159 0.515144 0.266094
0.753978 0.524634 0.289531
0.796786 0.532310 0.309063
0.825327 0.533314 0.323266
0.849569 0.532420 0.332809
0.848419 0.504122 0.327344
0.829885 0.461225 0.314153
0.811742 0.415981 0.303445
0.789100 0.375848 0.286793
0.768803 0.335322 0.274578
0.754365 0.302335 0.259571
0.746754 0.287180 0.254773
0.744216 0.281569 0.256059
0.743633 0.279590 0.250645
0.092849 0.672881 0.240808
0.060605 0.659620 0.230907
0.040287 0.641757 0.221982
0.022900 0.627494 0.212523
0.038162 0.613825 0.208617
0.009238 0.601819 0.200668
0.000000 0.589035 0.196847
0.029201 0.578721 0.190147
0.100568 0.570115 0.192906
0.143978 0.562147 0.188605
0.193641 0.557694 0.192648
0.243302 0.552904 0.198422
0.292573 0.550123 0.203441
0.349463 0.551166 0.211613
0.403031 0.552300 0.210910
0.464614 0.555919 0.210652
0.527755 0.562492 0.216785
0.593043 0.572655 0.241645
0.660284 0.585106 0.266727
0.723417 0.599315 0.293540
0.774629 0.606794 0.317729
0.814505 0.611876 0.332602
0.845000 0.615841 0.343566
0.874326 0.613833 0.354086
0.879229 0.596053 0.355679
0.869684 0.556620 0.343910
0.852126 0.514363 0.333426
0.833982 0.470126 0.317527
0.815448 0.426894 0.306066
0.793983 0.381403 0.288215
0.779153 0.349419 0.277646
0.775246 0.345512 0.273739
0.773686 0.340541 0.277731
0.169826 0.729427 0.278860
0.139533 0.718121 0.270910
0.120385 0.706902 0.258969
0.107296 0.694872 0.252442
0.097139 0.686780 0.243653
0.087956 0.678321 0.242761
0.076631 0.664592 0.231796
0.084653 0.656419 0.227136
0.127672 0.649791 0.225544
0.181834 0.642241 0.225149
0.227781 0.637870 0.229945
0.276075 0.634449 0.232258
0.326905 0.634960 0.241938
0.380865 0.632739 0.248910
0.442055 0.636014 0.260012
0.499529 0.640045 0.268407
0.558765 0.644729 0.260250
0.617801 0.653059 0.268114
0.680350 0.665288 0.289511
0.740945 0.675565 0.308957
0.789813 0.683774 0.326981
0.830082 0.687182 0.340875
0.864683 0.689054 0.351840
0.893617 0.688721 0.363336
0.905356 0.678449 0.368306
0.896979 0.643979 0.362171
0.883327 0.604956 0.359054
0.870458 0.563594 0.348792
0.852709 0.517685 0.331918
0.837495 0.476043 0.320679
0.814471 0.425917 0.305089
0.809980 0.418688 0.302692
0.809789 0.414028 0.301492
0.220023 0.781591 0.306922
0.206151 0.773582 0.298886
0.202053 0.764343 0.297242
0.192287 0.754577 0.287476
0.179390 0.746536 0.285609
0.177639 0.737913 0.283210
0.161812 0.728286 0.271491
0.159667 0.721672 0.268340
0.191542 0.715962 0.265547
0.228689 0.713123 0.268390
0.274636 0.709760 0.267996
0.321169 0.708038 0.274747
0.363984 0.706735 0.280520
0.417160 0.708197 0.287714
0.469550 0.713007 0.296863
0.525073 0.715084 0.303305
0.585477 0.723053 0.309437
0.640998 0.728827 0.296843
0.700426 0.736827 0.296809
0.758092 0.744175 0.313325
0.804028 0.749453 0.328417
0.844299 0.752188 0.345773
0.875770 0.756794 0.359445
0.901774 0.753530 0.368012
0.926408 0.751300 0.374848
0.920176 0.723445 0.371868
0.910430 0.689000 0.369195
0.902446 0.651512 0.369007
0.884495 0.610930 0.359500
0.870458 0.563594 0.348792
0.852910 0.511014 0.331472
0.846276 0.497171 0.325922
0.846085 0.492175 0.326454
0.286258 0.826052 0.341153
0.275708 0.819635 0.333341
0.264179 0.811904 0.326280
0.259690 0.805347 0.320421
0.244055 0.799037 0.316824
0.238981 0.789494 0.310743
0.221976 0.784553 0.303683
0.219833 0.777939 0.300532
0.246621 0.773007 0.298491
0.279079 0.769947 0.297653
0.313489 0.768505 0.300496
0.352590 0.768627 0.300100
0.398335 0.770590 0.307074
0.443106 0.771912 0.311340
0.495889 0.775048 0.319511
0.549255 0.781171 0.327906
0.606731 0.786210 0.331109
0.661468 0.792643 0.334313
0.716012 0.797777 0.319012
0.769188 0.802599 0.308902
0.812779 0.807264 0.324749
0.850704 0.810392 0.337668
0.885305 0.811929 0.350363
0.911893 0.811652 0.359152
0.931836 0.808864 0.364035
0.933416 0.788149 0.372328
0.925815 0.760317 0.372808
0.923690 0.729697 0.373288
0.911013 0.692323 0.367687
0.900885 0.648221 0.364348
0.884112 0.601272 0.358832
0.873380 0.577519 0.355097
0.870842 0.572916 0.351191
0.355039 0.863785 0.377644
0.347812 0.858623 0.371785
0.333545 0.852288 0.364727
0.323971 0.847183 0.356160
0.313813 0.838755 0.349102
0.300523 0.833396 0.343020
0.294271 0.829210 0.338137
0.284697 0.823433 0.333031
0.301711 0.819059 0.328062
0.327322 0.819150 0.328954
0.359778 0.816425 0.326382
0.392428 0.817690 0.328472
0.433875 0.818092 0.329054
0.476882 0.821786 0.334297
0.518914 0.824166 0.340292
0.574043 0.828926 0.342520
0.621349 0.835524 0.347230
0.677455 0.840587 0.353895
0.730239 0.845405 0.353413
0.775401 0.849086 0.335937
0.816848 0.853520 0.315754
0.855165 0.854975 0.327695
0.886052 0.856931 0.339414
0.910686 0.855037 0.344521
0.932583 0.853865 0.353086
0.943345 0.841945 0.360538
0.940625 0.818997 0.365903
0.935954 0.794096 0.369313
0.930113 0.762550 0.375738
0.922129 0.725398 0.373821
0.909262 0.683028 0.368749
0.901660 0.656205 0.364039
0.902446 0.651512 0.369007
0.414246 0.894733 0.414222
0.407019 0.889571 0.408363
0.399789 0.885081 0.399042
0.388845 0.880001 0.393938
0.381618 0.875175 0.386347
0.370674 0.870767 0.377782
0.357386 0.865073 0.373431
0.351133 0.860887 0.368548
0.364040 0.858605 0.363577
0.379292 0.856603 0.359586
0.410963 0.856890 0.360698
0.436967 0.855979 0.357152
0.468246 0.858276 0.357512
0.507932 0.861050 0.359071
0.551333 0.863070 0.363336
0.594341 0.867436 0.365118
0.642432 0.870349 0.369605
0.690131 0.875945 0.369878
0.739199 0.880844 0.370152
0.782206 0.885882 0.368472
0.820725 0.888396 0.340168
0.854158 0.890009 0.321270
0.885830 0.889288 0.327575
0.911049 0.890045 0.334633
0.933338 0.886863 0.343953
0.946244 0.882228 0.351098
0.947039 0.865869 0.356152
0.944905 0.846245 0.360008
0.940625 0.818997 0.365903
0.934392 0.789797 0.369843
0.926600 0.756298 0.374316
0.920761 0.726431 0.372090
0.918222 0.720819 0.373375
0.474238 0.922332 0.448847
0.466617 0.918844 0.443964
0.459388 0.913683 0.438105
0.449422 0.910250 0.430516
0.435741 0.906903 0.423681
0.429881 0.900707 0.419550
0.421284 0.896915 0.410231
0.412686 0.892449 0.404371
0.421877 0.890250 0.400156
0.437129 0.888248 0.396164
0.452965 0.889231 0.392394
0.480922 0.889938 0.392531
0.508879 0.890980 0.390938
0.539182 0.892972 0.386860
0.576914 0.893793 0.386465
0.617576 0.897543 0.389000
0.660583 0.902581 0.387320
0.703592 0.906946 0.389102
0.743671 0.908719 0.386224
0.788048 0.913395 0.382812
0.821087 0.915002 0.373542
0.853545 0.916647 0.348476
0.882680 0.918044 0.316265
0.906923 0.917488 0.324078
0.927842 0.915003 0.333398
0.946808 0.910902 0.339035
0.947403 0.901550 0.342806
0.945852 0.884574 0.348614
0.945670 0.866902 0.354422
0.942951 0.843954 0.359785
0.937695 0.815395 0.366434
0.934201 0.784129 0.373836
0.932641 0.780165 0.372637
0.523297 0.932849 0.480183
0.522321 0.931873 0.479207
0.512545 0.932766 0.474547
0.504924 0.929950 0.466204
0.496517 0.930482 0.459813
0.487527 0.928028 0.453200
0.478538 0.925573 0.446585
0.472285 0.921052 0.443434
0.471702 0.919409 0.436289
0.484607 0.917128 0.431320
0.503182 0.916717 0.427551
0.524102 0.916585 0.424757
0.542283 0.917512 0.423694
0.575325 0.917774 0.421347
0.602889 0.921162 0.417270
0.641598 0.923295 0.416121
0.673271 0.924255 0.413773
0.716669 0.927955 0.409386
0.754010 0.931457 0.404778
0.792719 0.934600 0.398437
0.828105 0.935814 0.393605
0.855085 0.937894 0.380653
0.881875 0.938677 0.349196
0.902996 0.937251 0.318269
0.924892 0.936416 0.325105
0.945814 0.934268 0.332696
0.947383 0.926564 0.333980
0.947977 0.917212 0.337750
0.948379 0.902526 0.343782
0.945852 0.884574 0.348614
0.946063 0.865229 0.353446
0.940807 0.836334 0.361824
0.942961 0.831951 0.361602
0.540301 0.936445 0.494164
0.535609 0.936223 0.490481
0.534632 0.935583 0.487773
0.534632 0.935583 0.487773
0.528965 0.934384 0.483113
0.527988 0.933407 0.482136
0.525643 0.933464 0.479430
0.520952 0.933242 0.475746
0.525643 0.934136 0.475970
0.540502 0.934144 0.471223
0.550278 0.935267 0.465500
0.563374 0.937646 0.461730
0.584879 0.940501 0.459160
0.607751 0.942994 0.454859
0.629648 0.944511 0.449582
0.662690 0.945109 0.445505
0.694362 0.946742 0.439695
0.728380 0.948988 0.433133
0.766112 0.950146 0.431008
0.795045 0.953508 0.423469
0.824764 0.953523 0.413977
0.855459 0.954515 0.405460
0.881463 0.955956 0.389801
0.900632 0.954930 0.344810
0.919015 0.953219 0.322536
0.938564 0.952441 0.326664
0.948148 0.946215 0.333585
0.948743 0.937533 0.333894
0.947967 0.929551 0.334204
0.947000 0.916235 0.336773
0.946426 0.900573 0.341829
0.945268 0.881252 0.350122
0.944885 0.870922 0.352914
0.555352 0.939097 0.501000
0.550661 0.938539 0.499047
0.549684 0.937562 0.498070
0.549684 0.938234 0.494609
0.544992 0.937675 0.492656
0.544016 0.936363 0.493411
0.540301 0.937117 0.490703
0.538348 0.935500 0.487019
0.542063 0.935755 0.484535
0.550076 0.937905 0.486712
0.565519 0.940562 0.483918
0.585071 0.940792 0.482856
0.602859 0.943394 0.482769
0.627686 0.947503 0.482152
0.651928 0.949301 0.477852
0.681838 0.952632 0.476480
0.713118 0.955265 0.475109
0.744396 0.958571 0.470277
0.773330 0.961261 0.466200
0.804026 0.962925 0.454223
0.829636 0.965704 0.441269
0.852902 0.967868 0.429070
0.876561 0.968695 0.414164
0.898266 0.967567 0.397304
0.917826 0.966547 0.342683
