lut/fujifilm/F-Log/F-Log_LUT_E_Ver.1.27/X-S20/XS20_FLog_FGamut_to_ETERNA-BB_BT.709_33gird_V.1.00.cube
#title:FLog_FGamut_to_ETERNA-BB_BT.709
#FUJIFILM Corporation
#Gamma:F-Log to ETERNA BLEACH BYPASS
#Gamut:F-Gamut to ITU-R BT.709
#Version:1.00
LUT_3D_SIZE 9
0.000000 0.000000 0.000000
0.037924 0.004136 0.007727
0.192367 0.009975 0.026605
0.507507 0.016427 0.117699
0.654319 0.023051 0.169680
0.654319 0.023051 0.169680
0.654319 0.023051 0.169680
0.654319 0.023051 0.169680
0.654319 0.023051 0.169680
0.003293 0.035249 0.006887
0.016995 0.016608 0.006972
0.099505 0.006747 0.012660
0.324522 0.012946 0.067312
0.573780 0.016908 0.138430
0.654319 0.023051 0.169680
0.654319 0.023051 0.169680
0.654319 0.023051 0.169680
0.654319 0.023051 0.169680
0.030387 0.128945 0.027324
0.016725 0.102933 0.017200
0.092592 0.091569 0.013788
0.249582 0.091352 0.031468
0.498055 0.095301 0.121843
0.651924 0.079092 0.178656
0.656665 0.023330 0.170656
0.656665 0.023330 0.170656
0.654319 0.023051 0.169680
0.000110 0.319872 0.083055
0.020303 0.256782 0.063695
0.089938 0.219578 0.046922
0.216252 0.203437 0.030028
0.462188 0.204463 0.107844
0.669778 0.231978 0.209801
0.712030 0.202001 0.227637
0.695065 0.152407 0.210539
0.694682 0.143087 0.208141
0.010407 0.606784 0.206306
0.003236 0.536660 0.175005
0.084610 0.490193 0.158009
0.266647 0.466770 0.160952
0.499093 0.478518 0.184679
0.753978 0.524634 0.289531
0.848419 0.504122 0.327344
0.768803 0.335322 0.274578
0.743633 0.279590 0.250645
0.286258 0.826052 0.341153
0.244055 0.799037 0.316824
0.246621 0.773007 0.298491
0.398335 0.770590 0.307074
0.606731 0.786210 0.331109
0.812779 0.807264 0.324749
0.931836 0.808864 0.364035
0.911013 0.692323 0.367687
0.870842 0.572916 0.351191
0.523297 0.932849 0.480183
0.496517 0.930482 0.459813
0.471702 0.919409 0.436289
0.542283 0.917512 0.423694
0.673271 0.924255 0.413773
0.828105 0.935814 0.393605
0.924892 0.936416 0.325105
0.948379 0.902526 0.343782
0.942961 0.831951 0.361602
0.590537 0.942613 0.519109
0.578810 0.941552 0.512497
0.572163 0.939713 0.505129
0.610088 0.946539 0.499012
0.694151 0.954661 0.493700
0.805586 0.963528 0.472727
0.904125 0.970401 0.418739
0.948322 0.975217 0.329423
0.948148 0.946215 0.333585
0.617900 0.947293 0.543164
0.619662 0.945931 0.536996
0.619662 0.946939 0.531804
0.642534 0.950105 0.524042
0.685936 0.954141 0.517925
0.759638 0.960842 0.504270
0.847618 0.967924 0.468340
0.929153 0.973219 0.389988
0.948322 0.975217 0.329423
0.000583 0.000298 0.014066
0.037924 0.004136 0.007727
0.186306 0.009778 0.026383
0.488740 0.013522 0.113348
0.651972 0.022772 0.168703
0.654319 0.023051 0.169680
0.654319 0.023051 0.169680
0.654319 0.023051 0.169680
0.654319 0.023051 0.169680
0.003091 0.037887 0.028098
0.016602 0.016602 0.016602
0.099505 0.006747 0.012660
0.314746 0.013503 0.064382
0.564004 0.017129 0.137230
0.654319 0.023051 0.169680
0.654319 0.023051 0.169680
0.654319 0.023051 0.169680
0.654319 0.023051 0.169680
0.022363 0.130059 0.068324
0.010070 0.105032 0.049547
0.094343 0.097168 0.031761
0.244498 0.092131 0.032222
0.493556 0.099067 0.122820
0.652306 0.088077 0.182784
0.656665 0.023330 0.170656
0.656665 0.023330 0.170656
0.656665 0.023330 0.170656
0.000684 0.325452 0.129914
0.010125 0.262614 0.103188
0.090511 0.225494 0.092051
0.222101 0.212226 0.080792
0.460618 0.211158 0.111750
0.672315 0.237253 0.210246
0.711828 0.208335 0.229812
0.696625 0.156371 0.211738
0.693503 0.148444 0.209340
0.000000 0.612611 0.255426
0.000000 0.546342 0.221108
0.093781 0.502254 0.200344
0.277963 0.484774 0.209903
0.513731 0.497103 0.239043
0.757291 0.537220 0.293128
0.852126 0.514363 0.333426
0.776223 0.346489 0.274716
0.747731 0.288157 0.255750
0.274902 0.830186 0.418184
0.234461 0.802815 0.382496
0.235266 0.780502 0.358218
0.401257 0.776449 0.354910
0.610627 0.794389 0.372999
0.816675 0.814435 0.371831
0.935742 0.813442 0.364481
0.912575 0.696286 0.368887
0.877869 0.585084 0.355764
0.516049 0.935563 0.553755
0.487708 0.929904 0.528722
0.467584 0.919726 0.505423
0.547156 0.920955 0.495980
0.680488 0.928650 0.483574
0.829073 0.938374 0.446410
0.925869 0.937729 0.324351
0.947010 0.903895 0.340319
0.940807 0.836334 0.361824
0.597173 0.944693 0.585226
0.584074 0.944330 0.578614
0.578406 0.943803 0.570492
0.617116 0.947617 0.560692
0.696486 0.954509 0.556887
0.808899 0.964016 0.538622
0.904509 0.970985 0.466129
0.948322 0.975217 0.329423
0.946387 0.949258 0.331101
0.629619 0.948594 0.608527
0.628643 0.948962 0.600630
0.624343 0.948747 0.587316
0.646241 0.950935 0.578578
0.690617 0.956284 0.571707
0.762368 0.961032 0.556098
0.849369 0.967810 0.515730
0.927582 0.973530 0.426773
0.948322 0.975217 0.329423
0.003896 0.003811 0.064386
0.037521 0.006388 0.065723
0.175746 0.010659 0.040981
0.470559 0.013603 0.109219
0.645328 0.019925 0.166527
0.654319 0.023051 0.169680
0.654319 0.023051 0.169680
0.654319 0.023051 0.169680
0.654319 0.023051 0.169680
0.006988 0.041361 0.094215
0.006233 0.017102 0.058356
0.098520 0.006684 0.066972
0.301256 0.013807 0.063937
0.555598 0.016652 0.136031
0.654319 0.023051 0.169680
0.654319 0.023051 0.169680
0.654319 0.023051 0.169680
0.654319 0.023051 0.169680
0.013746 0.135486 0.131512
0.003215 0.109766 0.103104
0.103516 0.103516 0.103516
0.247610 0.098282 0.103754
0.488862 0.099516 0.115676
0.653274 0.100385 0.185407
0.656665 0.023330 0.170656
0.656665 0.023330 0.170656
0.656665 0.023330 0.170656
0.000271 0.335001 0.210321
0.000330 0.274072 0.164114
0.093814 0.240003 0.145746
0.230095 0.224603 0.150285
0.473112 0.222123 0.168153
0.670744 0.243949 0.214152
0.713973 0.214949 0.232965
0.697209 0.159022 0.213691
0.695065 0.152407 0.210539
0.000592 0.623092 0.362234
0.000258 0.564845 0.311813
0.089644 0.524898 0.274496
0.286148 0.503492 0.271940
0.532276 0.517916 0.305966
0.764710 0.547379 0.298456
0.859545 0.525193 0.335294
0.782857 0.359996 0.281995
0.749876 0.295107 0.257172
0.245950 0.832681 0.515536
0.205699 0.809972 0.481047
0.228400 0.788840 0.453223
0.400059 0.787667 0.445922
0.613930 0.803856 0.452652
0.825848 0.821455 0.440126
0.934566 0.819808 0.360489
0.915696 0.704212 0.371286
0.879229 0.596053 0.355679
0.492964 0.935947 0.638015
0.462864 0.932324 0.615690
0.452514 0.921925 0.593590
0.535801 0.923072 0.583395
0.678516 0.931547 0.576625
0.833161 0.940461 0.544874
0.929172 0.940139 0.440344
0.947202 0.908556 0.341520
0.942951 0.843954 0.359785
0.597354 0.947241 0.657288
0.586995 0.946156 0.647216
0.581326 0.944958 0.642554
0.626679 0.950274 0.641852
0.702336 0.957249 0.638801
0.812010 0.966470 0.629188
0.905273 0.973495 0.553988
0.950848 0.974349 0.421496
0.948340 0.951211 0.333054
0.636253 0.950002 0.678105
0.634885 0.952043 0.671183
0.636253 0.953027 0.662531
0.658543 0.953206 0.654548
0.699598 0.957636 0.643993
0.766655 0.961825 0.626429
0.851898 0.969966 0.592231
0.928942 0.973745 0.482063
0.948322 0.975217 0.329423
0.019511 0.007242 0.202789
0.030273 0.006748 0.151405
0.169666 0.013968 0.142683
0.456283 0.016918 0.112458
0.636922 0.019784 0.163597
0.654319 0.023051 0.169680
0.654319 0.023051 0.169680
0.654319 0.023051 0.169680
0.654319 0.023051 0.169680
0.026510 0.047019 0.245176
0.017167 0.016037 0.155090
0.094987 0.010323 0.134599
0.298307 0.016736 0.150820
0.547191 0.016849 0.131371
0.654319 0.023051 0.169680
0.654319 0.023051 0.169680
0.654319 0.023051 0.169680
0.654319 0.023051 0.169680
0.048511 0.149800 0.283586
0.035250 0.121873 0.213734
0.099198 0.110167 0.174825
0.243482 0.109930 0.174532
0.496657 0.116549 0.195996
0.655026 0.109008 0.187805
0.656665 0.023330 0.170656
0.656665 0.023330 0.170656
0.656665 0.023330 0.170656
0.029941 0.361761 0.363063
0.013973 0.299556 0.296930
0.099060 0.257713 0.254954
0.242188 0.242188 0.242188
0.491455 0.245237 0.258017
0.677188 0.253804 0.215044
0.718462 0.222178 0.235364
0.699353 0.165636 0.216844
0.696232 0.158045 0.212714
0.000000 0.636573 0.491984
0.000000 0.589656 0.443206
0.092535 0.549962 0.403405
0.297445 0.530714 0.393399
0.551395 0.546324 0.409364
0.791844 0.575249 0.417875
0.860703 0.541826 0.340844
0.787932 0.370211 0.284618
0.756318 0.304288 0.261524
0.178871 0.834687 0.621179
0.151719 0.813011 0.589844
0.182041 0.795704 0.565172
0.389671 0.797050 0.561915
0.619961 0.815194 0.575480
0.835987 0.832381 0.554302
0.940998 0.824526 0.447816
0.917448 0.713509 0.370223
0.883910 0.607943 0.359278
0.455414 0.935658 0.720856
0.426682 0.931002 0.700262
0.419655 0.921523 0.681845
0.518385 0.922975 0.680969
0.673412 0.934489 0.686227
0.837047 0.943840 0.671472
0.934428 0.942821 0.566942
0.953443 0.908614 0.427649
0.943536 0.847278 0.358278
0.568018 0.946801 0.719363
0.557657 0.944708 0.714480
0.558051 0.944715 0.704851
0.614156 0.950116 0.709785
0.706816 0.959005 0.729367
0.812382 0.969310 0.724945
0.911898 0.977162 0.671933
0.954543 0.977436 0.524399
0.946972 0.952581 0.329594
0.606918 0.949899 0.738448
0.612003 0.951136 0.727312
0.616109 0.950724 0.718661
0.652080 0.954252 0.717511
0.706816 0.960013 0.724176
0.773875 0.963195 0.711805
0.856377 0.972059 0.681066
0.934005 0.975463 0.588426
0.952801 0.975630 0.426910
0.051336 0.010801 0.452214
0.035318 0.009958 0.370078
0.170814 0.013701 0.295238
0.458993 0.022631 0.255829
0.629884 0.019619 0.157206
0.654319 0.023051 0.169680
0.654319 0.023051 0.169680
0.654319 0.023051 0.169680
0.654319 0.023051 0.169680
0.075146 0.056907 0.469313
0.044500 0.020096 0.362316
0.096135 0.010057 0.287152
0.305325 0.019399 0.264329
0.557531 0.022784 0.236450
0.654319 0.023051 0.169680
0.654319 0.023051 0.169680
0.654319 0.023051 0.169680
0.654319 0.023051 0.169680
0.098707 0.169029 0.481235
0.076458 0.138984 0.403039
0.099943 0.121896 0.335192
0.250682 0.125224 0.308189
0.507571 0.137139 0.301211
0.662828 0.120758 0.235331
0.656665 0.023330 0.170656
0.656665 0.023330 0.170656
0.656665 0.023330 0.170656
0.106334 0.390788 0.527215
0.086842 0.331981 0.469958
0.086497 0.286746 0.412528
0.250545 0.271090 0.396968
0.506649 0.282654 0.410980
0.706454 0.291888 0.379059
0.730363 0.250561 0.246465
0.702868 0.172224 0.216535
0.696423 0.163042 0.212183
0.003261 0.653965 0.616011
0.022851 0.614248 0.580684
0.053194 0.576293 0.542340
0.297790 0.559146 0.537352
0.577148 0.577148 0.577148
0.820538 0.599016 0.580023
0.889598 0.567659 0.457555
0.806275 0.408111 0.298340
0.760416 0.312855 0.266628
0.000000 0.829252 0.699652
0.000186 0.812937 0.679283
0.071170 0.798707 0.660606
0.353478 0.802353 0.672355
0.613287 0.821472 0.706293
0.840255 0.840041 0.709253
0.960912 0.828509 0.597801
0.940875 0.735506 0.461062
0.892689 0.629407 0.362789
0.362543 0.931327 0.772583
0.340656 0.922176 0.757180
0.350049 0.913979 0.749059
0.473213 0.919199 0.758925
0.649352 0.931880 0.779895
0.831944 0.945102 0.789726
0.940851 0.944418 0.730324
0.963581 0.910129 0.590277
0.949969 0.854348 0.433491
0.516202 0.943538 0.777840
0.509558 0.941699 0.770473
0.510926 0.941674 0.767013
0.578760 0.948805 0.775097
0.681195 0.958483 0.790688
0.811779 0.972182 0.814535
0.912463 0.980294 0.791387
0.966635 0.982250 0.682058
0.957111 0.952416 0.500874
0.557448 0.948259 0.790981
0.566247 0.948742 0.782551
0.575045 0.948889 0.775851
0.622160 0.951498 0.775902
0.686280 0.959048 0.783012
0.775618 0.967690 0.795449
0.861441 0.974785 0.782239
0.938870 0.979483 0.717731
0.956104 0.978039 0.542903
0.090408 0.013999 0.615957
0.078881 0.013327 0.572559
0.156308 0.017352 0.511512
0.468135 0.035079 0.476145
0.649387 0.040881 0.347797
0.656665 0.023330 0.170656
0.654319 0.023051 0.169680
0.654319 0.023051 0.169680
0.654319 0.023051 0.169680
0.104855 0.038679 0.613745
0.078297 0.013701 0.555032
0.082415 0.014056 0.482437
0.309785 0.023654 0.462011
0.576843 0.040730 0.418919
0.668565 0.035581 0.264822
0.656665 0.023330 0.170656
0.654319 0.023051 0.169680
0.654319 0.023051 0.169680
0.127027 0.178193 0.608192
0.112197 0.152594 0.564743
0.095212 0.133056 0.512863
0.253571 0.140208 0.489011
0.538016 0.163816 0.495176
0.691704 0.156484 0.421090
0.689416 0.128211 0.204320
0.656665 0.023330 0.170656
0.656665 0.023330 0.170656
0.156158 0.406841 0.630836
0.132942 0.355750 0.595012
0.126528 0.316944 0.563230
0.247758 0.300574 0.552282
0.529854 0.318526 0.585155
0.742165 0.332098 0.583766
0.768420 0.298779 0.412347
0.720216 0.230466 0.239492
0.713006 0.202641 0.230343
0.114294 0.657352 0.692835
0.110609 0.626466 0.673083
0.104972 0.594298 0.647914
0.256896 0.575895 0.644024
0.570073 0.597775 0.703660
0.827334 0.620595 0.750910
0.918865 0.597344 0.664832
0.873017 0.520666 0.477465
0.817984 0.421079 0.363617
0.000000 0.824502 0.749306
0.000000 0.810527 0.736077
0.000000 0.796552 0.722851
0.261976 0.795645 0.732735
0.577105 0.820150 0.790863
0.839844 0.839844 0.839844
0.975350 0.826209 0.794508
0.971905 0.762818 0.667363
0.941297 0.686061 0.526102
0.146718 0.908815 0.786395
0.140859 0.902956 0.780536
0.183484 0.899007 0.774727
0.377614 0.907284 0.796895
0.594998 0.924351 0.832735
0.816097 0.940662 0.871281
0.943178 0.942827 0.860914
0.979973 0.912469 0.775094
0.970064 0.865249 0.633043
0.414148 0.934780 0.807910
0.412778 0.936150 0.804449
0.423531 0.937578 0.803164
0.509548 0.944292 0.817110
0.633094 0.956819 0.839759
0.786551 0.971331 0.867957
0.912836 0.984478 0.880223
0.979119 0.987406 0.828360
0.965870 0.956887 0.711872
0.461455 0.940370 0.817812
0.484328 0.942192 0.816972
0.500163 0.943176 0.813203
0.550208 0.948379 0.817914
0.635249 0.955126 0.825692
0.748043 0.966895 0.846163
0.865922 0.978223 0.864153
0.942363 0.986218 0.836652
0.969756 0.984464 0.713874
0.108388 0.013867 0.655141
0.106043 0.013588 0.654165
0.091777 0.013302 0.615957
0.453045 0.044481 0.647204
0.679612 0.084793 0.607794
0.676759 0.043305 0.323484
0.656665 0.023330 0.170656
0.656665 0.023330 0.170656
0.656665 0.023330 0.170656
0.108388 0.013531 0.656871
0.102721 0.014013 0.643559
0.090800 0.013670 0.608059
0.282976 0.022682 0.614430
0.592035 0.068402 0.622067
0.706611 0.078327 0.518871
0.663883 0.028734 0.235267
0.656665 0.023330 0.170656
0.656665 0.023330 0.170656
0.149316 0.166609 0.660773
0.135059 0.150959 0.641687
0.126472 0.138524 0.616879
0.221097 0.143077 0.610813
0.545206 0.185736 0.654703
0.723891 0.198412 0.643324
0.722389 0.168807 0.414219
0.702676 0.159498 0.256867
0.694289 0.144424 0.210848
0.181970 0.391187 0.678004
0.170272 0.357814 0.657806
0.158763 0.328430 0.642266
0.196515 0.307931 0.631660
0.522004 0.334866 0.692942
0.768705 0.359910 0.747867
0.812145 0.337442 0.638267
0.769397 0.301100 0.406403
0.760618 0.286021 0.370012
0.167873 0.639424 0.730289
0.169655 0.615735 0.719102
0.160684 0.591962 0.702278
0.158358 0.570702 0.689359
0.524316 0.594708 0.762359
0.822623 0.623542 0.850882
0.938185 0.605301 0.838734
0.902273 0.566050 0.663889
0.881594 0.529981 0.578329
0.080724 0.805975 0.778019
0.057468 0.795504 0.773000
0.000196 0.785139 0.762431
0.041068 0.773240 0.750762
0.491875 0.802022 0.816496
0.811102 0.831396 0.898765
0.961648 0.821660 0.913824
0.976748 0.784124 0.827645
0.974643 0.744956 0.752157
0.156895 0.891220 0.807468
0.131093 0.886804 0.803649
0.101576 0.882807 0.798852
0.134033 0.880084 0.796281
0.476535 0.903987 0.845672
0.763708 0.927450 0.905396
0.934570 0.934570 0.934570
0.989729 0.911722 0.898985
0.988207 0.873860 0.832371
0.227056 0.922300 0.814629
0.227056 0.922637 0.812898
0.246215 0.924204 0.814542
0.371916 0.933693 0.830047
0.533780 0.948346 0.861175
0.732196 0.967497 0.901761
0.894644 0.984800 0.934843
0.984385 0.985142 0.920433
0.983830 0.956900 0.870284
0.257944 0.925600 0.819425
0.306427 0.927513 0.819476
0.339661 0.931764 0.821790
0.420984 0.938255 0.832051
0.540624 0.946876 0.850793
0.682937 0.961971 0.879523
0.838739 0.977098 0.906968
0.939415 0.989819 0.920075
0.982823 0.991597 0.865590
0.108388 0.013867 0.655141
0.108388 0.013867 0.655141
0.108388 0.013867 0.655141
0.364090 0.032725 0.701191
0.678596 0.105280 0.736258
0.718119 0.094941 0.600168
0.675008 0.038378 0.302051
0.668374 0.032601 0.254968
0.660761 0.026856 0.201719
0.108388 0.013867 0.655141
0.108388 0.013867 0.655141
0.108388 0.013867 0.655141
0.186784 0.016758 0.665933
0.575203 0.072300 0.714671
0.725318 0.114940 0.709597
0.695295 0.064022 0.450887
0.675008 0.038042 0.303782
0.669541 0.035213 0.272719
0.147000 0.131664 0.658324
0.146024 0.130688 0.657348
0.145047 0.129375 0.658102
0.139379 0.128512 0.651711
0.505902 0.180521 0.716110
0.736959 0.211932 0.762160
0.759076 0.205624 0.642398
0.730383 0.190931 0.433527
0.722187 0.180519 0.388707
0.177549 0.303631 0.669286
0.175203 0.303017 0.670039
0.174428 0.295033 0.670348
0.175213 0.292021 0.666664
0.446156 0.318526 0.719020
0.757943 0.357380 0.814825
0.836549 0.347982 0.794110
0.805902 0.328310 0.598860
0.790479 0.312400 0.549910
0.183979 0.555092 0.711102
0.180858 0.546830 0.710434
0.185751 0.541389 0.708481
0.182821 0.538124 0.707281
0.401765 0.556800 0.756434
0.783924 0.603692 0.883266
0.931148 0.589342 0.913676
0.918090 0.563146 0.800118
0.899746 0.535327 0.734480
0.107170 0.747741 0.760082
0.127113 0.745961 0.759773
0.121839 0.741743 0.761059
0.123015 0.736722 0.758129
0.302476 0.749651 0.786242
0.734096 0.800440 0.908911
0.945239 0.797285 0.962449
0.982023 0.771537 0.912882
0.970525 0.737543 0.861090
0.082437 0.858243 0.795648
0.088306 0.854114 0.792942
0.088306 0.854114 0.792942
0.081270 0.852940 0.791741
0.223984 0.857383 0.805738
0.655030 0.898896 0.900582
0.902909 0.916902 0.962962
0.987967 0.903003 0.957066
0.986234 0.878102 0.918500
0.225295 0.923664 0.820796
0.225295 0.923664 0.820796
0.224318 0.922351 0.821551
0.223342 0.921039 0.822304
0.318156 0.927228 0.833012
0.603959 0.951388 0.892734
0.844016 0.972242 0.952407
0.973633 0.973633 0.973633
0.991834 0.955930 0.948515
0.243476 0.923919 0.823195
0.243476 0.923919 0.823195
0.243476 0.923919 0.823195
0.243476 0.923919 0.823195
0.322456 0.929796 0.834212
0.552153 0.949900 0.882078
0.775396 0.971482 0.930699
0.928461 0.988005 0.958144
0.990628 0.995954 0.951188
0.108388 0.013867 0.655141
0.108388 0.013867 0.655141
0.108388 0.013867 0.655141
0.143383 0.013730 0.666860
0.629919 0.093330 0.762696
0.742313 0.123818 0.756371
0.710317 0.084535 0.545719
0.701346 0.070509 0.478710
0.690613 0.058854 0.412681
0.108388 0.013867 0.655141
0.108388 0.013867 0.655141
0.108388 0.013867 0.655141
0.108388 0.013867 0.655141
0.488996 0.054540 0.732406
0.724715 0.122181 0.776691
0.728851 0.106596 0.666199
0.710317 0.084535 0.545719
0.701537 0.072817 0.492024
0.136066 0.113909 0.658496
0.138221 0.109191 0.660004
0.137245 0.108215 0.659028
0.137245 0.108215 0.659028
0.367114 0.156651 0.706192
0.710371 0.203807 0.796634
0.777823 0.207667 0.771172
0.768640 0.221724 0.654339
0.758683 0.213347 0.612227
0.167832 0.234857 0.663410
0.163926 0.229943 0.664696
0.165688 0.227235 0.665449
0.161580 0.229664 0.663719
0.259113 0.255776 0.684636
0.688942 0.342930 0.813215
0.843395 0.331388 0.861598
0.831868 0.341469 0.762825
0.822302 0.329402 0.730118
0.188758 0.455687 0.687872
0.189543 0.452339 0.685919
0.188959 0.449016 0.687426
0.186613 0.448737 0.686449
0.187781 0.454710 0.686895
0.663144 0.559139 0.838378
0.901641 0.569308 0.931461
0.920636 0.540287 0.885440
0.908928 0.521607 0.849583
0.165096 0.684799 0.743790
0.169021 0.667724 0.735754
0.176844 0.665214 0.736731
0.176844 0.665214 0.736731
0.174497 0.664598 0.737485
0.578552 0.715696 0.845196
0.892867 0.768468 0.956933
0.982828 0.734100 0.966477
0.975035 0.708332 0.931148
0.066622 0.836275 0.787477
0.068785 0.821572 0.780418
0.057258 0.812833 0.778552
0.045922 0.808754 0.777882
0.041231 0.807860 0.777660
0.432218 0.832669 0.832294
0.833734 0.877146 0.946480
0.976641 0.882552 0.980711
0.989376 0.854292 0.964333
0.220020 0.919784 0.820351
0.201646 0.914868 0.816754
0.179952 0.908025 0.814665
0.175460 0.901132 0.810534
0.159040 0.898169 0.808890
0.322867 0.905460 0.829945
0.738670 0.937980 0.925407
0.942171 0.953664 0.979081
0.990666 0.943572 0.980949
0.243476 0.923919 0.823195
0.243476 0.923919 0.823195
0.243476 0.923919 0.823195
0.243476 0.923919 0.823195
0.243476 0.923919 0.823195
0.431535 0.940977 0.858899
0.692119 0.963708 0.915023
0.895420 0.986397 0.967413
1.000000 1.000000 1.000000
