lut/fujifilm/F-Log/F-Log_LUT_E_Ver.1.27/X-S20/XS20_FLog_FGamut_to_ETERNA-BB_BT.709_33gird_V.1.00.cube
#title:FLog_FGamut_to_ETERNA-BB_BT.709
#FUJIFILM Corporation
#Gamma:F-Log to ETERNA BLEACH BYPASS
#Gamut:F-Gamut to ITU-R BT.709
#Version:1.00
LUT_3D_SIZE 5
0.000000 0.000000 0.000000
0.192367 0.009975 0.026605
0.654319 0.023051 0.169680
0.654319 0.023051 0.169680
0.654319 0.023051 0.169680
0.030387 0.128945 0.027324
0.092592 0.091569 0.013788
0.498055 0.095301 0.121843
0.656665 0.023330 0.170656
0.654319 0.023051 0.169680
0.010407 0.606784 0.206306
0.084610 0.490193 0.158009
0.499093 0.478518 0.184679
0.848419 0.504122 0.327344
0.743633 0.279590 0.250645
0.523297 0.932849 0.480183
0.471702 0.919409 0.436289
0.673271 0.924255 0.413773
0.924892 0.936416 0.325105
0.942961 0.831951 0.361602
0.617900 0.947293 0.543164
0.619662 0.946939 0.531804
0.685936 0.954141 0.517925
0.847618 0.967924 0.468340
0.948322 0.975217 0.329423
0.003896 0.003811 0.064386
0.175746 0.010659 0.040981
0.645328 0.019925 0.166527
0.654319 0.023051 0.169680
0.654319 0.023051 0.169680
0.013746 0.135486 0.131512
0.103516 0.103516 0.103516
0.488862 0.099516 0.115676
0.656665 0.023330 0.170656
0.656665 0.023330 0.170656
0.000592 0.623092 0.362234
0.089644 0.524898 0.274496
0.532276 0.517916 0.305966
0.859545 0.525193 0.335294
0.749876 0.295107 0.257172
0.492964 0.935947 0.638015
0.452514 0.921925 0.593590
0.678516 0.931547 0.576625
0.929172 0.940139 0.440344
0.942951 0.843954 0.359785
0.636253 0.950002 0.678105
0.636253 0.953027 0.662531
0.699598 0.957636 0.643993
0.851898 0.969966 0.592231
0.948322 0.975217 0.329423
0.051336 0.010801 0.452214
0.170814 0.013701 0.295238
0.629884 0.019619 0.157206
0.654319 0.023051 0.169680
0.654319 0.023051 0.169680
0.098707 0.169029 0.481235
0.099943 0.121896 0.335192
0.507571 0.137139 0.301211
0.656665 0.023330 0.170656
0.656665 0.023330 0.170656
0.003261 0.653965 0.616011
0.053194 0.576293 0.542340
0.577148 0.577148 0.577148
0.889598 0.567659 0.457555
0.760416 0.312855 0.266628
0.362543 0.931327 0.772583
0.350049 0.913979 0.749059
0.649352 0.931880 0.779895
0.940851 0.944418 0.730324
0.949969 0.854348 0.433491
0.557448 0.948259 0.790981
0.575045 0.948889 0.775851
0.686280 0.959048 0.783012
0.861441 0.974785 0.782239
0.956104 0.978039 0.542903
0.108388 0.013867 0.655141
0.091777 0.013302 0.615957
0.679612 0.084793 0.607794
0.656665 0.023330 0.170656
0.656665 0.023330 0.170656
0.149316 0.166609 0.660773
0.126472 0.138524 0.616879
0.545206 0.185736 0.654703
0.722389 0.168807 0.414219
0.694289 0.144424 0.210848
0.167873 0.639424 0.730289
0.160684 0.591962 0.702278
0.524316 0.594708 0.762359
0.938185 0.605301 0.838734
0.881594 0.529981 0.578329
0.156895 0.891220 0.807468
0.101576 0.882807 0.798852
0.476535 0.903987 0.845672
0.934570 0.934570 0.934570
0.988207 0.873860 0.832371
0.257944 0.925600 0.819425
0.339661 0.931764 0.821790
0.540624 0.946876 0.850793
0.838739 0.977098 0.906968
0.982823 0.991597 0.865590
0.108388 0.013867 0.655141
0.108388 0.013867 0.655141
0.629919 0.093330 0.762696
0.710317 0.084535 0.545719
0.690613 0.058854 0.412681
0.136066 0.113909 0.658496
0.137245 0.108215 0.659028
0.367114 0.156651 0.706192
0.777823 0.207667 0.771172
0.758683 0.213347 0.612227
0.188758 0.455687 0.687872
0.188959 0.449016 0.687426
0.187781 0.454710 0.686895
0.901641 0.569308 0.931461
0.908928 0.521607 0.849583
0.066622 0.836275 0.787477
0.057258 0.812833 0.778552
0.041231 0.807860 0.777660
0.833734 0.877146 0.946480
0.989376 0.854292 0.964333
0.243476 0.923919 0.823195
0.243476 0.923919 0.823195
0.243476 0.923919 0.823195
0.692119 0.963708 0.915023
1.000000 1.000000 1.000000
