lut/fujifilm/F-Log/F-Log_LUT_E_Ver.1.27/GFX100II/GFX100II_FLog_FGamut_to_ETERNA_BT.709_33grid_V.1.00.cube
#title:FLog_FGamut_to_ETERNA_BT.709
#FUJIFILM Corporation
#Gamma:F-Log to ETERNA
#Gamut:F-Gamut to ITU-R BT.709
#Version:1.00
LUT_3D_SIZE 5
0.006836 0.006836 0.006836
0.301850 0.010167 0.038290
0.929398 0.020192 0.182492
0.992934 0.023411 0.196302
0.992934 0.023411 0.196302
0.000000 0.193010 0.000800
0.162541 0.145021 0.000543
0.633609 0.016271 0.113277
0.992934 0.023411 0.196302
0.992934 0.023411 0.196302
0.000000 0.589359 0.000000
0.000000 0.519356 0.000126
0.547213 0.483398 0.000000
0.998741 0.344767 0.102574
0.992934 0.023411 0.196302
0.000167 0.968010 0.000764
0.000000 0.941689 0.000715
0.319078 0.922190 0.000000
0.921076 0.890014 0.000106
0.984614 0.658253 0.000000
0.000000 0.980375 0.000679
0.000157 0.979678 0.000679
0.000000 0.985372 0.000148
0.638084 0.997700 0.000000
0.927239 0.999877 0.000754
0.013843 0.003690 0.210243
0.277789 0.010247 0.118113
0.867816 0.019934 0.165444
0.992934 0.023411 0.196302
0.992934 0.023411 0.196302
0.000388 0.195666 0.207892
0.153320 0.153320 0.153320
0.610123 0.049490 0.098061
0.992934 0.023411 0.196302
0.992934 0.023411 0.196302
0.000000 0.600746 0.171336
0.000000 0.544516 0.110531
0.540147 0.509496 0.037418
1.000000 0.382096 0.086742
0.992934 0.023411 0.196302
0.000000 0.957668 0.022816
0.000387 0.938005 0.000492
0.287205 0.928236 0.000968
0.909528 0.904273 0.000000
0.980095 0.685354 0.000000
0.000000 0.971696 0.000989
0.000357 0.973008 0.000234
0.000157 0.979678 0.000679
0.607782 0.996379 0.000005
0.927239 0.999877 0.000754
0.027054 0.003918 0.722664
0.250941 0.006206 0.526297
0.823218 0.016697 0.316219
0.992934 0.023411 0.196302
0.992934 0.023411 0.196302
0.000100 0.216267 0.676521
0.072310 0.166908 0.509984
0.623718 0.090294 0.451949
0.992934 0.023411 0.196302
0.992934 0.023411 0.196302
0.000160 0.618000 0.638012
0.000000 0.574488 0.546504
0.541016 0.541016 0.541016
0.999610 0.427369 0.343140
0.992934 0.023411 0.196302
0.000098 0.932393 0.604098
0.000000 0.921487 0.549872
0.172360 0.919273 0.553929
0.910436 0.900551 0.444903
0.975967 0.710780 0.000000
0.000000 0.960946 0.476266
0.000000 0.964065 0.400210
0.000000 0.970451 0.367332
0.608902 0.988769 0.370341
0.927239 0.999877 0.000754
0.036388 0.010272 0.999554
0.035814 0.000000 0.978651
0.817070 0.009594 0.891470
0.992149 0.022727 0.219019
0.992934 0.023411 0.196302
0.001027 0.217776 0.974707
0.000865 0.189539 0.914929
0.625572 0.120531 0.908157
1.000000 0.016771 0.708055
0.992934 0.023411 0.196302
0.001116 0.591900 0.898387
0.000000 0.577614 0.890351
0.430680 0.554596 0.897544
1.000000 0.449150 0.887294
0.999976 0.194463 0.487785
0.000308 0.871711 0.821777
0.000893 0.874697 0.822001
0.000000 0.880048 0.832828
0.874023 0.874023 0.874023
0.999479 0.746474 0.704902
0.000249 0.950787 0.774539
0.000059 0.953520 0.735270
0.000000 0.953267 0.695778
0.537878 0.980437 0.745148
0.968195 0.999656 0.614039
0.036569 0.026600 1.000000
0.036388 0.010272 0.999554
0.653024 0.007102 1.000000
0.999661 0.013404 0.949754
0.999912 0.016956 0.596722
0.000000 0.157784 0.987249
0.000099 0.155775 0.988005
0.374695 0.150683 0.999719
1.000000 0.013651 0.998875
0.999681 0.016955 0.811488
0.000842 0.447854 0.929812
0.000000 0.455895 0.926797
0.000000 0.469540 0.932125
0.924409 0.448021 0.999415
1.000000 0.198025 0.974559
0.000175 0.793349 0.840129
0.000000 0.774701 0.844961
0.000970 0.776990 0.845183
0.707698 0.791263 0.974000
0.998866 0.723373 0.988220
0.000441 0.950743 0.799965
0.000441 0.950743 0.799965
0.000441 0.950743 0.799965
0.000000 0.967299 0.879087
1.000000 1.000000 1.000000
