lut/fujifilm/F-Log/F-Log_LUT_E_Ver.1.27/GFX100II/GFX100II_FLog_FGamut_to_ETERNA-BB_BT.709_33gird_V.1.00.cube
#title:FLog_FGamut_to_ETERNA-BB_BT.709
#FUJIFILM Corporation
#Gamma:F-Log to ETERNA BLEACH BYPASS
#Gamut:F-Gamut to ITU-R BT.709
#Version:1.00
LUT_3D_SIZE 5
0.000000 0.000000 0.000000
0.166756 0.010221 0.023985
0.629100 0.023640 0.155699
0.652557 0.026430 0.165464
0.652557 0.026430 0.165464
0.000000 0.114986 0.017422
0.091615 0.090256 0.014543
0.470348 0.032612 0.106118
0.652557 0.026430 0.165464
0.652557 0.026430 0.165464
0.000000 0.538092 0.159206
0.000375 0.460461 0.129413
0.504970 0.464739 0.171676
0.786563 0.372925 0.274234
0.651581 0.026127 0.161028
0.000000 0.876727 0.404804
0.000000 0.864109 0.365398
0.609161 0.911423 0.373872
0.927441 0.933385 0.308333
0.923862 0.760717 0.358742
0.000000 0.889656 0.439020
0.037698 0.892156 0.429972
0.442175 0.923382 0.450442
0.820254 0.968284 0.418328
0.945180 0.978863 0.387418
0.006243 0.003082 0.070555
0.141336 0.010086 0.048519
0.603881 0.022883 0.148642
0.652557 0.026430 0.165464
0.652557 0.026430 0.165464
0.010233 0.128225 0.135282
0.103516 0.103516 0.103516
0.455851 0.067950 0.099246
0.652557 0.026430 0.165464
0.652557 0.026430 0.165464
0.000000 0.573145 0.338660
0.000124 0.500599 0.257485
0.527594 0.508379 0.290254
0.811148 0.426678 0.292754
0.651581 0.026127 0.161028
0.000530 0.888419 0.580970
0.000549 0.873150 0.539610
0.602869 0.919292 0.546882
0.929767 0.938851 0.402581
0.929903 0.784920 0.355332
0.000000 0.890474 0.554790
0.000000 0.893835 0.537484
0.456813 0.928525 0.574024
0.815150 0.967864 0.545234
0.945180 0.978863 0.387418
0.065994 0.009750 0.487715
0.144811 0.013941 0.302246
0.587452 0.023522 0.188442
0.652557 0.026430 0.165464
0.652557 0.026430 0.165464
0.108089 0.165104 0.511097
0.109125 0.126660 0.355118
0.473180 0.116591 0.291618
0.652557 0.026430 0.165464
0.652557 0.026430 0.165464
0.061349 0.625645 0.626617
0.017615 0.569411 0.551164
0.577148 0.577148 0.577148
0.854079 0.499176 0.423634
0.672049 0.092630 0.184652
0.000000 0.889515 0.739691
0.000711 0.879541 0.711867
0.564513 0.920480 0.761289
0.938315 0.942839 0.710844
0.935944 0.808788 0.353653
0.000691 0.902876 0.711696
0.000000 0.899597 0.687776
0.373898 0.925851 0.702473
0.816480 0.971828 0.761198
0.949661 0.979276 0.484906
0.118747 0.013608 0.672136
0.101744 0.013708 0.639122
0.627613 0.073940 0.620165
0.651581 0.026127 0.161028
0.652557 0.026430 0.165464
0.162413 0.165291 0.676038
0.138584 0.146888 0.636274
0.516875 0.162697 0.659176
0.689627 0.065847 0.430651
0.652557 0.026430 0.165464
0.188037 0.607303 0.731439
0.172804 0.590004 0.714837
0.545811 0.605534 0.778739
0.914959 0.560166 0.832243
0.732116 0.237676 0.359613
0.006379 0.864945 0.797859
0.000318 0.864412 0.799367
0.399127 0.891079 0.832481
0.934570 0.934570 0.934570
0.987451 0.848593 0.801704
0.132241 0.914096 0.814304
0.090603 0.912057 0.796949
0.059717 0.910102 0.785231
0.782050 0.970728 0.891428
0.981847 0.992302 0.855962
0.118747 0.013608 0.672136
0.118747 0.013608 0.672136
0.539424 0.066375 0.753360
0.722599 0.104428 0.650934
0.676559 0.048632 0.330851
0.153654 0.120156 0.674429
0.154439 0.116808 0.672476
0.363599 0.147710 0.718613
0.746018 0.130363 0.781489
0.704849 0.080363 0.521578
0.197375 0.436480 0.695633
0.200496 0.444743 0.696301
0.254044 0.466521 0.709270
0.883086 0.548401 0.925019
0.814500 0.302193 0.762192
0.003689 0.810692 0.784445
0.061184 0.794413 0.777437
0.051015 0.795972 0.778946
0.840772 0.877984 0.949410
0.989002 0.833640 0.960288
0.158830 0.914826 0.817903
0.158830 0.914826 0.817903
0.158830 0.914826 0.817903
0.626047 0.955213 0.900769
1.000000 1.000000 1.000000
