lut/fujifilm/F-Log/F-Log_LUT_E_Ver.1.27/GFX100II/GFX100II_FLog_FGamut_to_ETERNA-BB_BT.709_33gird_V.1.00.cube
#title:FLog_FGamut_to_ETERNA-BB_BT.709
#FUJIFILM Corporation
#Gamma:F-Log to ETERNA BLEACH BYPASS
#Gamut:F-Gamut to ITU-R BT.709
#Version:1.00
LUT_3D_SIZE 33
0.000000 0.000000 0.000000
0.000000 0.000000 0.000000
0.000000 0.000000 0.000000
0.023458 0.003464 0.006305
0.037924 0.004136 0.007727
0.061189 0.003612 0.009371
0.088362 0.007330 0.013192
0.123748 0.006864 0.017013
0.166756 0.010221 0.023985
0.237722 0.012940 0.038015
0.317092 0.014119 0.063630
0.392165 0.013737 0.082852
0.460391 0.016506 0.103805
0.518259 0.017182 0.119875
0.565957 0.020090 0.133993
0.602512 0.023580 0.148642
0.629100 0.023640 0.155699
0.652557 0.026430 0.165464
0.652557 0.026430 0.165464
0.652557 0.026430 0.165464
0.652557 0.026430 0.165464
0.652557 0.026430 0.165464
0.652557 0.026430 0.165464
0.652557 0.026430 0.165464
0.652557 0.026430 0.165464
0.652557 0.026430 0.165464
0.652557 0.026430 0.165464
0.652557 0.026430 0.165464
0.652557 0.026430 0.165464
0.652557 0.026430 0.165464
0.652557 0.026430 0.165464
0.652557 0.026430 0.165464
0.652557 0.026430 0.165464
0.000000 0.000000 0.000000
0.000000 0.000000 0.000000
0.000000 0.000000 0.000000
0.020528 0.000534 0.003375
0.035578 0.003858 0.006751
0.051998 0.006484 0.010126
0.078586 0.007215 0.013723
0.109281 0.006526 0.013859
0.149943 0.009604 0.019855
0.208203 0.009615 0.029757
0.276038 0.014059 0.051687
0.347394 0.014095 0.069934
0.421681 0.016725 0.092840
0.482288 0.016343 0.107180
0.533309 0.020506 0.123251
0.578077 0.019140 0.141359
0.612287 0.023358 0.149839
0.637114 0.025789 0.157876
0.652557 0.026430 0.165464
0.652557 0.026430 0.165464
0.652557 0.026430 0.165464
0.652557 0.026430 0.165464
0.652557 0.026430 0.165464
0.652557 0.026430 0.165464
0.652557 0.026430 0.165464
0.652557 0.026430 0.165464
0.652557 0.026430 0.165464
0.652557 0.026430 0.165464
0.652557 0.026430 0.165464
0.652557 0.026430 0.165464
0.652557 0.026430 0.165464
0.652557 0.026430 0.165464
0.652557 0.026430 0.165464
0.000000 0.000000 0.000000
0.000000 0.000000 0.000000
0.000000 0.000000 0.000000
0.009776 0.000115 0.000000
0.025802 0.003743 0.007281
0.045354 0.003301 0.009681
0.067834 0.006797 0.009817
0.095791 0.006830 0.013414
0.127462 0.006781 0.016257
0.175162 0.010360 0.026914
0.237722 0.012940 0.038015
0.307709 0.013337 0.057991
0.382389 0.013622 0.083382
0.445924 0.016841 0.097191
0.505160 0.016820 0.113261
0.551490 0.020089 0.129110
0.589415 0.022882 0.143759
0.622063 0.022801 0.152769
0.644152 0.026627 0.160806
0.652557 0.026430 0.165464
0.652557 0.026430 0.165464
0.652557 0.026430 0.165464
0.652557 0.026430 0.165464
0.652557 0.026430 0.165464
0.652557 0.026430 0.165464
0.652557 0.026430 0.165464
0.652557 0.026430 0.165464
0.652557 0.026430 0.165464
0.652557 0.026430 0.165464
0.652557 0.026430 0.165464
0.652557 0.026430 0.165464
0.652557 0.026430 0.165464
0.652557 0.026430 0.165464
0.000383 0.009657 0.000667
0.003513 0.006589 0.000000
0.000583 0.002987 0.000222
0.000000 0.000000 0.000000
0.023458 0.003800 0.004574
0.037924 0.004136 0.007727
0.061189 0.003612 0.009371
0.086016 0.006715 0.013945
0.113972 0.006749 0.017543
0.149943 0.009604 0.019855
0.208203 0.009615 0.029757
0.273691 0.013779 0.050710
0.341918 0.016884 0.069934
0.411323 0.014297 0.089688
0.474858 0.016844 0.106957
0.528618 0.019948 0.121298
0.570648 0.019976 0.139406
0.603881 0.022883 0.148642
0.629100 0.023640 0.155699
0.652557 0.026430 0.165464
0.652557 0.026430 0.165464
0.652557 0.026430 0.165464
0.652557 0.026430 0.165464
0.652557 0.026430 0.165464
0.652557 0.026430 0.165464
0.652557 0.026430 0.165464
0.652557 0.026430 0.165464
0.652557 0.026430 0.165464
0.652557 0.026430 0.165464
0.652557 0.026430 0.165464
0.652557 0.026430 0.165464
0.652557 0.026430 0.165464
0.652557 0.026430 0.165464
0.000363 0.031983 0.005686
0.000000 0.026346 0.003512
0.000000 0.019676 0.003066
0.003505 0.017584 0.003066
0.016410 0.014294 0.003290
0.038306 0.014131 0.006663
0.051998 0.006484 0.010126
0.073895 0.006993 0.010039
0.099505 0.006747 0.012660
0.131177 0.006363 0.017234
0.177900 0.009637 0.023453
0.240066 0.013555 0.037262
0.307709 0.013337 0.057991
0.377698 0.013400 0.079700
0.442209 0.017259 0.096214
0.499099 0.016288 0.114769
0.546799 0.019867 0.125425
0.586485 0.019616 0.142558
0.616003 0.022941 0.150816
0.639458 0.026068 0.158852
0.652557 0.026430 0.165464
0.652557 0.026430 0.165464
0.652557 0.026430 0.165464
0.652557 0.026430 0.165464
0.652557 0.026430 0.165464
0.652557 0.026430 0.165464
0.652557 0.026430 0.165464
0.652557 0.026430 0.165464
0.652557 0.026430 0.165464
0.652557 0.026430 0.165464
0.652557 0.026430 0.165464
0.652557 0.026430 0.165464
0.652557 0.026430 0.165464
0.000000 0.049008 0.006801
0.000000 0.045997 0.003117
0.000000 0.040328 0.007109
0.000162 0.038319 0.007864
0.013652 0.037679 0.010039
0.038679 0.035454 0.007247
0.061362 0.031607 0.010399
0.077791 0.023239 0.010399
0.103603 0.016323 0.012573
0.120618 0.010267 0.016257
0.159719 0.009719 0.019324
0.213478 0.013159 0.031933
0.277406 0.013025 0.053418
0.347394 0.014095 0.069934
0.416407 0.013516 0.088934
0.474858 0.016844 0.106957
0.527056 0.015985 0.120097
0.568303 0.020034 0.136699
0.602512 0.023580 0.148642
0.626754 0.023360 0.154722
0.647866 0.026544 0.160051
0.652557 0.026430 0.165464
0.652557 0.026430 0.165464
0.652557 0.026430 0.165464
0.652557 0.026430 0.165464
0.652557 0.026430 0.165464
0.652557 0.026430 0.165464
0.652557 0.026430 0.165464
0.652557 0.026430 0.165464
0.652557 0.026430 0.165464
0.652557 0.026430 0.165464
0.652557 0.026430 0.165464
0.652557 0.026430 0.165464
0.000000 0.069996 0.009113
0.000000 0.065673 0.006184
0.000142 0.061652 0.007690
0.000000 0.056992 0.006493
0.000000 0.054006 0.006271
0.035338 0.056525 0.010313
0.056651 0.054720 0.006543
0.080702 0.050847 0.006234
0.102990 0.048674 0.010364
0.130755 0.043375 0.016223
0.163414 0.032636 0.020130
0.204871 0.020362 0.025989
0.254533 0.013892 0.040413
0.318462 0.013421 0.063630
0.384736 0.014237 0.082630
0.445924 0.016841 0.097191
0.503792 0.017181 0.114992
0.549144 0.019810 0.128134
0.586485 0.019616 0.142558
0.616003 0.022941 0.150816
0.639458 0.026068 0.158852
0.652557 0.026430 0.165464
0.652557 0.026430 0.165464
0.652557 0.026430 0.165464
0.652557 0.026430 0.165464
0.652557 0.026430 0.165464
0.652557 0.026430 0.165464
0.652557 0.026430 0.165464
0.652557 0.026430 0.165464
0.652557 0.026430 0.165464
0.652557 0.026430 0.165464
0.652557 0.026430 0.165464
0.652557 0.026430 0.165464
0.000000 0.090650 0.013156
0.000314 0.088639 0.013910
0.000516 0.082641 0.010004
0.000000 0.078342 0.010535
0.000000 0.074658 0.010313
0.025936 0.077399 0.013156
0.050963 0.075175 0.010364
0.074620 0.072976 0.011031
0.098280 0.071114 0.009970
0.125653 0.068161 0.013345
0.160847 0.063034 0.015965
0.202880 0.065415 0.021961
0.260756 0.054424 0.038117
0.315310 0.040832 0.059243
0.366744 0.019651 0.076239
0.424813 0.013657 0.091864
0.479549 0.017402 0.108910
0.530379 0.017240 0.122050
0.570648 0.019976 0.139406
0.602512 0.023580 0.148642
0.628123 0.022999 0.152993
0.647866 0.026544 0.160051
0.652557 0.026430 0.165464
0.652557 0.026430 0.165464
0.652557 0.026430 0.165464
0.652557 0.026430 0.165464
0.652557 0.026430 0.165464
0.652557 0.026430 0.165464
0.652557 0.026430 0.165464
0.652557 0.026430 0.165464
0.652557 0.026430 0.165464
0.652557 0.026430 0.165464
0.652557 0.026430 0.165464
0.000000 0.114986 0.017422
0.000687 0.109291 0.017952
0.000496 0.105303 0.013294
0.000304 0.100307 0.013825
0.000113 0.095310 0.014355
0.023379 0.094785 0.015999
0.051730 0.093481 0.016891
0.074602 0.095302 0.016050
0.091615 0.090256 0.014543
0.119965 0.089289 0.013703
0.152422 0.086227 0.012862
0.192892 0.084309 0.019391
0.247830 0.082729 0.029070
0.307853 0.078687 0.046648
0.367873 0.074310 0.065957
0.423405 0.061359 0.089790
0.470348 0.032612 0.106118
0.513566 0.016961 0.116191
0.555205 0.020343 0.126626
0.589415 0.022882 0.143759
0.616003 0.022941 0.150816
0.639458 0.026068 0.158852
0.652557 0.026430 0.165464
0.652557 0.026430 0.165464
0.652557 0.026430 0.165464
0.652557 0.026430 0.165464
0.652557 0.026430 0.165464
0.652557 0.026430 0.165464
0.652557 0.026430 0.165464
0.652557 0.026430 0.165464
0.652557 0.026430 0.165464
0.652557 0.026430 0.165464
0.652557 0.026430 0.165464
0.000074 0.140298 0.022665
0.000000 0.135301 0.023195
0.000475 0.127293 0.020042
0.000869 0.125283 0.020797
0.000000 0.119983 0.016891
0.013191 0.119007 0.020797
0.043303 0.116003 0.017251
0.070676 0.113051 0.020624
0.091989 0.111917 0.013396
0.115646 0.110390 0.010602
0.145950 0.111039 0.013445
0.186813 0.107783 0.017265
0.239404 0.105923 0.025969
0.296295 0.104949 0.044523
0.356316 0.101246 0.060371
0.415945 0.097869 0.084117
0.472253 0.093574 0.104179
0.520938 0.084783 0.124551
0.552638 0.048724 0.132843
0.579639 0.023103 0.142558
0.609942 0.023080 0.148863
0.635161 0.023836 0.155923
0.652557 0.026430 0.165464
0.652557 0.026430 0.165464
0.652557 0.026430 0.165464
0.652557 0.026430 0.165464
0.652557 0.026430 0.165464
0.652557 0.026430 0.165464
0.652557 0.026430 0.165464
0.652557 0.026430 0.165464
0.652557 0.026430 0.165464
0.652557 0.026430 0.165464
0.652557 0.026430 0.165464
0.000237 0.178279 0.032257
0.000000 0.168959 0.029859
0.000447 0.160278 0.030168
0.000000 0.152966 0.027016
0.000000 0.146969 0.023110
0.003004 0.143564 0.023863
0.043474 0.142317 0.026929
0.065764 0.141153 0.025867
0.089230 0.134629 0.023604
0.114258 0.132742 0.019082
0.142023 0.129795 0.012828
0.180733 0.130921 0.016871
0.231955 0.130094 0.023843
0.288846 0.129793 0.038937
0.349845 0.126728 0.057492
0.405366 0.125445 0.081239
0.462649 0.122799 0.098817
0.514848 0.119923 0.122339
0.564117 0.114455 0.141203
0.597361 0.104686 0.155716
0.612076 0.041024 0.153660
0.629100 0.023640 0.155699
0.650211 0.026152 0.164488
0.652557 0.026430 0.165464
0.652557 0.026430 0.165464
0.652557 0.026430 0.165464
0.652557 0.026430 0.165464
0.652557 0.026430 0.165464
0.652557 0.026430 0.165464
0.652557 0.026430 0.165464
0.652557 0.026430 0.165464
0.652557 0.026430 0.165464
0.652557 0.026430 0.165464
0.000000 0.223934 0.046735
0.000207 0.212273 0.037191
0.000000 0.199966 0.034571
0.000000 0.194297 0.038562
0.000000 0.186288 0.035410
0.000000 0.179618 0.034965
0.035039 0.174827 0.035857
0.061436 0.171569 0.034793
0.089201 0.167278 0.035461
0.114621 0.163045 0.033421
0.141018 0.161131 0.025437
0.175821 0.160704 0.013461
0.227044 0.160549 0.016973
0.280220 0.159322 0.038012
0.342586 0.155559 0.056566
0.401823 0.154195 0.079558
0.460475 0.150514 0.098867
0.517364 0.148534 0.122613
0.566826 0.147390 0.144406
0.606904 0.145129 0.162293
0.631740 0.134884 0.175605
0.648965 0.110492 0.178929
0.644152 0.026963 0.159075
0.651581 0.026127 0.161028
0.652557 0.026430 0.165464
0.652557 0.026430 0.165464
0.652557 0.026430 0.165464
0.652557 0.026430 0.165464
0.652557 0.026430 0.165464
0.652557 0.026430 0.165464
0.652557 0.026430 0.165464
0.652557 0.026430 0.165464
0.652557 0.026430 0.165464
0.000148 0.277908 0.059172
0.000000 0.264262 0.053844
0.000000 0.252596 0.053929
0.000000 0.244282 0.046341
0.000000 0.234625 0.045671
0.000000 0.226280 0.044250
0.004305 0.220504 0.044027
0.046929 0.214877 0.046871
0.078802 0.208829 0.045809
0.109307 0.204153 0.041285
0.140395 0.201789 0.040444
0.176960 0.197309 0.036146
0.221537 0.196995 0.023637
0.280189 0.194659 0.036023
0.341188 0.191258 0.056309
0.402769 0.189501 0.083739
0.463768 0.186100 0.104023
0.519872 0.188139 0.126261
0.573049 0.186577 0.149032
0.613127 0.183980 0.168649
0.642262 0.176639 0.181429
0.662990 0.168822 0.193012
0.676500 0.144848 0.195359
0.665817 0.066119 0.174751
0.651581 0.026127 0.161028
0.652557 0.026430 0.165464
0.652557 0.026430 0.165464
0.652557 0.026430 0.165464
0.652557 0.026430 0.165464
0.652557 0.026430 0.165464
0.652557 0.026430 0.165464
0.652557 0.026430 0.165464
0.652557 0.026430 0.165464
0.000874 0.340530 0.077468
0.000301 0.326212 0.075600
0.000000 0.313911 0.063351
0.000000 0.303918 0.064415
0.000000 0.291248 0.060063
0.000340 0.282905 0.058641
0.000933 0.274224 0.058950
0.020686 0.267110 0.060903
0.063704 0.261153 0.055848
0.102222 0.256610 0.063882
0.140154 0.251432 0.059583
0.181411 0.246838 0.060696
0.223249 0.245566 0.060301
0.277020 0.243053 0.043578
0.340363 0.240603 0.061379
0.404684 0.238123 0.085348
0.469980 0.236954 0.108562
0.528240 0.233940 0.134040
0.579655 0.234413 0.159516
0.622662 0.235082 0.180333
0.656488 0.228299 0.195067
0.680348 0.217413 0.205672
0.691502 0.203819 0.212149
0.697591 0.170023 0.207436
0.684332 0.130671 0.196422
0.651581 0.026127 0.161028
0.651581 0.026127 0.161028
0.652557 0.026430 0.165464
0.652557 0.026430 0.165464
0.652557 0.026430 0.165464
0.652557 0.026430 0.165464
0.652557 0.026430 0.165464
0.652557 0.026430 0.165464
0.000000 0.404179 0.103664
0.000242 0.391511 0.099313
0.000000 0.377866 0.093984
0.000070 0.365868 0.086172
0.000080 0.354873 0.082796
0.000090 0.344215 0.077692
0.000000 0.336904 0.074539
0.000000 0.329560 0.077553
0.040187 0.322316 0.076715
0.097279 0.317697 0.079250
0.139904 0.312406 0.080363
0.179398 0.309511 0.085913
0.225929 0.308798 0.087472
0.285951 0.307445 0.091207
0.344805 0.303816 0.075460
0.411470 0.302286 0.096944
0.476375 0.302119 0.124597
0.538933 0.302346 0.147812
0.594646 0.305051 0.176219
0.640785 0.301979 0.199521
0.675588 0.295501 0.218692
0.699840 0.283277 0.226589
0.714911 0.263266 0.230137
0.720991 0.240130 0.230531
0.705777 0.198488 0.219293
0.691934 0.156821 0.204595
0.673801 0.101591 0.185320
0.651581 0.026127 0.161028
0.652557 0.026430 0.165464
0.652557 0.026430 0.165464
0.652557 0.026430 0.165464
0.652557 0.026430 0.165464
0.652557 0.026430 0.165464
0.000759 0.469783 0.131812
0.000000 0.457843 0.121294
0.000000 0.442828 0.119426
0.000595 0.434153 0.110106
0.000022 0.420507 0.104777
0.000031 0.410185 0.097941
0.000000 0.402201 0.098250
0.000000 0.395531 0.097805
0.007088 0.388696 0.095852
0.076302 0.384808 0.097102
0.128309 0.379625 0.107313
0.177185 0.378855 0.111579
0.234861 0.375879 0.121258
0.296837 0.376143 0.128675
0.357833 0.376775 0.128194
0.419225 0.376406 0.123278
0.489404 0.381128 0.146184
0.553524 0.384981 0.172328
0.618034 0.386488 0.200957
0.669841 0.386631 0.218535
0.711682 0.381999 0.235446
0.737494 0.372730 0.249734
0.752565 0.352384 0.255012
0.758061 0.325588 0.258645
0.732891 0.268176 0.243364
0.712010 0.226008 0.224004
0.699143 0.184645 0.213742
0.687061 0.140271 0.199797
0.651581 0.026127 0.161028
0.651581 0.026127 0.161028
0.652557 0.026430 0.165464
0.652557 0.026430 0.165464
0.652557 0.026430 0.165464
0.000000 0.538092 0.159206
0.000000 0.523775 0.157339
0.000135 0.510440 0.146820
0.000144 0.500453 0.138253
0.000154 0.489122 0.136609
0.000000 0.475476 0.131281
0.000000 0.470816 0.130083
0.000000 0.465153 0.124445
0.000375 0.460461 0.129413
0.045739 0.454783 0.125336
0.118274 0.451815 0.130270
0.182402 0.447362 0.139196
0.249069 0.447176 0.153758
0.311234 0.450757 0.169296
0.377508 0.453589 0.177914
0.440066 0.458184 0.178632
0.504970 0.464739 0.171676
0.576127 0.469766 0.199020
0.641807 0.477919 0.224633
0.698496 0.482609 0.248825
0.743266 0.480906 0.268663
0.777485 0.473122 0.278960
0.797438 0.457994 0.287391
0.806255 0.432790 0.291246
0.786563 0.372925 0.274234
0.754950 0.306666 0.252871
0.726648 0.252659 0.236835
0.709090 0.211074 0.222890
0.696032 0.165724 0.207970
0.676338 0.106531 0.187496
0.651581 0.026127 0.161028
0.651581 0.026127 0.161028
0.651581 0.026127 0.161028
0.000000 0.604730 0.185625
0.000000 0.591723 0.183004
0.000000 0.578414 0.175945
0.000000 0.568091 0.169109
0.000288 0.558409 0.164981
0.000000 0.549424 0.160850
0.000106 0.542753 0.160407
0.000000 0.537756 0.160938
0.000000 0.533096 0.159738
0.029251 0.526434 0.159431
0.122312 0.524671 0.164277
0.193479 0.522736 0.167481
0.258775 0.524256 0.176852
0.330324 0.528954 0.196296
0.395813 0.534463 0.210328
0.465992 0.541201 0.222852
0.532850 0.548029 0.226500
0.598922 0.558876 0.228640
0.667340 0.565634 0.254253
0.723245 0.574008 0.278667
0.771337 0.574234 0.297000
0.803008 0.571832 0.311957
0.827844 0.562260 0.321809
0.844283 0.541552 0.325355
0.841393 0.493296 0.315847
0.811148 0.426678 0.292754
0.773677 0.354561 0.265532
0.743040 0.288943 0.246876
0.718454 0.234853 0.230086
0.701096 0.186934 0.213965
0.687061 0.140271 0.199797
0.684533 0.124672 0.192516
0.680626 0.120429 0.190340
0.000190 0.664999 0.216035
0.000199 0.654340 0.210930
0.000209 0.644017 0.204094
0.000000 0.638716 0.200188
0.000000 0.628393 0.193352
0.000000 0.621057 0.186738
0.000000 0.616061 0.187269
0.000000 0.611736 0.184339
0.000439 0.605706 0.186601
0.000000 0.604393 0.187356
0.109730 0.602245 0.191895
0.193995 0.601680 0.196520
0.265745 0.601724 0.205136
0.344723 0.606592 0.221343
0.416856 0.613940 0.242741
0.489965 0.622936 0.261656
0.556037 0.631431 0.275910
0.625240 0.638874 0.278805
0.688968 0.649443 0.279970
0.745263 0.656815 0.299946
0.791594 0.659748 0.317524
0.826980 0.657936 0.328266
0.855139 0.649955 0.338339
0.878414 0.636420 0.346992
0.877659 0.605438 0.345743
0.859335 0.544875 0.328730
0.833781 0.478143 0.311051
0.798071 0.403318 0.284582
0.760014 0.328213 0.257138
0.733093 0.261842 0.241187
0.707528 0.207111 0.221692
0.703049 0.188551 0.217648
0.702073 0.187575 0.216672
0.000533 0.715275 0.247508
0.000000 0.710311 0.241871
0.000000 0.704648 0.236235
0.000160 0.697312 0.229621
0.000000 0.690673 0.223007
0.000000 0.684675 0.219101
0.000000 0.680350 0.216171
0.000180 0.676330 0.217680
0.000572 0.674656 0.216703
0.000000 0.670997 0.219941
0.117294 0.670695 0.222220
0.204878 0.671722 0.227066
0.283274 0.674613 0.237859
0.359906 0.679538 0.251360
0.434778 0.686501 0.267567
0.506518 0.695857 0.288210
0.577282 0.705584 0.300957
0.647653 0.716311 0.318141
0.708450 0.724622 0.312914
0.762601 0.730085 0.305512
0.806587 0.733411 0.318652
0.844903 0.734194 0.334055
0.875014 0.728166 0.346083
0.896135 0.719011 0.354957
0.906121 0.699780 0.359258
0.894432 0.651715 0.354719
0.873953 0.594189 0.344852
0.852699 0.530025 0.328372
0.823833 0.451712 0.301902
0.783049 0.366337 0.274543
0.742848 0.284282 0.245675
0.724695 0.250370 0.236613
0.723135 0.246742 0.233683
0.000102 0.757234 0.281019
0.000000 0.753581 0.274629
0.000000 0.749592 0.269969
0.000000 0.744266 0.262602
0.000122 0.738604 0.256965
0.000000 0.736626 0.251551
0.000000 0.730291 0.249374
0.000132 0.728953 0.246668
0.000523 0.727279 0.245691
0.000523 0.726943 0.247421
0.136593 0.729546 0.254051
0.228871 0.730796 0.262582
0.302181 0.735138 0.270667
0.373732 0.742524 0.276271
0.447232 0.750855 0.289015
0.515651 0.760301 0.300785
0.591106 0.770920 0.313754
0.655808 0.779777 0.329737
0.720905 0.788304 0.337825
0.774665 0.795777 0.329668
0.821195 0.797753 0.317382
0.854820 0.798314 0.329101
0.885516 0.795944 0.337890
0.907221 0.789775 0.346988
0.927758 0.777298 0.357370
0.918404 0.739836 0.360644
0.907299 0.694422 0.358058
0.893465 0.639071 0.353828
0.866544 0.572027 0.341340
0.838464 0.490367 0.312918
0.794557 0.397065 0.283161
0.768410 0.339348 0.263440
0.766850 0.335721 0.260511
0.000456 0.796515 0.309117
0.000264 0.792862 0.302727
0.000465 0.787537 0.295360
0.000273 0.783548 0.290699
0.000082 0.779223 0.287769
0.000000 0.775907 0.279648
0.000000 0.770910 0.280180
0.000000 0.771583 0.276718
0.000091 0.770244 0.274011
0.000000 0.771246 0.278449
0.135770 0.775194 0.278157
0.227654 0.778789 0.284203
0.306633 0.786012 0.288297
0.381897 0.792642 0.296605
0.454421 0.801005 0.303183
0.526554 0.810369 0.314199
0.598687 0.819398 0.326946
0.664760 0.828901 0.336008
0.727511 0.836476 0.346577
0.782247 0.842574 0.351511
0.826040 0.846280 0.337496
0.858496 0.846917 0.317620
0.889191 0.844211 0.328141
0.912850 0.841005 0.334000
0.934162 0.836510 0.344074
0.935944 0.808788 0.353653
0.928543 0.772942 0.360609
0.916653 0.730876 0.359977
0.900473 0.675247 0.354770
0.879219 0.609065 0.348672
0.852116 0.527710 0.324688
0.825587 0.460336 0.304302
0.825002 0.457350 0.304078
0.000034 0.827141 0.340984
0.000234 0.821815 0.333617
0.000042 0.818163 0.327226
0.000000 0.816520 0.320081
0.000000 0.812196 0.317151
0.000052 0.809520 0.311738
0.000838 0.806844 0.306324
0.000000 0.805868 0.305348
0.000000 0.808213 0.302863
0.000000 0.808213 0.302863
0.140623 0.811045 0.303546
0.235831 0.816569 0.308086
0.319893 0.823011 0.311427
0.392419 0.831710 0.316273
0.462599 0.839793 0.321874
0.530039 0.848935 0.329207
0.602565 0.856961 0.337516
0.666291 0.866521 0.343871
0.726696 0.873482 0.355195
0.779085 0.879636 0.357421
0.824832 0.882606 0.359203
0.861981 0.883802 0.341282
0.886425 0.883632 0.312308
0.913012 0.883019 0.322829
0.936086 0.876489 0.330195
0.942941 0.859655 0.338933
0.937877 0.836092 0.345051
0.934776 0.802479 0.354937
0.924838 0.761693 0.359718
0.910028 0.704359 0.359704
0.890727 0.640465 0.353828
0.865758 0.575711 0.341562
0.866544 0.572027 0.341340
0.000000 0.851433 0.370675
0.000000 0.847781 0.364285
0.000405 0.844433 0.362331
0.000000 0.842150 0.352481
0.000000 0.839139 0.348797
0.000024 0.838472 0.342629
0.000000 0.835486 0.342406
0.000000 0.835156 0.334508
0.000415 0.838478 0.333000
0.000000 0.839512 0.331269
0.163074 0.843493 0.334575
0.254567 0.849770 0.336406
0.332568 0.856016 0.339523
0.400794 0.862819 0.339710
0.469998 0.869253 0.347798
0.538809 0.878370 0.351668
0.604298 0.886230 0.353586
0.668416 0.894453 0.357234
0.727844 0.902117 0.358929
0.779259 0.906287 0.365372
0.822266 0.910653 0.367153
0.858237 0.914852 0.362542
0.887765 0.912895 0.338008
0.909862 0.912110 0.309789
0.930782 0.909963 0.317379
0.942520 0.899019 0.325809
0.940969 0.882044 0.331618
0.942941 0.859319 0.340663
0.938079 0.829086 0.346336
0.930486 0.787907 0.355555
0.920559 0.735118 0.362153
0.902033 0.678873 0.357699
0.900473 0.674911 0.356500
0.000000 0.876727 0.404804
0.000000 0.874724 0.395930
0.000000 0.870734 0.391270
0.000579 0.868059 0.385855
0.000000 0.865073 0.385633
0.000779 0.863069 0.376759
0.000000 0.860113 0.370368
0.000196 0.861090 0.371345
0.000000 0.864109 0.365398
0.075268 0.865414 0.366340
0.189049 0.871199 0.363648
0.270182 0.874710 0.364059
0.346815 0.881317 0.368906
0.411326 0.887865 0.371578
0.479554 0.894668 0.371767
0.543672 0.902891 0.375414
0.609161 0.911423 0.373872
0.668981 0.917413 0.374590
0.726455 0.923461 0.372601
0.778847 0.929614 0.374828
0.820484 0.935014 0.374879
0.855871 0.935555 0.373508
0.886566 0.935874 0.368452
0.911011 0.935705 0.339481
0.927441 0.933385 0.308333
0.943084 0.928029 0.312016
0.942701 0.917027 0.318269
0.942520 0.899019 0.325809
0.940385 0.879058 0.331394
0.941582 0.848348 0.340750
0.934182 0.811495 0.352898
0.925815 0.762670 0.360695
0.923862 0.760717 0.358742
0.000000 0.884025 0.427214
0.000166 0.885673 0.424730
0.000166 0.885673 0.424730
0.000000 0.883695 0.419316
0.000000 0.882693 0.414879
0.000367 0.881692 0.410441
0.000367 0.882364 0.406981
0.000000 0.885046 0.402766
0.000559 0.888369 0.401258
0.128615 0.890165 0.398788
0.225584 0.893317 0.402350
0.289120 0.899561 0.400586
0.359108 0.903321 0.403258
0.422644 0.909901 0.399761
0.486178 0.915473 0.401458
0.548345 0.922078 0.401422
0.610510 0.929020 0.399656
0.668569 0.938052 0.397891
0.725067 0.943795 0.391465
0.775504 0.948333 0.390008
0.815190 0.951779 0.388106
0.851552 0.952960 0.389442
0.881856 0.954953 0.385363
0.905907 0.953434 0.372941
0.925659 0.952706 0.342016
0.943457 0.949689 0.310868
0.942682 0.941706 0.311175
0.944060 0.928669 0.314723
0.943487 0.913342 0.318047
0.943697 0.893325 0.326340
0.943717 0.868310 0.335164
0.936317 0.831456 0.347312
0.937496 0.825763 0.347843
0.000000 0.887011 0.427438
0.000000 0.884025 0.427214
0.000166 0.885673 0.424730
0.000166 0.885673 0.424730
0.000000 0.885033 0.422024
0.000000 0.885033 0.422024
0.000166 0.886345 0.421269
0.000000 0.888356 0.420516
0.078167 0.892591 0.424386
0.175136 0.896415 0.424488
0.250793 0.902044 0.428359
0.317650 0.908872 0.432007
0.376494 0.913885 0.431749
0.439637 0.921132 0.434423
0.495349 0.929214 0.435141
0.554777 0.937550 0.433375
0.612253 0.943933 0.429656
0.667965 0.953023 0.425184
0.717426 0.957929 0.415828
0.771578 0.962047 0.415347
0.814003 0.965442 0.406524
0.848996 0.967322 0.407859
0.875000 0.967083 0.400852
0.901004 0.967180 0.392114
0.917626 0.966497 0.377738
