lut/fujifilm/F-Log/F-Log_LUT_E_Ver.1.27/GFX100II/GFX100II_FLog_FGamut_to_ETERNA_BT.709_33grid_V.1.00.cube
#title:FLog_FGamut_to_ETERNA_BT.709
#FUJIFILM Corporation
#Gamma:F-Log to ETERNA
#Gamut:F-Gamut to ITU-R BT.709
#Version:1.00
LUT_3D_SIZE 33
0.006836 0.006836 0.006836
0.006836 0.006836 0.006836
0.006836 0.007508 0.003375
0.056689 0.007379 0.010348
0.099505 0.006747 0.012660
0.147014 0.006675 0.016926
0.191391 0.010007 0.020437
0.245936 0.011108 0.025902
0.301850 0.010167 0.038290
0.379268 0.010401 0.056757
0.465676 0.014097 0.076648
0.548177 0.013887 0.092633
0.630871 0.017666 0.113277
0.711028 0.016841 0.130016
0.786099 0.016796 0.147508
0.859410 0.019794 0.162514
0.929398 0.020192 0.182492
0.992934 0.023411 0.196302
0.992934 0.023411 0.196302
0.992934 0.023411 0.196302
0.992934 0.023411 0.196302
0.992934 0.023411 0.196302
0.992934 0.023411 0.196302
0.992934 0.023411 0.196302
0.992934 0.023411 0.196302
0.992934 0.023411 0.196302
0.992934 0.023411 0.196302
0.992934 0.023411 0.196302
0.992934 0.023411 0.196302
0.992934 0.023411 0.196302
0.992934 0.023411 0.196302
0.992934 0.023411 0.196302
0.992934 0.023411 0.196302
0.006836 0.006836 0.006836
0.006836 0.006836 0.006836
0.006836 0.006836 0.006836
0.032446 0.006590 0.009456
0.088362 0.007330 0.013192
0.133523 0.006978 0.016479
0.177900 0.010310 0.019991
0.226778 0.009876 0.022528
0.281322 0.010305 0.031454
0.346619 0.010144 0.049477
0.419930 0.012806 0.066215
0.498718 0.013351 0.079493
0.578481 0.013528 0.100668
0.660198 0.016330 0.120335
0.737616 0.016900 0.137075
0.811903 0.020538 0.154790
0.882283 0.020271 0.168598
0.951879 0.023015 0.186090
0.992934 0.023411 0.196302
0.992934 0.023411 0.196302
0.992934 0.023411 0.196302
0.992934 0.023411 0.196302
0.992934 0.023411 0.196302
0.992934 0.023411 0.196302
0.992934 0.023411 0.196302
0.992934 0.023411 0.196302
0.992934 0.023411 0.196302
0.992934 0.023411 0.196302
0.992934 0.023411 0.196302
0.992934 0.023411 0.196302
0.992934 0.023411 0.196302
0.992934 0.023411 0.196302
0.992934 0.023411 0.196302
0.006836 0.006836 0.006836
0.006836 0.006836 0.006836
0.006836 0.006836 0.006836
0.020326 0.006532 0.007281
0.071549 0.006713 0.009062
0.119057 0.006641 0.013328
0.164410 0.010613 0.019547
0.208203 0.010959 0.022835
0.259426 0.010132 0.029808
0.312602 0.010922 0.040464
0.379853 0.013387 0.056981
0.454924 0.013342 0.074473
0.533710 0.013886 0.087750
0.613475 0.014064 0.108926
0.692846 0.016922 0.125887
0.766549 0.017238 0.145109
0.837513 0.019957 0.159141
0.906525 0.020051 0.174679
0.972407 0.023549 0.189466
0.992934 0.023411 0.196302
0.992934 0.023411 0.196302
0.992934 0.023411 0.196302
0.992934 0.023411 0.196302
0.992934 0.023411 0.196302
0.992934 0.023411 0.196302
0.992934 0.023411 0.196302
0.992934 0.023411 0.196302
0.992934 0.023411 0.196302
0.992934 0.023411 0.196302
0.992934 0.023411 0.196302
0.992934 0.023411 0.196302
0.992934 0.023411 0.196302
0.992934 0.023411 0.196302
0.000000 0.019676 0.003066
0.004290 0.013564 0.004574
0.007419 0.010495 0.003597
0.010551 0.006755 0.006082
0.058059 0.006681 0.010348
0.103222 0.006329 0.013637
0.147014 0.006675 0.016926
0.187676 0.010425 0.019460
0.235184 0.010017 0.025458
0.283669 0.010248 0.034160
0.346619 0.010144 0.049477
0.416215 0.013560 0.063507
0.491287 0.013516 0.081000
0.571051 0.013693 0.102176
0.650422 0.017223 0.115676
0.725495 0.016842 0.134899
0.794506 0.016935 0.150437
0.866448 0.020631 0.165444
0.932136 0.019134 0.180762
0.992934 0.023411 0.196302
0.992934 0.023411 0.196302
0.992934 0.023411 0.196302
0.992934 0.023411 0.196302
0.992934 0.023411 0.196302
0.992934 0.023411 0.196302
0.992934 0.023411 0.196302
0.992934 0.023411 0.196302
0.992934 0.023411 0.196302
0.992934 0.023411 0.196302
0.992934 0.023411 0.196302
0.992934 0.023411 0.196302
0.992934 0.023411 0.196302
0.992934 0.023411 0.196302
0.000535 0.061323 0.000000
0.000152 0.051329 0.000854
0.000000 0.043683 0.000000
0.000000 0.035002 0.000000
0.033998 0.022893 0.007109
0.087767 0.016682 0.009422
0.131762 0.010022 0.013996
0.171839 0.010113 0.019769
0.213288 0.010180 0.022083
0.263141 0.010050 0.029055
0.317686 0.009807 0.041441
0.385329 0.010262 0.058710
0.454924 0.013342 0.074473
0.531366 0.013271 0.088504
0.608783 0.013505 0.106972
0.684439 0.016783 0.122958
0.758144 0.016762 0.143911
0.827738 0.020179 0.157941
0.894405 0.019993 0.172504
0.957940 0.022876 0.188043
0.992934 0.023411 0.196302
0.992934 0.023411 0.196302
0.992934 0.023411 0.196302
0.992934 0.023411 0.196302
0.992934 0.023411 0.196302
0.992934 0.023411 0.196302
0.992934 0.023411 0.196302
0.992934 0.023411 0.196302
0.992934 0.023411 0.196302
0.992934 0.023411 0.196302
0.992934 0.023411 0.196302
0.992934 0.023411 0.196302
0.992934 0.023411 0.196302
0.000000 0.097022 0.000000
0.000000 0.088341 0.000000
0.000000 0.083344 0.000374
0.000133 0.074663 0.000683
0.006394 0.068190 0.000460
0.067986 0.059470 0.003750
0.120780 0.051947 0.006816
0.160092 0.032387 0.012984
0.200965 0.016793 0.020352
0.245936 0.011108 0.025902
0.294420 0.010668 0.038066
0.352681 0.010006 0.051431
0.422275 0.013423 0.065461
0.495980 0.014074 0.082953
0.573396 0.014307 0.101422
0.650422 0.017223 0.115676
0.721779 0.016925 0.135653
0.792160 0.016657 0.149461
0.859410 0.019794 0.162514
0.924707 0.019634 0.180539
0.984527 0.023271 0.193372
0.992934 0.023411 0.196302
0.992934 0.023411 0.196302
0.992934 0.023411 0.196302
0.992934 0.023411 0.196302
0.992934 0.023411 0.196302
0.992934 0.023411 0.196302
0.992934 0.023411 0.196302
0.992934 0.023411 0.196302
0.992934 0.023411 0.196302
0.992934 0.023411 0.196302
0.992934 0.023411 0.196302
0.992934 0.023411 0.196302
0.000286 0.126329 0.000000
0.000000 0.120356 0.000000
0.000295 0.114663 0.000000
0.000496 0.107992 0.000000
0.000000 0.102018 0.000000
0.048407 0.095250 0.000000
0.101782 0.090377 0.004382
0.148324 0.077997 0.006026
0.191734 0.068350 0.010379
0.236907 0.056331 0.013754
0.281302 0.034648 0.026091
0.335082 0.013746 0.044061
0.398034 0.013642 0.059379
0.465676 0.014097 0.076648
0.539772 0.013412 0.091434
0.614059 0.017050 0.109148
0.689131 0.016669 0.128372
0.758144 0.017098 0.142180
0.826761 0.019202 0.156964
0.894405 0.019993 0.172504
0.955594 0.022934 0.185336
0.992934 0.023411 0.196302
0.992934 0.023411 0.196302
0.992934 0.023411 0.196302
0.992934 0.023411 0.196302
0.992934 0.023411 0.196302
0.992934 0.023411 0.196302
0.992934 0.023411 0.196302
0.992934 0.023411 0.196302
0.992934 0.023411 0.196302
0.992934 0.023411 0.196302
0.992934 0.023411 0.196302
0.992934 0.023411 0.196302
0.000256 0.161332 0.000000
0.000000 0.153348 0.000000
0.000000 0.146677 0.000000
0.000000 0.141680 0.000000
0.000000 0.135011 0.000000
0.006930 0.129513 0.000254
0.079273 0.122556 0.000527
0.133436 0.115008 0.000133
0.177037 0.110357 0.003953
0.221424 0.102021 0.007550
0.267573 0.089971 0.017095
0.321151 0.078091 0.023399
0.382360 0.056689 0.041594
0.446508 0.026549 0.062805
0.514161 0.013993 0.087081
0.586887 0.013669 0.103598
0.658828 0.016691 0.122066
0.729209 0.016424 0.135875
0.794506 0.016935 0.150437
0.861756 0.019737 0.165223
0.927636 0.023235 0.180007
0.984527 0.023271 0.193372
0.992934 0.023411 0.196302
0.992934 0.023411 0.196302
0.992934 0.023411 0.196302
0.992934 0.023411 0.196302
0.992934 0.023411 0.196302
0.992934 0.023411 0.196302
0.992934 0.023411 0.196302
0.992934 0.023411 0.196302
0.992934 0.023411 0.196302
0.992934 0.023411 0.196302
0.992934 0.023411 0.196302
0.000000 0.193010 0.000800
0.000237 0.184664 0.000000
0.000437 0.177659 0.000663
0.000246 0.172663 0.001195
0.000000 0.165015 0.000000
0.000256 0.161332 0.000000
0.048941 0.156236 0.000887
0.112093 0.152488 0.000184
0.162541 0.145021 0.000543
0.208297 0.136997 0.000000
0.255614 0.131927 0.003746
0.305085 0.121469 0.013512
0.367068 0.110402 0.019286
0.433352 0.098879 0.041832
0.499837 0.081358 0.060473
0.568877 0.044433 0.086652
0.633609 0.016271 0.113277
0.704967 0.016644 0.129794
0.770264 0.017156 0.144355
0.836144 0.020318 0.160870
0.900464 0.020190 0.172726
0.958917 0.023853 0.189020
0.992934 0.023411 0.196302
0.992934 0.023411 0.196302
0.992934 0.023411 0.196302
0.992934 0.023411 0.196302
0.992934 0.023411 0.196302
0.992934 0.023411 0.196302
0.992934 0.023411 0.196302
0.992934 0.023411 0.196302
0.992934 0.023411 0.196302
0.992934 0.023411 0.196302
0.992934 0.023411 0.196302
0.000006 0.226338 0.000000
0.000207 0.219331 0.000851
0.000800 0.210986 0.000000
0.000026 0.203004 0.000000
0.000000 0.198007 0.000269
0.000619 0.194323 0.000047
0.000427 0.189326 0.000578
0.083524 0.183796 0.000000
0.143353 0.178119 0.000371
0.192040 0.173361 0.000000
0.243070 0.168882 0.000558
0.294886 0.160382 0.002647
0.351003 0.153778 0.009398
0.416893 0.146282 0.020810
0.482592 0.132445 0.039672
0.553959 0.120142 0.061465
0.624157 0.100858 0.088003
0.688708 0.056369 0.113515
0.749736 0.016622 0.140981
0.813271 0.019841 0.154790
0.878568 0.020353 0.169350
0.941520 0.020249 0.184668
0.992934 0.023411 0.196302
0.992934 0.023411 0.196302
0.992934 0.023411 0.196302
0.992934 0.023411 0.196302
0.992934 0.023411 0.196302
0.992934 0.023411 0.196302
0.992934 0.023411 0.196302
0.992934 0.023411 0.196302
0.992934 0.023411 0.196302
0.992934 0.023411 0.196302
0.992934 0.023411 0.196302
0.000000 0.265023 0.000000
0.000178 0.254332 0.000594
0.000379 0.247662 0.000149
0.000581 0.240992 0.000000
0.000781 0.233984 0.000989
0.000590 0.229324 0.000000
0.000399 0.224328 0.000320
0.050454 0.218872 0.000000
0.121035 0.214285 0.001176
0.177151 0.209026 0.001003
0.228574 0.202874 0.000609
0.279606 0.198730 0.000000
0.338459 0.192077 0.000000
0.402587 0.187960 0.006484
0.468479 0.179455 0.023086
0.538084 0.170532 0.040664
0.608867 0.154906 0.063965
0.674959 0.138387 0.087043
0.741644 0.112514 0.113890
0.804645 0.051722 0.141750
0.866448 0.020631 0.165444
0.927636 0.023235 0.180007
0.988243 0.023189 0.192617
0.992934 0.023411 0.196302
0.992934 0.023411 0.196302
0.992934 0.023411 0.196302
0.992934 0.023411 0.196302
0.992934 0.023411 0.196302
0.992934 0.023411 0.196302
0.992934 0.023411 0.196302
0.992934 0.023411 0.196302
0.992934 0.023411 0.196302
0.992934 0.023411 0.196302
0.000000 0.307672 0.000694
0.000000 0.298015 0.000027
0.000000 0.288357 0.000000
0.000000 0.281687 0.000000
0.000000 0.272670 0.000952
0.000168 0.266000 0.000507
0.000000 0.261003 0.001038
0.000000 0.256343 0.000000
0.091288 0.251289 0.000027
0.157178 0.246145 0.000000
0.210948 0.240271 0.000000
0.262955 0.237103 0.000000
0.324155 0.231066 0.000000
0.388675 0.226283 0.000000
0.456912 0.220747 0.003570
0.525149 0.212185 0.022879
0.595338 0.205575 0.044141
0.665728 0.191625 0.068417
0.733190 0.174743 0.089765
0.798506 0.149905 0.114883
0.858950 0.107508 0.140394
0.916301 0.019494 0.177609
0.974752 0.023156 0.193902
0.992934 0.023411 0.196302
0.992934 0.023411 0.196302
0.992934 0.023411 0.196302
0.992934 0.023411 0.196302
0.992934 0.023411 0.196302
0.992934 0.023411 0.196302
0.992934 0.023411 0.196302
0.992934 0.023411 0.196302
0.992934 0.023411 0.196302
0.992934 0.023411 0.196302
0.000000 0.358025 0.000574
0.000493 0.345660 0.000660
0.000110 0.336003 0.000000
0.000000 0.326346 0.000000
0.000000 0.319339 0.000609
0.000521 0.310658 0.000918
0.000000 0.304686 0.000473
0.000000 0.300025 0.000000
0.028690 0.293362 0.000000
0.129967 0.288088 0.000351
0.192143 0.283026 0.000402
0.251973 0.277685 0.000000
0.309065 0.273403 0.000282
0.376324 0.267561 0.000000
0.445538 0.264009 0.000000
0.514167 0.257134 0.000126
0.588464 0.248769 0.019656
0.657675 0.240176 0.045132
0.726697 0.226922 0.069410
0.792397 0.211740 0.095195
0.853998 0.187319 0.119336
0.914634 0.149919 0.144317
0.967474 0.078684 0.175499
0.992934 0.023411 0.196302
0.992934 0.023411 0.196302
0.992934 0.023411 0.196302
0.992934 0.023411 0.196302
0.992934 0.023411 0.196302
0.992934 0.023411 0.196302
0.992934 0.023411 0.196302
0.992934 0.023411 0.196302
0.992934 0.023411 0.196302
0.992934 0.023411 0.196302
0.000000 0.412678 0.000000
0.000000 0.400033 0.000000
0.000000 0.388366 0.000000
0.000000 0.379685 0.000000
0.000000 0.368018 0.000000
0.000000 0.361011 0.000796
0.000000 0.354342 0.000351
0.000100 0.347671 0.000000
0.000301 0.340663 0.001191
0.074598 0.336332 0.000000
0.163753 0.330999 0.000000
0.228276 0.326217 0.000196
0.295143 0.322049 0.000469
0.362402 0.316207 0.000000
0.432985 0.311957 0.000000
0.506305 0.305977 0.000536
0.578650 0.299356 0.000000
0.649231 0.291074 0.019364
0.720206 0.280445 0.042134
0.784143 0.267634 0.068895
0.846520 0.250861 0.094457
0.908514 0.224430 0.119351
0.964648 0.191132 0.143578
0.999501 0.124638 0.171833
0.992934 0.023411 0.196302
0.992934 0.023411 0.196302
0.992934 0.023411 0.196302
0.992934 0.023411 0.196302
0.992934 0.023411 0.196302
0.992934 0.023411 0.196302
0.992934 0.023411 0.196302
0.992934 0.023411 0.196302
0.992934 0.023411 0.196302
0.000000 0.470677 0.001223
0.000000 0.459346 0.000000
0.000214 0.445668 0.000418
0.000000 0.436011 0.000000
0.000000 0.426354 0.000000
0.000041 0.417337 0.001121
0.000000 0.407680 0.000453
0.000000 0.401010 0.000007
0.000000 0.396013 0.000540
0.000000 0.391016 0.001071
0.110530 0.386193 0.000196
0.197340 0.380245 0.000160
0.274376 0.374518 0.000000
0.348280 0.371524 0.000398
0.420231 0.366577 0.000000
0.494528 0.361910 0.000414
0.569216 0.355567 0.000000
0.641561 0.348610 0.000206
0.710190 0.340727 0.006426
0.776473 0.327524 0.037625
0.839434 0.312393 0.070332
0.902595 0.291934 0.095671
0.960875 0.265586 0.121320
1.000000 0.226339 0.143679
0.999854 0.171649 0.160129
0.998936 0.096637 0.180433
0.992934 0.023411 0.196302
0.992934 0.023411 0.196302
0.992934 0.023411 0.196302
0.992934 0.023411 0.196302
0.992934 0.023411 0.196302
0.992934 0.023411 0.196302
0.992934 0.023411 0.196302
0.000000 0.529349 0.000000
0.000155 0.515671 0.000000
0.000000 0.506015 0.000000
0.000000 0.496022 0.000296
0.000000 0.486364 0.000000
0.000000 0.474697 0.000000
0.000000 0.468026 0.000000
0.000000 0.461020 0.000554
0.000595 0.455326 0.001085
0.000000 0.449353 0.000640
0.000000 0.444691 0.000000
0.154083 0.440550 0.000126
0.247929 0.436111 0.000000
0.324572 0.432059 0.000000
0.406299 0.426890 0.000019
0.481573 0.423535 0.000000
0.557239 0.418169 0.000257
0.633297 0.411131 0.000000
0.702318 0.402582 0.000000
0.768996 0.393754 0.000000
0.834301 0.380246 0.025665
0.894333 0.362521 0.053710
0.953779 0.340129 0.090187
0.999746 0.308390 0.115921
0.998809 0.256712 0.136055
0.999432 0.210677 0.148733
0.999874 0.147306 0.165492
0.992541 0.025757 0.193815
0.992934 0.023411 0.196302
0.992934 0.023411 0.196302
0.992934 0.023411 0.196302
0.992934 0.023411 0.196302
0.992934 0.023411 0.196302
0.000000 0.589359 0.000000
0.000000 0.577692 0.000000
0.000000 0.566025 0.000000
0.000317 0.555334 0.000843
0.000000 0.545677 0.000176
0.000000 0.536019 0.000000
0.000000 0.529349 0.000000
0.000000 0.524352 0.000000
0.000000 0.519356 0.000126
0.000000 0.512685 0.000000
0.000000 0.507689 0.000211
0.046695 0.503627 0.000000
0.201542 0.499485 0.000500
0.299104 0.494965 0.000000
0.385129 0.492701 0.000000
0.467833 0.488845 0.000000
0.547213 0.483398 0.000000
0.619164 0.478114 0.000324
0.691116 0.473168 0.000000
0.760529 0.462945 0.000000
0.823883 0.452189 0.000000
0.887045 0.436772 0.000000
0.942970 0.418451 0.040773
0.993818 0.390251 0.078311
0.998741 0.344767 0.102574
0.998780 0.294066 0.123683
0.999211 0.242698 0.138624
0.999643 0.190995 0.155297
0.999117 0.114644 0.172895
0.992934 0.023411 0.196302
0.992934 0.023411 0.196302
0.992934 0.023411 0.196302
0.992934 0.023411 0.196302
0.000000 0.645685 0.000000
0.000247 0.637004 0.000241
0.000000 0.626035 0.000329
0.000000 0.615680 0.000000
0.000469 0.606999 0.000000
0.000000 0.599017 0.000278
0.000000 0.594356 0.000000
0.000000 0.589359 0.000000
0.000488 0.583665 0.000141
0.000297 0.578669 0.000673
0.000000 0.572695 0.000227
0.000000 0.569011 0.000003
0.126803 0.564164 0.000551
0.259360 0.561523 0.000567
0.357898 0.557978 0.000223
0.448030 0.553622 0.000410
0.532104 0.549405 0.000000
0.607377 0.545714 0.000117
0.679328 0.540767 0.000000
0.746981 0.532915 0.000000
0.809942 0.524170 0.000000
0.869973 0.511822 0.000000
0.929420 0.496487 0.000012
0.983200 0.473904 0.026637
0.999065 0.432829 0.059464
1.000000 0.382096 0.086742
0.999143 0.329746 0.110337
0.998989 0.274720 0.128514
0.999422 0.222680 0.146918
0.999279 0.156659 0.161724
0.992541 0.025757 0.193815
0.992934 0.023411 0.196302
0.992934 0.023411 0.196302
0.000000 0.702708 0.000257
0.000000 0.694028 0.000567
0.000000 0.684370 0.000000
0.000000 0.677700 0.000000
0.000000 0.669019 0.000000
0.000000 0.664022 0.000292
0.000000 0.657352 0.000000
0.000000 0.650682 0.000000
0.000000 0.647359 0.000911
0.000439 0.642001 0.000000
0.000247 0.637004 0.000241
0.000000 0.633042 0.000000
0.000000 0.627347 0.000000
0.200850 0.624838 0.000000
0.325978 0.622698 0.000000
0.424516 0.618817 0.000512
0.507219 0.615297 0.000000
0.586207 0.611525 0.000000
0.665589 0.606077 0.000000
0.731479 0.600597 0.000234
0.795024 0.595173 0.000000
0.854662 0.584500 0.000000
0.915086 0.570478 0.000000
0.968866 0.552937 0.000000
0.997435 0.520955 0.004020
0.999035 0.473208 0.031520
0.999074 0.420154 0.064741
0.999506 0.365762 0.095257
0.999355 0.310064 0.116898
0.999986 0.251018 0.136585
0.999452 0.185326 0.159288
0.999279 0.155987 0.165184
0.999089 0.150990 0.165715
0.000735 0.756327 0.001336
0.000000 0.750354 0.000891
0.000000 0.743683 0.000444
0.000000 0.737013 0.000000
0.000170 0.730342 0.000000
0.000000 0.724033 0.000840
0.000180 0.718339 0.001371
0.000000 0.713678 0.000172
0.000000 0.708682 0.000703
0.000583 0.704998 0.000482
0.000000 0.699024 0.000035
0.000000 0.697015 0.000789
0.000000 0.691041 0.000343
0.100893 0.687416 0.000000
0.281350 0.683700 0.000000
0.394355 0.680829 0.000168
0.489179 0.677368 0.000577
0.569538 0.673233 0.000000
0.644811 0.669878 0.000000
0.717155 0.662920 0.000000
0.781675 0.658137 0.000610
0.840923 0.649810 0.000000
0.898216 0.638857 0.000000
0.952186 0.626312 0.000000
0.987592 0.603183 0.000488
0.994276 0.560035 0.000000
0.999398 0.511913 0.002597
1.000000 0.461510 0.037774
0.998893 0.401475 0.075742
0.999918 0.338066 0.108296
0.999383 0.272710 0.129270
0.998627 0.239040 0.141863
0.999412 0.235356 0.141641
0.000000 0.808689 0.000461
0.000000 0.802020 0.000016
0.000000 0.795349 0.000000
0.000000 0.790352 0.000101
0.000000 0.785356 0.000633
0.000000 0.780359 0.001163
0.000523 0.775001 0.000000
0.000000 0.770701 0.000495
0.000000 0.766041 0.000000
0.000000 0.761044 0.000000
0.000735 0.756327 0.001336
0.000150 0.753341 0.001114
0.000000 0.748680 0.000000
0.000000 0.745693 0.000000
0.236138 0.741379 0.000563
0.364981 0.739157 0.000000
0.462152 0.736310 0.000000
0.550915 0.732316 0.001176
0.628926 0.727565 0.000917
0.698138 0.724013 0.000437
0.764030 0.718869 0.000000
0.825229 0.712830 0.000000
0.883499 0.702854 0.000145
0.937076 0.692319 0.000000
0.981081 0.674999 0.000000
0.984824 0.639580 0.000230
0.988377 0.599499 0.000266
0.992524 0.551074 0.000000
0.998825 0.493226 0.023225
0.999065 0.432157 0.062926
0.999314 0.360765 0.095789
0.999736 0.320393 0.114106
0.999153 0.317407 0.113883
0.000000 0.853685 0.000000
0.000000 0.848688 0.000000
0.000000 0.842018 0.000000
0.000273 0.840008 0.000000
0.000082 0.835010 0.000512
0.000000 0.830014 0.001043
0.000091 0.823344 0.000597
0.000000 0.822368 0.000000
0.000000 0.813686 0.000000
0.000102 0.811677 0.000684
0.000000 0.807016 0.000000
0.000000 0.803694 0.000993
0.000112 0.800010 0.000771
0.000505 0.797999 0.001523
0.162779 0.793693 0.000699
0.328378 0.790978 0.000097
0.436691 0.787548 0.000000
0.525063 0.785564 0.000386
0.606397 0.782742 0.000000
0.680693 0.777738 0.000848
0.745215 0.773292 0.000145
0.808761 0.767532 0.000196
0.863898 0.761297 0.000000
0.922561 0.749646 0.000000
0.971054 0.739891 0.000000
0.976360 0.708771 0.000246
0.982843 0.672292 0.000000
0.986787 0.630538 0.000000
0.991327 0.579766 0.000000
0.997044 0.523638 0.000000
0.999045 0.458853 0.045448
0.998692 0.408144 0.076188
0.999477 0.404460 0.075966
0.000000 0.897031 0.000305
0.000426 0.891338 0.000836
0.000000 0.885364 0.000390
0.000000 0.882377 0.000168
0.000000 0.878693 0.000000
0.000000 0.872023 0.000000
0.000000 0.869037 0.000000
0.000000 0.865017 0.000785
0.000000 0.860356 0.000000
0.000063 0.858345 0.000339
0.000000 0.853685 0.000000
0.000000 0.850361 0.000648
0.000000 0.848352 0.001403
0.000465 0.844669 0.001180
0.000000 0.842018 0.000000
0.275354 0.839501 0.000679
0.404195 0.837279 0.000000
0.501365 0.834095 0.001104
0.585045 0.831552 0.000317
0.659341 0.827221 0.000000
0.728948 0.821658 0.000000
0.789362 0.818968 0.000383
0.849585 0.811617 0.000212
0.905116 0.803372 0.000000
0.955956 0.794231 0.000000
0.967120 0.770314 0.000000
0.971054 0.739891 0.000000
0.975192 0.702798 0.000000
0.981876 0.659312 0.000590
0.988760 0.609492 0.000000
0.992524 0.551074 0.000000
0.999408 0.496885 0.019988
0.998825 0.493226 0.023225
0.000000 0.933707 0.001023
0.000000 0.930022 0.000801
0.000000 0.927036 0.000577
0.000206 0.921678 0.000000
0.000000 0.918356 0.000887
0.000405 0.914671 0.000664
0.000216 0.909675 0.001196
0.000000 0.906689 0.000973
0.000415 0.903004 0.000750
0.000000 0.900017 0.000526
0.000225 0.898008 0.001282
0.000034 0.893346 0.000083
0.000000 0.890361 0.000000
0.000000 0.890361 0.000000
0.000235 0.886677 0.000000
0.211972 0.885259 0.000000
0.365448 0.881813 0.000523
0.476107 0.878664 0.000624
0.560764 0.877097 0.000812
0.638776 0.872347 0.000555
0.706620 0.869493 0.000074
0.769772 0.865743 0.000000
0.832341 0.858671 0.000176
0.889826 0.852715 0.000005
0.939295 0.844272 0.000000
0.959057 0.825828 0.000000
0.962207 0.799425 0.000000
0.967905 0.766631 0.000000
0.973411 0.728839 0.000000
0.978725 0.686052 0.000000
0.985611 0.635895 0.000008
0.991910 0.582753 0.000128
0.991327 0.579766 0.000000
0.000167 0.968010 0.000764
0.000000 0.965024 0.000543
0.000367 0.961340 0.000321
0.000175 0.956343 0.000852
0.000000 0.953357 0.000628
0.000000 0.950371 0.000406
0.000000 0.946686 0.000183
0.000000 0.943700 0.000000
0.000000 0.941689 0.000715
0.000000 0.937029 0.000000
0.000000 0.936693 0.001247
0.000196 0.933010 0.001023
0.000000 0.932033 0.000046
0.000000 0.929046 0.000000
0.000000 0.925362 0.000000
0.112033 0.924502 0.000000
0.319078 0.922190 0.000000
0.439514 0.919153 0.000000
0.536292 0.917982 0.000110
0.612542 0.915602 0.000828
0.684100 0.912665 0.000000
0.748622 0.908219 0.000000
0.809037 0.905529 0.000000
0.866912 0.897562 0.000501
0.921076 0.890014 0.000106
0.949826 0.875369 0.000106
0.952192 0.852649 0.000000
0.959057 0.825828 0.000000
0.964755 0.793033 0.000000
0.970259 0.755242 0.000000
0.975575 0.712455 0.000468
0.983829 0.661937 0.000000
0.984614 0.658253 0.000000
0.000000 0.978702 0.000000
0.000000 0.978702 0.000000
0.000000 0.978702 0.000000
0.000000 0.978702 0.000000
0.000000 0.978702 0.000000
0.000000 0.978702 0.000000
0.000157 0.979678 0.000679
0.000000 0.976691 0.000457
0.000000 0.974682 0.001211
0.000000 0.971696 0.000989
0.000000 0.970021 0.000012
0.000000 0.967034 0.000000
0.000000 0.965024 0.000543
0.000000 0.962037 0.000321
0.000000 0.962037 0.000321
0.000367 0.961340 0.000321
0.260982 0.959824 0.001329
0.399598 0.957717 0.000000
0.500090 0.956462 0.000000
0.583770 0.953583 0.000655
0.658650 0.952237 0.000000
0.727864 0.948685 0.000000
0.790039 0.943287 0.000944
0.847524 0.937667 0.000000
0.900317 0.930480 0.000379
0.939035 0.920946 0.000000
0.943355 0.900516 0.000000
0.949826 0.875369 0.000106
0.954346 0.848268 0.000000
0.956328 0.815555 0.000000
0.966527 0.778995 0.000000
0.972626 0.732523 0.000000
0.972434 0.727526 0.000000
0.000157 0.979678 0.000679
0.000157 0.979678 0.000679
0.000157 0.979678 0.000679
0.000157 0.979678 0.000679
0.000157 0.979678 0.000679
0.000157 0.979678 0.000679
0.000000 0.978702 0.000000
0.000000 0.980375 0.000679
0.000000 0.980375 0.000679
0.000157 0.979678 0.000679
0.000000 0.981688 0.000000
0.000000 0.983361 0.000902
0.000000 0.983361 0.000902
0.000000 0.985372 0.000148
0.000000 0.988359 0.000372
0.000000 0.988359 0.000372
0.176496 0.989722 0.000437
0.346000 0.991586 0.000281
0.459006 0.989050 0.000000
0.548355 0.988379 0.000039
0.629689 0.985221 0.000005
0.698508 0.983679 0.000000
0.764007 0.979872 0.000773
0.822467 0.975228 0.000000
0.877606 0.968657 0.000430
