lut/fujifilm/F-Log/F-Log_LUT_E_Ver.1.27/GFX100II/GFX100II_FLog_FGamut_to_ETERNA_BT.709_33grid_V.1.00.cube
#title:FLog_FGamut_to_ETERNA_BT.709
#FUJIFILM Corporation
#Gamma:F-Log to ETERNA
#Gamut:F-Gamut to ITU-R BT.709
#Version:1.00
LUT_3D_SIZE 9
0.006836 0.006836 0.006836
0.099505 0.006747 0.012660
0.301850 0.010167 0.038290
0.630871 0.017666 0.113277
0.929398 0.020192 0.182492
0.992934 0.023411 0.196302
0.992934 0.023411 0.196302
0.992934 0.023411 0.196302
0.992934 0.023411 0.196302
0.000535 0.061323 0.000000
0.033998 0.022893 0.007109
0.213288 0.010180 0.022083
0.454924 0.013342 0.074473
0.758144 0.016762 0.143911
0.992934 0.023411 0.196302
0.992934 0.023411 0.196302
0.992934 0.023411 0.196302
0.992934 0.023411 0.196302
0.000000 0.193010 0.000800
0.000000 0.165015 0.000000
0.162541 0.145021 0.000543
0.367068 0.110402 0.019286
0.633609 0.016271 0.113277
0.900464 0.020190 0.172726
0.992934 0.023411 0.196302
0.992934 0.023411 0.196302
0.992934 0.023411 0.196302
0.000000 0.358025 0.000574
0.000000 0.319339 0.000609
0.028690 0.293362 0.000000
0.309065 0.273403 0.000282
0.588464 0.248769 0.019656
0.853998 0.187319 0.119336
0.992934 0.023411 0.196302
0.992934 0.023411 0.196302
0.992934 0.023411 0.196302
0.000000 0.589359 0.000000
0.000000 0.545677 0.000176
0.000000 0.519356 0.000126
0.201542 0.499485 0.000500
0.547213 0.483398 0.000000
0.823883 0.452189 0.000000
0.998741 0.344767 0.102574
0.999117 0.114644 0.172895
0.992934 0.023411 0.196302
0.000000 0.808689 0.000461
0.000000 0.785356 0.000633
0.000000 0.766041 0.000000
0.000000 0.748680 0.000000
0.462152 0.736310 0.000000
0.764030 0.718869 0.000000
0.981081 0.674999 0.000000
0.998825 0.493226 0.023225
0.999153 0.317407 0.113883
0.000167 0.968010 0.000764
0.000000 0.953357 0.000628
0.000000 0.941689 0.000715
0.000000 0.932033 0.000046
0.319078 0.922190 0.000000
0.684100 0.912665 0.000000
0.921076 0.890014 0.000106
0.964755 0.793033 0.000000
0.984614 0.658253 0.000000
0.000000 0.978702 0.000000
0.000157 0.979678 0.000679
0.000000 0.980375 0.000679
0.000000 0.983361 0.000902
0.000000 0.988359 0.000372
0.543068 0.995829 0.001239
0.823424 0.999540 0.000652
0.925687 0.984246 0.000000
0.945901 0.894125 0.000000
0.000000 0.980375 0.000679
0.000000 0.980375 0.000679
0.000157 0.979678 0.000679
0.000000 0.981688 0.000000
0.000000 0.985372 0.000148
0.247269 0.990469 0.000000
0.638084 0.997700 0.000000
0.897912 0.999869 0.000617
0.927239 0.999877 0.000754
0.007219 0.006411 0.059417
0.092076 0.006912 0.014168
0.292074 0.010724 0.035360
0.595293 0.013472 0.108258
0.899096 0.020551 0.174457
0.992934 0.023411 0.196302
0.992934 0.023411 0.196302
0.992934 0.023411 0.196302
0.992934 0.023411 0.196302
0.000132 0.061893 0.066441
0.026367 0.026367 0.026367
0.203512 0.010065 0.022614
0.436742 0.013759 0.068613
0.733901 0.016982 0.137828
0.992934 0.023411 0.196302
0.992934 0.023411 0.196302
0.992934 0.023411 0.196302
0.992934 0.023411 0.196302
0.000418 0.192591 0.043754
0.000000 0.167323 0.013086
0.154719 0.147532 0.000000
0.356308 0.120642 0.020484
0.620704 0.020233 0.109593
0.883653 0.019238 0.170327
0.992934 0.023411 0.196302
0.992934 0.023411 0.196302
0.992934 0.023411 0.196302
0.000000 0.361011 0.000796
0.000511 0.322326 0.000832
0.010307 0.299106 0.000473
0.301434 0.280574 0.000504
0.580833 0.257284 0.012957
0.847928 0.200134 0.112106
0.992934 0.023411 0.196302
0.992934 0.023411 0.196302
0.992934 0.023411 0.196302
0.000000 0.594019 0.000809
0.000709 0.553660 0.000000
0.000000 0.529349 0.000000
0.180612 0.511956 0.000000
0.538797 0.494253 0.000000
0.817814 0.463659 0.000000
1.000000 0.362079 0.095035
1.000000 0.140300 0.166778
0.992934 0.023411 0.196302
0.000000 0.808689 0.000461
0.000000 0.789040 0.000856
0.000000 0.771678 0.001472
0.000342 0.758338 0.000582
0.449043 0.746271 0.000000
0.758352 0.728329 0.000179
0.977940 0.689736 0.000000
0.998422 0.509929 0.006813
0.999728 0.332396 0.112290
0.000000 0.963350 0.000000
0.000000 0.951684 0.000000
0.000000 0.940713 0.000000
0.000000 0.934043 0.000000
0.292289 0.927457 0.000215
0.674123 0.919222 0.000570
0.913051 0.899195 0.000000
0.961031 0.804783 0.000090
0.981866 0.670979 0.000504
0.000000 0.976691 0.000457
0.000000 0.976691 0.000457
0.000000 0.978702 0.000000
0.000000 0.983361 0.000902
0.000000 0.987383 0.000000
0.523519 0.995935 0.000570
0.813648 0.999761 0.000000
0.925879 0.989243 0.000000
0.945308 0.902469 0.000910
0.000549 0.977668 0.001434
0.000000 0.978702 0.000000
0.000157 0.979678 0.000679
0.000000 0.981688 0.000000
0.000000 0.985372 0.000148
0.210514 0.990624 0.000797
0.622249 0.997388 0.000000
0.889506 0.999392 0.000000
0.927239 0.999877 0.000754
0.013843 0.003690 0.210243
0.080712 0.006917 0.172447
0.277789 0.010247 0.118113
0.564991 0.013832 0.100223
0.867816 0.019934 0.165444
0.992934 0.023411 0.196302
0.992934 0.023411 0.196302
0.992934 0.023411 0.196302
0.992934 0.023411 0.196302
0.000000 0.059001 0.220503
0.004643 0.026632 0.167649
0.198801 0.006628 0.155465
0.416215 0.013560 0.063507
0.713373 0.017120 0.130992
0.976121 0.023130 0.190442
0.992934 0.023411 0.196302
0.992934 0.023411 0.196302
0.992934 0.023411 0.196302
0.000388 0.195666 0.207892
0.000418 0.169738 0.161426
0.153320 0.153320 0.153320
0.351596 0.123589 0.120457
0.610123 0.049490 0.098061
0.873877 0.019459 0.169129
0.992934 0.023411 0.196302
0.992934 0.023411 0.196302
0.992934 0.023411 0.196302
0.000635 0.370344 0.198702
0.000281 0.333752 0.156761
0.000000 0.309447 0.146328
0.302774 0.289337 0.131762
0.573785 0.268114 0.009941
0.841857 0.212613 0.106605
0.992934 0.023411 0.196302
0.992934 0.023411 0.196302
0.992934 0.023411 0.196302
0.000000 0.600746 0.171336
0.000000 0.567476 0.127887
0.000000 0.544516 0.110531
0.166509 0.525455 0.095727
0.540147 0.509496 0.037418
0.811542 0.481800 0.000000
1.000000 0.382096 0.086742
0.999271 0.167990 0.163368
0.992934 0.023411 0.196302
0.000082 0.808125 0.138949
0.000695 0.789890 0.068481
0.000000 0.775698 0.000000
0.000000 0.761044 0.000000
0.451581 0.751546 0.000000
0.749936 0.739184 0.000624
0.975584 0.701123 0.000000
0.997235 0.528633 0.000000
0.999324 0.347754 0.102796
0.000000 0.957668 0.022816
0.000000 0.945710 0.000000
0.000387 0.938005 0.000492
0.000000 0.930022 0.000801
0.287205 0.928236 0.000968
0.660824 0.924522 0.000000
0.909528 0.904273 0.000000
0.959067 0.814161 0.000000
0.980095 0.685354 0.000000
0.000000 0.970021 0.000012
0.000000 0.972032 0.000000
0.000357 0.973008 0.000234
0.000549 0.977668 0.001434
0.000000 0.983361 0.000902
0.511790 0.993867 0.000000
0.797813 0.999448 0.000000
0.921963 0.995996 0.000308
0.940998 0.911568 0.000000
0.000000 0.971696 0.000989
0.000000 0.971696 0.000989
0.000357 0.973008 0.000234
0.000000 0.975715 0.000000
0.000157 0.979678 0.000679
0.214621 0.988532 0.000797
0.607782 0.996379 0.000005
0.879730 0.999277 0.000000
0.927239 0.999877 0.000754
0.017328 0.003945 0.422523
0.014801 0.003469 0.337371
0.268770 0.007171 0.294671
0.544051 0.013773 0.223976
0.837513 0.019957 0.159141
0.992934 0.023411 0.196302
0.992934 0.023411 0.196302
0.992934 0.023411 0.196302
0.992934 0.023411 0.196302
0.000000 0.060979 0.440684
0.006173 0.032661 0.338176
0.188804 0.007616 0.305090
0.411103 0.010022 0.266469
0.692846 0.016922 0.125887
0.956570 0.023573 0.188043
0.992934 0.023411 0.196302
0.992934 0.023411 0.196302
0.992934 0.023411 0.196302
0.000000 0.203674 0.425809
0.000000 0.178470 0.340828
0.131787 0.157574 0.299262
0.351365 0.134343 0.279848
0.613990 0.070154 0.255637
0.866448 0.020631 0.165444
0.992934 0.023411 0.196302
0.992934 0.023411 0.196302
0.992934 0.023411 0.196302
0.000194 0.386666 0.424211
0.000040 0.348779 0.354136
0.000000 0.322509 0.319031
0.302734 0.302734 0.302734
0.586049 0.278742 0.282840
0.838717 0.226340 0.112688
0.992934 0.023411 0.196302
0.992934 0.023411 0.196302
0.992934 0.023411 0.196302
0.000000 0.610353 0.421824
0.000000 0.581774 0.373407
0.000258 0.559804 0.337769
0.136347 0.543777 0.320343
0.541850 0.526046 0.298957
0.816576 0.494995 0.226566
0.999477 0.404460 0.075966
0.999834 0.196328 0.153035
0.992934 0.023411 0.196302
0.000819 0.806317 0.429016
0.000000 0.790409 0.384950
0.000000 0.774804 0.345321
0.000000 0.766491 0.337730
0.444484 0.757868 0.320078
0.757708 0.745607 0.255551
0.970883 0.711560 0.000246
0.993702 0.545380 0.000000
0.999506 0.365762 0.095257
0.000117 0.947371 0.406995
0.000000 0.938100 0.369542
0.000000 0.930503 0.333065
0.000000 0.926180 0.330136
0.261545 0.925653 0.312864
0.669584 0.921598 0.248660
0.903075 0.905751 0.000552
0.958081 0.824516 0.000450
0.979108 0.695709 0.000332
0.000000 0.965551 0.307383
0.000318 0.965569 0.278496
0.000000 0.964649 0.232835
0.000000 0.970343 0.232305
0.000117 0.978289 0.247793
0.519774 0.988002 0.222566
0.790382 0.999949 0.000000
0.922939 0.997308 0.000000
0.941775 0.919551 0.000000
0.000000 0.965987 0.235544
0.000000 0.968093 0.174310
0.000000 0.968569 0.086671
0.000000 0.971226 0.078996
0.000147 0.976222 0.078464
0.251167 0.983526 0.119187
0.602114 0.994172 0.000535
0.863896 0.998966 0.000257
0.927239 0.999877 0.000754
0.027054 0.003918 0.722664
0.023358 0.000000 0.624954
0.250941 0.006206 0.526297
0.537176 0.010252 0.440028
0.823218 0.016697 0.316219
0.992934 0.023411 0.196302
0.992934 0.023411 0.196302
0.992934 0.023411 0.196302
0.992934 0.023411 0.196302
0.003739 0.063788 0.715399
0.014339 0.037747 0.590394
0.167462 0.003758 0.517988
0.407941 0.010117 0.462731
0.697106 0.013397 0.398425
0.939759 0.022957 0.183914
0.992934 0.023411 0.196302
0.992934 0.023411 0.196302
0.992934 0.023411 0.196302
0.000100 0.216267 0.676521
0.001114 0.189058 0.582664
0.072310 0.166908 0.509984
0.346243 0.143816 0.475801
0.623718 0.090294 0.451949
0.875801 0.017093 0.373289
0.992934 0.023411 0.196302
0.992934 0.023411 0.196302
0.992934 0.023411 0.196302
0.000336 0.404965 0.655132
0.000000 0.368752 0.586034
0.000022 0.338842 0.525282
0.286849 0.319086 0.517191
0.593822 0.292559 0.499695
0.854686 0.237799 0.440121
0.995451 0.053702 0.187922
0.992934 0.023411 0.196302
0.992934 0.023411 0.196302
0.000160 0.618000 0.638012
0.000773 0.595058 0.591770
0.000000 0.574488 0.546504
0.000420 0.559137 0.546368
0.541016 0.541016 0.541016
0.822387 0.508108 0.495028
0.999610 0.427369 0.343140
1.000000 0.226339 0.143679
0.992934 0.023411 0.196302
0.000000 0.799716 0.621370
0.000000 0.786089 0.587156
0.000042 0.774474 0.552187
0.000000 0.768468 0.557910
0.425871 0.759242 0.558848
0.757660 0.749500 0.535458
0.979614 0.713393 0.404797
0.996783 0.576787 0.120868
0.999295 0.386452 0.083503
0.000098 0.932393 0.604098
0.000108 0.926103 0.576496
0.000000 0.921487 0.549872
0.000510 0.918139 0.547919
0.172360 0.919273 0.553929
0.662307 0.916969 0.540012
0.910436 0.900551 0.444903
0.971138 0.827857 0.231679
0.975967 0.710780 0.000000
0.000000 0.959849 0.532308
0.000481 0.960533 0.509589
0.000290 0.961587 0.478972
0.000000 0.965277 0.469566
0.000280 0.972582 0.482348
0.505460 0.984551 0.500605
0.790123 0.995630 0.416511
0.937588 0.994818 0.102458
0.939620 0.923933 0.000000
0.000000 0.960946 0.476266
0.000489 0.961973 0.442188
0.000000 0.964065 0.400210
0.000000 0.964110 0.374785
0.000000 0.970451 0.367332
0.192474 0.978423 0.385061
0.608902 0.988769 0.370341
0.859375 0.999852 0.136039
0.927239 0.999877 0.000754
0.032875 0.007045 0.982558
0.030156 0.003926 0.885824
0.197726 0.000000 0.783519
0.530292 0.006973 0.714828
0.823955 0.013545 0.613207
0.999367 0.020063 0.325160
0.992934 0.023411 0.196302
0.992934 0.023411 0.196302
0.992934 0.023411 0.196302
0.015036 0.070509 0.942415
0.017613 0.049617 0.837645
0.052263 0.013990 0.741750
0.398520 0.006939 0.709398
0.700781 0.009908 0.655168
0.945377 0.016958 0.525585
0.992934 0.023411 0.196302
0.992934 0.023411 0.196302
0.992934 0.023411 0.196302
0.000252 0.226932 0.886762
0.001065 0.203369 0.808926
0.000000 0.178862 0.723945
0.331726 0.156781 0.704102
0.636765 0.103286 0.693476
0.887098 0.013732 0.652219
0.999751 0.019639 0.377743
0.992934 0.023411 0.196302
0.992934 0.023411 0.196302
0.000296 0.414331 0.846872
0.000528 0.385092 0.782657
0.000556 0.360173 0.731001
0.239484 0.340146 0.730004
0.594941 0.311498 0.733324
0.865580 0.250131 0.707828
1.000000 0.098677 0.561067
0.992934 0.023411 0.196302
0.992934 0.023411 0.196302
0.000523 0.617048 0.813284
0.000935 0.599098 0.776141
0.000000 0.582179 0.737265
0.000380 0.569511 0.732914
0.508126 0.553770 0.741493
0.819600 0.521461 0.733403
0.999743 0.440869 0.658769
1.000000 0.318877 0.427867
0.999700 0.117631 0.173116
0.000000 0.784453 0.785150
0.000000 0.776825 0.754839
0.000607 0.767187 0.725284
0.000809 0.761525 0.719649
0.356437 0.758183 0.737839
0.747070 0.747070 0.747070
0.980934 0.713898 0.698547
0.999615 0.612707 0.553824
0.999590 0.458434 0.303168
0.000000 0.908855 0.744488
0.000000 0.904543 0.722300
0.000108 0.902914 0.695898
0.000108 0.903586 0.692438
0.000000 0.905551 0.717110
0.626508 0.904804 0.730809
0.901799 0.891336 0.703461
0.990238 0.826837 0.606590
0.990557 0.725865 0.371831
0.000259 0.955251 0.691562
0.000000 0.956297 0.670574
0.000000 0.956672 0.653047
0.000000 0.958028 0.626868
0.000000 0.965327 0.649278
0.432511 0.978249 0.672984
0.776009 0.991558 0.662956
0.964893 0.986493 0.553421
0.962051 0.918887 0.343609
0.000000 0.957680 0.647855
0.000270 0.957027 0.622431
0.000078 0.957744 0.593543
0.000000 0.958460 0.564657
0.000078 0.964129 0.560663
0.000068 0.973780 0.570962
0.606325 0.985129 0.601433
0.853447 0.998368 0.527585
0.942069 0.999262 0.179179
0.036388 0.010272 0.999554
0.033459 0.006671 1.000000
0.035814 0.000000 0.978651
0.485875 0.003931 0.949778
0.817070 0.009594 0.891470
0.999892 0.017102 0.715954
0.992149 0.022727 0.219019
0.992934 0.023411 0.196302
0.992934 0.023411 0.196302
0.020504 0.068296 0.999434
0.025990 0.053839 0.999519
0.033257 0.023760 0.946887
0.346483 0.003434 0.923892
0.697026 0.009946 0.896112
0.949828 0.013052 0.825281
1.000000 0.020083 0.511039
0.992934 0.023411 0.196302
0.992934 0.023411 0.196302
0.001027 0.217776 0.974707
0.000643 0.207446 0.977500
0.000865 0.189539 0.914929
0.264236 0.168335 0.890153
0.625572 0.120531 0.908157
0.891358 0.014240 0.903992
1.000000 0.016771 0.708055
0.995853 0.019860 0.292590
0.992934 0.023411 0.196302
0.000000 0.398528 0.937832
0.000000 0.388535 0.938894
0.000909 0.371561 0.902726
0.023802 0.352401 0.889946
0.555800 0.323093 0.913343
0.860649 0.261240 0.920555
1.000000 0.116881 0.852469
0.999529 0.020406 0.528566
0.995461 0.019854 0.302218
0.001116 0.591900 0.898387
0.000533 0.588577 0.899895
0.000000 0.577614 0.890351
0.000000 0.565326 0.858845
0.430680 0.554596 0.897544
0.796496 0.527368 0.909207
1.000000 0.449150 0.887294
1.000000 0.327139 0.685278
0.999976 0.194463 0.487785
0.000000 0.747676 0.854540
0.000014 0.750999 0.853031
0.000000 0.747676 0.854540
0.000024 0.742356 0.837544
0.134915 0.746284 0.866136
0.702674 0.737162 0.897399
0.965269 0.705287 0.886773
0.999365 0.636377 0.766687
0.999472 0.534587 0.630926
0.000308 0.871711 0.821777
0.000893 0.874697 0.822001
0.000893 0.874697 0.822001
0.000308 0.874399 0.807934
0.000000 0.880048 0.832828
0.545757 0.884063 0.869504
0.874023 0.874023 0.874023
0.999783 0.827960 0.815634
0.999479 0.746474 0.704902
0.000441 0.950743 0.799965
0.000441 0.950743 0.799965
0.000000 0.951117 0.782438
0.000000 0.951828 0.763179
0.001025 0.958434 0.775962
0.241484 0.970652 0.810516
0.727697 0.986386 0.824868
0.981092 0.974426 0.787222
0.987221 0.909085 0.704985
0.000249 0.950787 0.774539
0.000000 0.951833 0.753550
0.000059 0.953520 0.735270
0.000000 0.954567 0.714282
0.000000 0.953267 0.695778
0.000000 0.965226 0.719387
0.537878 0.980437 0.745148
0.841487 0.994282 0.751312
0.968195 0.999656 0.614039
0.036569 0.026600 1.000000
0.038532 0.017222 1.000000
0.036005 0.000280 1.000000
0.341781 0.000000 0.999723
0.780104 0.007251 1.000000
1.000000 0.013651 0.998875
0.998926 0.016557 0.652767
0.999951 0.020025 0.340956
0.992934 0.023411 0.196302
0.026573 0.056826 0.999743
0.029905 0.046752 1.000000
0.033440 0.030005 0.999915
0.202187 0.000552 1.000000
0.652047 0.006125 0.999496
0.938463 0.010033 0.999134
0.999873 0.016911 0.836915
1.000000 0.019506 0.454020
0.999751 0.019639 0.377743
0.001448 0.179083 0.984370
0.000000 0.182127 0.981887
0.000664 0.183440 0.981134
0.000280 0.172774 0.985656
0.560639 0.132511 0.999648
0.871010 0.010878 1.000000
0.999853 0.013360 0.975180
1.000000 0.017203 0.645845
1.000000 0.020089 0.501410
0.001131 0.331809 0.952637
0.000536 0.340827 0.950598
0.000144 0.342836 0.949843
0.000144 0.342836 0.949843
0.446299 0.327079 1.000000
0.826218 0.270222 0.998871
1.000000 0.127977 1.000000
1.000000 0.016917 0.827285
0.999710 0.016233 0.635238
0.000000 0.514909 0.913278
0.000390 0.523228 0.911239
0.000190 0.530234 0.909953
0.000773 0.533221 0.910175
0.224813 0.538779 0.962120
0.736857 0.520230 0.999586
0.999683 0.444666 0.999157
1.000000 0.326472 0.893875
0.999928 0.199700 0.760770
0.000264 0.682631 0.870320
0.000456 0.687964 0.868059
0.000254 0.694971 0.866773
0.000446 0.700304 0.864512
0.000042 0.706587 0.901742
0.603560 0.711601 0.972016
0.924799 0.684015 0.999649
0.999940 0.620784 0.922567
1.000000 0.525284 0.814406
0.000548 0.815683 0.835520
0.000000 0.819366 0.835742
0.000000 0.824699 0.833481
0.000000 0.831706 0.832195
0.000729 0.833354 0.829711
0.383118 0.845968 0.918285
0.807559 0.843342 0.983610
0.999190 0.809755 0.953762
1.000000 0.752878 0.857902
0.000663 0.919057 0.808343
0.000000 0.925088 0.806083
0.000068 0.928747 0.802844
0.000000 0.932431 0.803066
0.000000 0.937428 0.802535
0.000000 0.948998 0.862930
0.626429 0.958149 0.936047
0.947266 0.947266 0.947266
1.000000 0.902826 0.890863
0.000441 0.950743 0.799965
0.000441 0.950743 0.799965
0.000441 0.950743 0.799965
0.000441 0.950743 0.799965
0.000441 0.950743 0.799965
0.000000 0.956392 0.824859
0.364839 0.971795 0.866574
0.799045 0.989352 0.888019
0.984385 0.999929 0.844293
0.036569 0.026600 1.000000
0.036569 0.026600 1.000000
0.036388 0.010272 0.999554
0.036005 0.000280 1.000000
0.653024 0.007102 1.000000
0.987339 0.009935 0.999937
0.999661 0.013404 0.949754
1.000000 0.016144 0.686090
0.999912 0.016956 0.596722
0.024027 0.063218 0.999210
0.025990 0.053839 0.999519
0.033630 0.035002 0.999383
0.036388 0.010272 0.999554
0.505808 0.004073 0.999566
0.893301 0.009713 0.999305
1.000000 0.013651 0.998875
0.999883 0.016670 0.778165
1.000000 0.017107 0.706324
0.000000 0.157784 0.987249
0.000492 0.154100 0.987028
0.000099 0.155775 0.988005
0.000000 0.151114 0.986804
0.374695 0.150683 0.999719
0.802393 0.006085 0.999426
1.000000 0.013651 0.998875
0.999470 0.013448 0.924329
0.999681 0.016955 0.811488
0.000394 0.275477 0.961940
0.001169 0.283460 0.961633
0.000384 0.287144 0.961855
0.001361 0.288457 0.961102
0.228520 0.305302 0.998140
0.715549 0.284703 1.000000
0.999544 0.143665 0.998906
1.000000 0.013651 0.998875
0.999863 0.013455 0.914700
0.000842 0.447854 0.929812
0.000449 0.449864 0.929059
0.000000 0.455895 0.926797
0.001416 0.463181 0.926488
0.000000 0.469540 0.932125
0.601974 0.498922 1.000000
0.924409 0.448021 0.999415
0.999599 0.311666 0.998902
1.000000 0.198025 0.974559
0.000000 0.634612 0.887214
0.000000 0.622273 0.890762
0.000111 0.627606 0.888500
0.000000 0.634612 0.887214
0.000101 0.640281 0.883223
0.435866 0.651383 0.959512
0.820027 0.659032 1.000000
0.999959 0.582326 1.000000
1.000000 0.503351 0.977738
0.000175 0.793349 0.840129
0.001162 0.782323 0.842921
0.000000 0.774701 0.844961
0.000000 0.770345 0.848199
0.000970 0.776990 0.845183
0.000760 0.784910 0.899188
0.707698 0.791263 0.974000
0.975550 0.779545 0.999987
0.998866 0.723373 0.988220
0.001246 0.922044 0.808567
0.001054 0.917047 0.809097
0.000000 0.913084 0.807900
0.000000 0.907415 0.811891
0.000000 0.905741 0.810914
0.000280 0.903687 0.837095
0.481800 0.904748 0.922171
0.874176 0.903844 0.985628
0.999906 0.879340 0.996199
0.000441 0.950743 0.799965
0.000441 0.950743 0.799965
0.000441 0.950743 0.799965
0.000441 0.950743 0.799965
0.000441 0.950743 0.799965
0.000441 0.950743 0.799965
0.000000 0.967299 0.879087
0.715950 0.983791 0.946136
1.000000 1.000000 1.000000
