lut/fujifilm/F-Log/F-Log_LUT_E_Ver.1.27/GFX100II/GFX100II_FLog_FGamut_to_ETERNA-BB_BT.709_33gird_V.1.00.cube
#title:FLog_FGamut_to_ETERNA-BB_BT.709
#FUJIFILM Corporation
#Gamma:F-Log to ETERNA BLEACH BYPASS
#Gamut:F-Gamut to ITU-R BT.709
#Version:1.00
LUT_3D_SIZE 9
0.000000 0.000000 0.000000
0.037924 0.004136 0.007727
0.166756 0.010221 0.023985
0.460391 0.016506 0.103805
0.629100 0.023640 0.155699
0.652557 0.026430 0.165464
0.652557 0.026430 0.165464
0.652557 0.026430 0.165464
0.652557 0.026430 0.165464
0.000363 0.031983 0.005686
0.016410 0.014294 0.003290
0.099505 0.006747 0.012660
0.307709 0.013337 0.057991
0.546799 0.019867 0.125425
0.652557 0.026430 0.165464
0.652557 0.026430 0.165464
0.652557 0.026430 0.165464
0.652557 0.026430 0.165464
0.000000 0.114986 0.017422
0.000113 0.095310 0.014355
0.091615 0.090256 0.014543
0.247830 0.082729 0.029070
0.470348 0.032612 0.106118
0.616003 0.022941 0.150816
0.652557 0.026430 0.165464
0.652557 0.026430 0.165464
0.652557 0.026430 0.165464
0.000148 0.277908 0.059172
0.000000 0.234625 0.045671
0.078802 0.208829 0.045809
0.221537 0.196995 0.023637
0.463768 0.186100 0.104023
0.642262 0.176639 0.181429
0.651581 0.026127 0.161028
0.652557 0.026430 0.165464
0.652557 0.026430 0.165464
0.000000 0.538092 0.159206
0.000154 0.489122 0.136609
0.000375 0.460461 0.129413
0.249069 0.447176 0.153758
0.504970 0.464739 0.171676
0.743266 0.480906 0.268663
0.786563 0.372925 0.274234
0.696032 0.165724 0.207970
0.651581 0.026127 0.161028
0.000102 0.757234 0.281019
0.000122 0.738604 0.256965
0.000523 0.727279 0.245691
0.302181 0.735138 0.270667
0.591106 0.770920 0.313754
0.821195 0.797753 0.317382
0.927758 0.777298 0.357370
0.866544 0.572027 0.341340
0.766850 0.335721 0.260511
0.000000 0.876727 0.404804
0.000000 0.865073 0.385633
0.000000 0.864109 0.365398
0.346815 0.881317 0.368906
0.609161 0.911423 0.373872
0.820484 0.935014 0.374879
0.927441 0.933385 0.308333
0.940385 0.879058 0.331394
0.923862 0.760717 0.358742
0.000751 0.887316 0.431875
0.000166 0.886009 0.423000
0.060962 0.892304 0.428156
0.339155 0.909711 0.439820
0.555362 0.938184 0.445710
0.772163 0.962010 0.431146
0.906078 0.974371 0.410308
0.947535 0.971509 0.367714
0.943467 0.938022 0.310953
0.000000 0.889656 0.439020
0.000000 0.887678 0.433607
0.037698 0.892156 0.429972
0.283632 0.904273 0.450684
0.442175 0.923382 0.450442
0.631601 0.948145 0.442882
0.820254 0.968284 0.418328
0.932667 0.977791 0.400063
0.945180 0.978863 0.387418
0.000583 0.000000 0.017527
0.035578 0.003858 0.006751
0.156005 0.009802 0.020079
0.432434 0.017481 0.095016
0.616003 0.022941 0.150816
0.652557 0.026430 0.165464
0.652557 0.026430 0.165464
0.652557 0.026430 0.165464
0.652557 0.026430 0.165464
0.003485 0.035205 0.032312
0.016602 0.016602 0.016602
0.095791 0.006830 0.013414
0.290505 0.014060 0.056570
0.532332 0.019529 0.122274
0.652557 0.026430 0.165464
0.652557 0.026430 0.165464
0.652557 0.026430 0.165464
0.652557 0.026430 0.165464
0.000475 0.118891 0.063303
0.000000 0.098613 0.041734
0.095128 0.095165 0.022886
0.241377 0.084205 0.029824
0.465839 0.049054 0.101817
0.612287 0.023358 0.149839
0.652557 0.026430 0.165464
0.652557 0.026430 0.165464
0.652557 0.026430 0.165464
0.000521 0.288814 0.113397
0.000000 0.244199 0.087563
0.079960 0.219076 0.084238
0.220350 0.206627 0.062820
0.459851 0.193188 0.103491
0.643622 0.186936 0.184804
0.651581 0.026127 0.161028
0.652557 0.026430 0.165464
0.652557 0.026430 0.165464
0.000000 0.549665 0.219601
0.000000 0.504049 0.189328
0.000000 0.478070 0.177918
0.254325 0.466997 0.192100
0.505737 0.478004 0.204159
0.743448 0.496898 0.271508
0.796510 0.399018 0.285114
0.699928 0.180961 0.213520
0.651581 0.026127 0.161028
0.000667 0.767423 0.364133
0.000686 0.749466 0.336618
0.000000 0.737868 0.314738
0.298840 0.747470 0.318726
0.591288 0.780191 0.351208
0.819625 0.805793 0.314367
0.931071 0.791229 0.354046
0.872977 0.593213 0.343875
0.776606 0.357490 0.268461
0.000357 0.879244 0.483035
0.000761 0.870272 0.459648
0.000000 0.868997 0.444605
0.336828 0.885088 0.444206
0.605627 0.914055 0.446687
0.819891 0.936301 0.412640
0.928024 0.936372 0.308555
0.942922 0.884669 0.330110
0.926590 0.770989 0.358656
0.000740 0.887893 0.488894
0.000000 0.889262 0.485433
0.006016 0.892446 0.485879
0.340705 0.912571 0.506692
0.550268 0.937861 0.512137
0.770390 0.962269 0.502984
0.902947 0.975087 0.423398
0.944405 0.973904 0.372153
0.943659 0.942683 0.312152
0.000000 0.889262 0.485433
0.000740 0.888901 0.483703
0.000000 0.892953 0.476028
0.272871 0.906447 0.493415
0.452917 0.925050 0.507907
0.630222 0.949418 0.499903
0.817314 0.967948 0.462035
0.933059 0.975780 0.400817
0.945180 0.978863 0.387418
0.006243 0.003082 0.070555
0.035568 0.003763 0.067230
0.141336 0.010086 0.048519
0.406631 0.014073 0.086004
0.603881 0.022883 0.148642
0.652557 0.026430 0.165464
0.652557 0.026430 0.165464
0.652557 0.026430 0.165464
0.652557 0.026430 0.165464
0.007381 0.038344 0.100161
0.007209 0.017070 0.064524
0.093436 0.007463 0.067726
0.271347 0.013164 0.051465
0.519627 0.016485 0.119875
0.645520 0.025930 0.160806
0.652557 0.026430 0.165464
0.652557 0.026430 0.165464
0.652557 0.026430 0.165464
0.010233 0.128225 0.135282
0.000000 0.108175 0.102883
0.103516 0.103516 0.103516
0.239012 0.093817 0.097894
0.455851 0.067950 0.099246
0.608573 0.023777 0.148863
0.652557 0.026430 0.165464
0.652557 0.026430 0.165464
0.652557 0.026430 0.165464
0.000000 0.309351 0.206809
0.000340 0.263077 0.160739
0.084240 0.233553 0.144102
0.227559 0.221008 0.141187
0.463154 0.209040 0.150265
0.644004 0.196258 0.187204
0.651581 0.026127 0.161028
0.652557 0.026430 0.165464
0.652557 0.026430 0.165464
0.000000 0.573145 0.338660
0.000679 0.531530 0.293789
0.000124 0.500599 0.257485
0.258986 0.490459 0.256094
0.527594 0.508379 0.290254
0.751250 0.516714 0.277503
0.811148 0.426678 0.292754
0.705194 0.195837 0.217340
0.651581 0.026127 0.161028
0.000000 0.782952 0.477332
0.000264 0.764632 0.448086
0.000082 0.753345 0.421014
0.296857 0.761364 0.415152
0.593804 0.793343 0.431082
0.826441 0.817816 0.414477
0.933799 0.801502 0.353960
0.883126 0.613644 0.349118
0.789100 0.377864 0.276411
0.000530 0.888419 0.580970
0.000348 0.876460 0.557359
0.000549 0.873150 0.539610
0.329771 0.888430 0.539743
0.602869 0.919292 0.546882
0.823585 0.939389 0.515542
0.929767 0.938851 0.402581
0.943697 0.893325 0.326340
0.929903 0.784920 0.355332
0.000000 0.891469 0.568856
0.000000 0.890803 0.562687
0.000136 0.895134 0.555988
0.314299 0.914724 0.573426
0.555724 0.941265 0.600218
0.767442 0.963181 0.600249
0.905082 0.975893 0.516450
0.947335 0.976498 0.376812
0.942289 0.943716 0.310423
0.000000 0.890474 0.554790
0.000000 0.890511 0.538991
0.000000 0.893835 0.537484
0.241189 0.906736 0.549321
0.456813 0.928525 0.574024
0.631774 0.950262 0.577155
0.815150 0.967864 0.545234
0.925821 0.976910 0.422559
0.945180 0.978863 0.387418
0.020096 0.006196 0.223777
0.020106 0.006963 0.159836
0.138780 0.010669 0.137887
0.386679 0.016431 0.143333
0.589415 0.022882 0.143759
0.652557 0.026430 0.165464
0.652557 0.026430 0.165464
0.652557 0.026430 0.165464
0.652557 0.026430 0.165464
0.035691 0.051446 0.266833
0.019895 0.022949 0.172309
0.093617 0.010349 0.138059
0.266635 0.017120 0.146246
0.505160 0.016484 0.114992
0.639458 0.026068 0.158852
0.652557 0.026430 0.165464
0.652557 0.026430 0.165464
0.652557 0.026430 0.165464
0.056523 0.148253 0.304797
0.034857 0.121532 0.225093
0.100174 0.110135 0.180991
0.236446 0.109092 0.171602
0.462074 0.092350 0.180012
0.603881 0.022883 0.148642
0.652557 0.026430 0.165464
0.652557 0.026430 0.165464
0.652557 0.026430 0.165464
0.038559 0.341547 0.376015
0.016127 0.292822 0.308821
0.096322 0.258435 0.258415
0.242188 0.242188 0.242188
0.477391 0.232566 0.248781
0.648102 0.205161 0.190579
0.671858 0.088642 0.179993
0.652557 0.026430 0.165464
0.652557 0.026430 0.165464
0.000783 0.602883 0.491487
0.000000 0.564648 0.442403
0.000268 0.535702 0.401884
0.279465 0.524124 0.388825
0.548857 0.542392 0.401996
0.780921 0.550196 0.395637
0.823049 0.455397 0.302125
0.710650 0.214702 0.225821
0.658013 0.045968 0.170484
0.000799 0.795709 0.603621
0.000426 0.780434 0.571892
0.000052 0.765158 0.540161
0.291352 0.774621 0.541220
0.599052 0.806683 0.562785
0.834819 0.829433 0.538282
0.936126 0.811673 0.423984
0.891320 0.632793 0.348945
0.798071 0.403318 0.284582
0.000903 0.891595 0.674996
0.000000 0.882984 0.653340
0.000000 0.875015 0.634392
0.296711 0.891674 0.644015
0.591705 0.921028 0.661453
0.823758 0.940498 0.655008
0.933653 0.941559 0.532640
0.942520 0.899019 0.325809
0.933216 0.798179 0.355468
0.000116 0.898640 0.657914
0.000510 0.898647 0.648285
0.000318 0.896003 0.636703
0.274795 0.913156 0.650851
0.541439 0.940452 0.684703
0.766446 0.964704 0.706391
0.906623 0.977649 0.648991
0.949470 0.977640 0.468133
0.941504 0.947736 0.308915
0.000318 0.896003 0.636703
0.000000 0.895705 0.622636
0.000520 0.894709 0.608572
0.199340 0.906903 0.615387
0.426500 0.926774 0.636852
0.642708 0.950542 0.666968
0.815524 0.969025 0.649645
0.928539 0.977676 0.531405
0.945180 0.978863 0.387418
0.065994 0.009750 0.487715
0.049976 0.010249 0.398656
0.144811 0.013941 0.302246
0.383920 0.020324 0.250449
0.587452 0.023522 0.188442
0.652557 0.026430 0.165464
0.652557 0.026430 0.165464
0.652557 0.026430 0.165464
0.652557 0.026430 0.165464
0.090389 0.058843 0.505035
0.059149 0.032393 0.389078
0.102779 0.010551 0.301442
0.271700 0.017158 0.261263
0.512369 0.023136 0.233160
0.635161 0.023836 0.155923
0.652557 0.026430 0.165464
0.652557 0.026430 0.165464
0.652557 0.026430 0.165464
0.108089 0.165104 0.511097
0.085638 0.143074 0.426425
0.109125 0.126660 0.355118
0.245990 0.123322 0.313157
0.473180 0.116591 0.291618
0.615399 0.029174 0.223102
0.652557 0.026430 0.165464
0.652557 0.026430 0.165464
0.652557 0.026430 0.165464
0.120810 0.376434 0.546028
0.099939 0.330664 0.485223
0.101741 0.292042 0.430947
0.257773 0.275579 0.406288
0.495514 0.272578 0.406406
0.671500 0.247709 0.355571
0.687644 0.143258 0.200019
0.652557 0.026430 0.165464
0.652557 0.026430 0.165464
0.061349 0.625645 0.626617
0.043197 0.596773 0.591597
0.017615 0.569411 0.551164
0.285276 0.559754 0.541343
0.577148 0.577148 0.577148
0.808042 0.579986 0.565153
0.854079 0.499176 0.423634
0.720407 0.236806 0.232039
0.672049 0.092630 0.184652
0.000387 0.802569 0.697871
0.000206 0.789939 0.677722
0.001001 0.778620 0.656822
0.256329 0.784555 0.659027
0.592568 0.816948 0.698258
0.837326 0.838456 0.699403
0.957600 0.818275 0.582089
0.915323 0.672806 0.422617
0.811732 0.429665 0.292975
0.000000 0.889515 0.739691
0.000510 0.883524 0.726158
0.000711 0.879541 0.711867
0.242741 0.889095 0.721751
0.564513 0.920480 0.761289
0.818262 0.941753 0.782890
0.938315 0.942839 0.710844
0.957341 0.902342 0.543949
0.935944 0.808788 0.353653
0.000000 0.903199 0.729223
0.000300 0.902870 0.721324
0.000691 0.902876 0.711696
0.189152 0.911969 0.718821
0.501935 0.939892 0.756938
0.759781 0.966034 0.802679
0.907771 0.981079 0.782511
0.960776 0.981768 0.648512
0.949498 0.950704 0.426859
0.000691 0.902876 0.711696
0.000000 0.903580 0.702067
0.000000 0.899597 0.687776
0.061498 0.904224 0.682328
0.373898 0.925851 0.702473
0.621385 0.950236 0.741602
0.816480 0.971828 0.761198
0.932617 0.980675 0.685161
0.949661 0.979276 0.484906
0.106435 0.013931 0.642804
0.091194 0.014013 0.596699
0.142818 0.014295 0.528372
0.392870 0.026767 0.476488
0.603631 0.043527 0.377078
0.651581 0.026127 0.161028
0.652557 0.026430 0.165464
0.652557 0.026430 0.165464
0.652557 0.026430 0.165464
0.121457 0.053937 0.637269
0.103103 0.035096 0.585391
0.097465 0.013012 0.508308
0.280851 0.019955 0.471282
0.528357 0.038482 0.420597
0.648028 0.040666 0.292509
0.652557 0.026430 0.165464
0.652557 0.026430 0.165464
0.652557 0.026430 0.165464
0.144424 0.178099 0.631579
0.123724 0.156627 0.590835
0.107716 0.138739 0.536474
0.258847 0.140727 0.506761
0.504602 0.142565 0.495211
0.639984 0.051000 0.406015
0.651581 0.026127 0.161028
0.652557 0.026430 0.165464
0.652557 0.026430 0.165464
0.165550 0.394273 0.645212
0.148575 0.358700 0.615915
0.134139 0.329411 0.581872
0.261823 0.311227 0.571899
0.525557 0.314950 0.589150
0.710141 0.289504 0.570129
0.719058 0.187284 0.370649
0.652557 0.026430 0.165464
0.652557 0.026430 0.165464
0.139926 0.632764 0.700821
0.126456 0.613430 0.681512
0.117092 0.592676 0.658742
0.266470 0.580328 0.656050
0.580623 0.603856 0.713204
0.818545 0.610798 0.747313
0.885874 0.542106 0.650306
0.793590 0.361904 0.398210
0.696032 0.165724 0.207970
0.001162 0.799462 0.754668
0.000000 0.791181 0.740909
0.000000 0.782203 0.727152
0.174793 0.781277 0.726996
0.564401 0.816768 0.790195
0.839844 0.839844 0.839844
0.969490 0.820013 0.790379
0.959430 0.722135 0.644011
0.869492 0.536500 0.422313
0.000000 0.882788 0.783929
0.000000 0.879808 0.774078
0.000510 0.875794 0.765957
0.041957 0.876869 0.763078
0.507814 0.911998 0.816613
0.799677 0.938036 0.867906
0.941225 0.941546 0.855500
0.978222 0.906870 0.757121
0.958768 0.829289 0.556578
0.048964 0.909347 0.783054
0.002826 0.909058 0.777059
0.000000 0.908811 0.769914
0.000000 0.908145 0.763746
0.434091 0.933672 0.804140
0.724777 0.964731 0.858363
0.903454 0.983026 0.878046
0.976189 0.985820 0.818508
0.962557 0.952702 0.665012
0.000000 0.908811 0.769914
0.000290 0.906807 0.761039
0.000000 0.905501 0.752165
0.000098 0.905843 0.740806
0.292172 0.919928 0.758860
0.578951 0.949098 0.798793
0.812554 0.974117 0.845376
0.935327 0.986724 0.826801
0.963504 0.985319 0.683035
0.118747 0.013608 0.672136
0.118747 0.013608 0.672136
0.101744 0.013708 0.639122
0.377982 0.029162 0.648833
0.627613 0.073940 0.620165
0.690604 0.066152 0.435091
0.651581 0.026127 0.161028
0.652557 0.026430 0.165464
0.652557 0.026430 0.165464
0.131836 0.025974 0.676933
0.118356 0.016963 0.664462
0.102137 0.013379 0.631223
0.261080 0.019820 0.626629
0.541799 0.057194 0.623079
0.679821 0.077881 0.548597
0.667970 0.041573 0.278355
0.652557 0.026430 0.165464
0.652557 0.026430 0.165464
0.162413 0.165291 0.676038
0.154209 0.160497 0.662281
0.138584 0.146888 0.636274
0.241814 0.145247 0.630962
0.516875 0.162697 0.659176
0.667290 0.087037 0.628560
0.689627 0.065847 0.430651
0.651581 0.026127 0.161028
0.652557 0.026430 0.165464
0.197625 0.373154 0.686964
0.184537 0.362469 0.673516
0.174781 0.342044 0.658644
0.232276 0.325093 0.655098
0.526303 0.335417 0.704524
0.739801 0.324235 0.741821
0.768047 0.234774 0.631534
0.671877 0.044136 0.289185
0.651581 0.026127 0.161028
0.188037 0.607303 0.731439
0.183738 0.604734 0.730238
0.172804 0.590004 0.714837
0.207616 0.577572 0.704676
0.545811 0.605534 0.778739
0.818324 0.619630 0.856606
0.914959 0.560166 0.832243
0.828325 0.402482 0.595020
0.732116 0.237676 0.359613
0.082707 0.773933 0.775040
0.083683 0.775246 0.774285
0.050059 0.773342 0.769488
0.035794 0.767342 0.760699
0.493828 0.802630 0.825372
0.812078 0.832036 0.901472
0.959112 0.815712 0.916839
0.968955 0.752640 0.821734
0.938377 0.641553 0.677269
0.006379 0.864945 0.797859
0.017131 0.866036 0.798304
0.000318 0.864412 0.799367
0.000318 0.865420 0.794177
0.399127 0.891079 0.832481
0.749632 0.924767 0.904726
0.934570 0.934570 0.934570
0.987776 0.910105 0.895301
0.987451 0.848593 0.801704
0.158830 0.914826 0.817903
0.149055 0.915048 0.816703
0.136934 0.914653 0.816257
0.110739 0.912921 0.808223
0.310535 0.924748 0.822937
0.657720 0.958190 0.888039
0.879201 0.983486 0.930715
0.985753 0.985117 0.916972
0.981685 0.952975 0.853288
0.132241 0.914096 0.814304
0.119538 0.912395 0.804984
0.090603 0.912057 0.796949
0.076529 0.910383 0.791090
0.059717 0.910102 0.785231
0.496056 0.941235 0.833968
0.782050 0.970728 0.891428
0.935115 0.988595 0.911953
0.981847 0.992302 0.855962
0.118747 0.013608 0.672136
0.118747 0.013608 0.672136
0.118747 0.013608 0.672136
0.293910 0.023297 0.702512
0.617224 0.083660 0.734427
0.728450 0.114224 0.696508
0.683385 0.059069 0.379134
0.651581 0.026127 0.161028
0.651581 0.026127 0.161028
0.124023 0.017153 0.674312
0.118747 0.013608 0.672136
0.118747 0.013608 0.672136
0.193819 0.014235 0.686168
0.524967 0.060756 0.717414
0.698540 0.106188 0.722106
0.708162 0.088581 0.547672
0.665636 0.035340 0.248047
0.651581 0.026127 0.161028
0.156574 0.135089 0.675544
0.158527 0.137715 0.674034
0.154813 0.138133 0.673058
0.179840 0.134901 0.675457
0.488123 0.164572 0.724933
0.671558 0.102762 0.741981
0.727673 0.110946 0.672590
0.682217 0.054104 0.373496
0.666994 0.041605 0.272188
0.187334 0.289727 0.680954
0.187324 0.301058 0.682598
0.187908 0.304716 0.679359
0.187908 0.304716 0.679359
0.469412 0.326308 0.737884
0.732160 0.329631 0.811177
0.800455 0.259131 0.789468
0.707579 0.086602 0.542258
0.681633 0.053469 0.361161
0.197891 0.517777 0.712558
0.195928 0.526819 0.713981
0.202179 0.531677 0.715403
0.198264 0.538092 0.718332
0.450432 0.571007 0.778363
0.784507 0.605671 0.888679
0.913973 0.555061 0.912512
0.861316 0.426129 0.772210
0.779163 0.277931 0.585754
0.148455 0.709154 0.756262
0.148254 0.715487 0.758438
0.141991 0.721961 0.758660
0.139445 0.728017 0.759859
0.356236 0.752419 0.802312
0.745431 0.803174 0.916499
0.941915 0.795357 0.963956
0.976576 0.738653 0.916601
0.945978 0.642162 0.816958
0.001133 0.828078 0.787290
0.000000 0.829112 0.785559
0.000931 0.834413 0.789465
0.000146 0.837761 0.791418
0.144814 0.845837 0.798715
0.656791 0.896188 0.901336
0.902909 0.916230 0.966423
0.987383 0.899680 0.958573
0.984884 0.857482 0.908288
0.074193 0.895074 0.807504
0.100388 0.897817 0.810347
0.096281 0.899572 0.812078
0.101950 0.901780 0.811548
0.112309 0.904545 0.812970
0.522836 0.939569 0.875105
0.832680 0.968163 0.951737
0.973633 0.973633 0.973633
0.989881 0.954313 0.944832
0.158830 0.914826 0.817903
0.158830 0.914826 0.817903
0.158830 0.914826 0.817903
0.158830 0.914826 0.817903
0.149055 0.915048 0.816703
0.327538 0.928009 0.838649
0.706979 0.963043 0.913738
0.917316 0.989259 0.955214
0.989651 0.995649 0.946749
0.118747 0.013608 0.672136
0.118747 0.013608 0.672136
0.118747 0.013608 0.672136
0.130869 0.012993 0.677773
0.539424 0.066375 0.753360
0.727645 0.124103 0.784813
0.722599 0.104428 0.650934
0.686506 0.061618 0.409218
0.676559 0.048632 0.330851
0.129299 0.020698 0.676488
0.118747 0.013608 0.672136
0.118747 0.013608 0.672136
0.118747 0.013608 0.672136
0.426055 0.040623 0.729289
0.689922 0.111951 0.783562
0.736061 0.122995 0.734183
0.698989 0.078536 0.494953
0.690020 0.065182 0.424485
0.153654 0.120156 0.674429
0.154439 0.116808 0.672476
0.154439 0.116808 0.672476
0.148772 0.114601 0.673009
0.363599 0.147710 0.718613
0.642816 0.099019 0.776675
0.746018 0.130363 0.781489
0.719086 0.101872 0.630476
0.704849 0.080363 0.521578
0.175070 0.226672 0.678008
0.176239 0.232982 0.676723
0.179560 0.234574 0.676946
0.180145 0.237224 0.678899
0.318723 0.276072 0.706481
0.664326 0.321490 0.808281
0.796338 0.262472 0.843027
0.734892 0.119037 0.723355
0.718503 0.100902 0.619871
0.197375 0.436480 0.695633
0.200697 0.438072 0.695855
0.200496 0.444743 0.696301
0.199902 0.452750 0.699453
0.254044 0.466521 0.709270
0.675456 0.562178 0.850406
0.883086 0.548401 0.925019
0.870499 0.417113 0.863086
0.814500 0.302193 0.762192
0.184475 0.656698 0.743430
0.179208 0.641822 0.739609
0.182138 0.645424 0.739078
0.184475 0.656698 0.743430
0.183296 0.662392 0.742899
0.616275 0.724487 0.863751
0.887591 0.764251 0.958219
0.976797 0.698229 0.969972
0.950086 0.622258 0.908673
0.003689 0.810692 0.784445
0.050815 0.802642 0.779390
0.061184 0.794413 0.777437
0.048479 0.791032 0.776770
0.051015 0.795972 0.778946
0.476593 0.833649 0.847919
0.840772 0.877984 0.949410
0.976449 0.877891 0.979512
0.989002 0.833640 0.960288
0.081230 0.895913 0.810434
0.066179 0.892253 0.808788
0.054450 0.890521 0.805637
0.056605 0.886475 0.803684
0.054260 0.885861 0.804437
0.269701 0.891995 0.824566
0.732025 0.934797 0.924961
0.942564 0.951653 0.979835
0.990666 0.943572 0.980949
0.158830 0.914826 0.817903
0.158830 0.914826 0.817903
0.158830 0.914826 0.817903
0.158830 0.914826 0.817903
0.158830 0.914826 0.817903
0.188741 0.917150 0.821723
0.626047 0.955213 0.900769
0.885059 0.983632 0.965993
1.000000 1.000000 1.000000
