lut/fujifilm/F-Log/F-Log_LUT_E_Ver.1.27/X100VI/X100VI_FLog_FGamut_to_ETERNA_BT.709_33grid_V.1.00.cube
#title:FLog_FGamut_to_ETERNA_BT.709
#FUJIFILM Corporation
#Gamma:F-Log to ETERNA
#Gamut:F-Gamut to ITU-R BT.709
#Version:1.00
LUT_3D_SIZE 5
0.006836 0.006836 0.006836
0.353857 0.010025 0.022543
0.999990 0.017046 0.116340
0.999990 0.017046 0.116340
0.999990 0.017046 0.116340
0.000600 0.217657 0.000000
0.166055 0.150938 0.003695
0.703195 0.043117 0.066657
0.999990 0.017046 0.116340
0.999990 0.017046 0.116340
0.000219 0.672006 0.000000
0.000000 0.561029 0.000313
0.561470 0.502745 0.000000
1.000000 0.394100 0.084926
0.999201 0.261423 0.102198
0.000357 0.973008 0.000234
0.000000 0.971696 0.000989
0.475274 0.940684 0.000417
0.929673 0.895823 0.000000
0.983568 0.738611 0.000000
0.298311 0.974322 0.000094
0.298311 0.974322 0.000094
0.429689 0.977375 0.000000
0.713367 0.982342 0.000944
0.925879 0.989243 0.000000
0.011105 0.006766 0.201590
0.323535 0.010194 0.135469
0.999013 0.016742 0.111902
0.999990 0.017046 0.116340
0.999990 0.017046 0.116340
0.000178 0.215348 0.201328
0.153320 0.153320 0.153320
0.671887 0.076830 0.060849
0.999990 0.017046 0.116340
0.999990 0.017046 0.116340
0.000190 0.671384 0.183157
0.000000 0.578795 0.148788
0.549711 0.521228 0.071856
0.999659 0.420117 0.080540
0.998800 0.275100 0.101360
0.000000 0.971696 0.000989
0.000000 0.970021 0.000012
0.442424 0.945754 0.000504
0.917351 0.902100 0.000000
0.983167 0.751953 0.000000
0.272489 0.972406 0.103392
0.277783 0.973117 0.000179
0.435166 0.974585 0.000000
0.693817 0.982448 0.000277
0.925879 0.989243 0.000000
0.029792 0.006557 0.701898
0.259147 0.010664 0.541786
0.961826 0.016510 0.364823
0.999990 0.017046 0.116340
0.999990 0.017046 0.116340
0.000000 0.204010 0.638844
0.000580 0.145548 0.491157
0.672029 0.065890 0.442321
0.999990 0.017046 0.116340
0.999990 0.017046 0.116340
0.000000 0.672011 0.634653
0.000000 0.598451 0.568298
0.541016 0.541016 0.541016
1.000000 0.445288 0.386453
0.999363 0.302094 0.097949
0.000259 0.970374 0.613692
0.000270 0.964085 0.586091
0.411640 0.941217 0.567188
0.913365 0.901128 0.459946
0.979833 0.762028 0.000000
0.099393 0.971592 0.544438
0.143778 0.973676 0.494391
0.401463 0.975279 0.461321
0.699809 0.983322 0.416940
0.925879 0.989243 0.000000
0.039147 0.006380 0.892438
0.039147 0.006380 0.892438
0.916385 0.017393 0.873511
0.999155 0.016893 0.436269
0.999760 0.016710 0.332835
0.038744 0.019720 0.893329
0.032482 0.029219 0.877976
0.618632 0.014113 0.848981
0.999511 0.016518 0.668562
0.999874 0.092527 0.447559
0.000322 0.609267 0.888141
0.000000 0.564945 0.885999
0.361304 0.522854 0.874586
1.000000 0.418555 0.849259
0.998785 0.424288 0.618164
0.000633 0.939608 0.882497
0.000000 0.919329 0.860926
0.000078 0.904645 0.866957
0.874023 0.874023 0.874023
1.000000 0.776060 0.748129
0.000000 0.967387 0.828234
0.000230 0.968408 0.803785
0.000230 0.972105 0.784751
0.658303 0.982685 0.777511
0.964481 0.995370 0.637290
0.039147 0.006380 0.892438
0.039147 0.006380 0.892438
0.561532 0.010234 0.950188
1.000000 0.016829 0.878136
1.000000 0.016639 0.784332
0.039147 0.006380 0.892438
0.039147 0.006380 0.892438
0.129078 0.007014 0.901723
1.000000 0.016639 0.999098
1.000000 0.017209 0.850981
0.000000 0.419605 0.889293
0.000909 0.373913 0.890613
0.000000 0.372601 0.891368
0.917451 0.356199 0.985059
0.999993 0.324107 0.925246
0.000126 0.845637 0.870847
0.000548 0.808289 0.873590
0.000000 0.785316 0.875492
0.674677 0.772372 0.952293
0.999267 0.712049 0.976945
0.000220 0.963944 0.886761
0.000220 0.963944 0.886761
0.000000 0.965619 0.887738
0.370689 0.977560 0.932914
1.000000 1.000000 1.000000
