lut/fujifilm/F-Log/F-Log_LUT_E_Ver.1.27/X100VI/X100VI_FLog_FGamut_to_ETERNA_BT.709_33grid_V.1.00.cube
#title:FLog_FGamut_to_ETERNA_BT.709
#FUJIFILM Corporation
#Gamma:F-Log to ETERNA
#Gamut:F-Gamut to ITU-R BT.709
#Version:1.00
LUT_3D_SIZE 33
0.006836 0.006836 0.006836
0.006836 0.006836 0.006836
0.016612 0.006951 0.006305
0.067834 0.006797 0.009817
0.116712 0.006698 0.010620
0.166565 0.007240 0.014132
0.221110 0.009685 0.012675
0.279369 0.010704 0.017387
0.353857 0.010025 0.022543
0.448873 0.010216 0.029344
0.552487 0.013862 0.047195
0.652194 0.013267 0.062871
0.744472 0.013844 0.074864
0.834402 0.013806 0.087608
0.921204 0.016837 0.101331
0.999013 0.016742 0.111902
0.999990 0.017046 0.116340
0.999990 0.017046 0.116340
0.999990 0.017046 0.116340
0.999990 0.017046 0.116340
0.999990 0.017046 0.116340
0.999990 0.017046 0.116340
0.999990 0.017046 0.116340
0.999990 0.017046 0.116340
0.999990 0.017046 0.116340
0.999990 0.017046 0.116340
0.999990 0.017046 0.116340
0.999990 0.017046 0.116340
0.999990 0.017046 0.116340
0.999990 0.017046 0.116340
0.999990 0.017046 0.116340
0.999990 0.017046 0.116340
0.999990 0.017046 0.116340
0.006836 0.006836 0.006836
0.006836 0.006836 0.006836
0.006836 0.006836 0.006836
0.045937 0.006960 0.006442
0.099505 0.007084 0.010929
0.148384 0.006649 0.013465
0.197260 0.006887 0.012539
0.257473 0.010195 0.017473
0.324532 0.010353 0.020675
0.403712 0.010567 0.026054
0.493643 0.010529 0.038800
0.586504 0.013757 0.052747
0.680151 0.013301 0.066468
0.771059 0.014240 0.080191
0.858646 0.013923 0.091961
0.939385 0.016755 0.105461
0.999013 0.016406 0.113632
0.999990 0.017046 0.116340
0.999990 0.017046 0.116340
0.999990 0.017046 0.116340
0.999990 0.017046 0.116340
0.999990 0.017046 0.116340
0.999990 0.017046 0.116340
0.999990 0.017046 0.116340
0.999990 0.017046 0.116340
0.999990 0.017046 0.116340
0.999990 0.017046 0.116340
0.999990 0.017046 0.116340
0.999990 0.017046 0.116340
0.999990 0.017046 0.116340
0.999990 0.017046 0.116340
0.999990 0.017046 0.116340
0.999990 0.017046 0.116340
0.006836 0.006836 0.006836
0.006836 0.006836 0.006836
0.006836 0.006836 0.006836
0.026387 0.006729 0.007503
0.081324 0.006493 0.010262
0.132547 0.007010 0.010313
0.177709 0.006658 0.013601
0.231862 0.010104 0.016581
0.286798 0.009868 0.019340
0.353857 0.010025 0.022543
0.437728 0.010126 0.033336
0.525315 0.010481 0.041645
0.619546 0.013011 0.055590
0.711823 0.013588 0.067583
0.798039 0.013296 0.082813
0.884839 0.016664 0.094804
0.964997 0.016511 0.108082
0.999990 0.017046 0.116340
0.999990 0.017046 0.116340
0.999990 0.017046 0.116340
0.999990 0.017046 0.116340
0.999990 0.017046 0.116340
0.999990 0.017046 0.116340
0.999990 0.017046 0.116340
0.999990 0.017046 0.116340
0.999990 0.017046 0.116340
0.999990 0.017046 0.116340
0.999990 0.017046 0.116340
0.999990 0.017046 0.116340
0.999990 0.017046 0.116340
0.999990 0.017046 0.116340
0.999990 0.017046 0.116340
0.999990 0.017046 0.116340
0.003886 0.026569 0.007196
0.003303 0.023582 0.006972
0.002920 0.013925 0.006305
0.010551 0.006755 0.006082
0.064119 0.006878 0.010569
0.109281 0.007199 0.010399
0.155813 0.006149 0.013688
0.204689 0.006387 0.012762
0.257473 0.010195 0.017473
0.318471 0.010156 0.020453
0.391590 0.010174 0.025609
0.476830 0.009913 0.034673
0.563631 0.013280 0.046664
0.655909 0.013522 0.060387
0.744472 0.013844 0.074864
0.828342 0.013610 0.087387
0.911428 0.017394 0.098401
0.987869 0.017324 0.112433
0.999990 0.017046 0.116340
0.999990 0.017046 0.116340
0.999990 0.017046 0.116340
0.999990 0.017046 0.116340
0.999990 0.017046 0.116340
0.999990 0.017046 0.116340
0.999990 0.017046 0.116340
0.999990 0.017046 0.116340
0.999990 0.017046 0.116340
0.999990 0.017046 0.116340
0.999990 0.017046 0.116340
0.999990 0.017046 0.116340
0.999990 0.017046 0.116340
0.999990 0.017046 0.116340
0.999990 0.017046 0.116340
0.000918 0.070307 0.003922
0.000000 0.066345 0.002723
0.000152 0.050993 0.002586
0.000000 0.040328 0.007109
0.037511 0.029482 0.006801
0.093829 0.016880 0.009644
0.136847 0.009914 0.009782
0.180055 0.007272 0.012848
0.231862 0.010104 0.016581
0.285430 0.010229 0.021070
0.350142 0.010107 0.023297
0.429322 0.009649 0.032137
0.513193 0.010088 0.041200
0.603709 0.013036 0.054167
0.692271 0.013695 0.066913
0.777511 0.013098 0.077706
0.860599 0.016548 0.090453
0.939385 0.017092 0.103730
0.999013 0.016406 0.113632
0.999990 0.017046 0.116340
0.999990 0.017046 0.116340
0.999990 0.017046 0.116340
0.999990 0.017046 0.116340
0.999990 0.017046 0.116340
0.999990 0.017046 0.116340
0.999990 0.017046 0.116340
0.999990 0.017046 0.116340
0.999990 0.017046 0.116340
0.999990 0.017046 0.116340
0.999990 0.017046 0.116340
0.999990 0.017046 0.116340
0.999990 0.017046 0.116340
0.999990 0.017046 0.116340
0.000104 0.109665 0.000425
0.000000 0.102018 0.000000
0.000000 0.087669 0.003304
0.000000 0.080999 0.002859
0.009908 0.074106 0.003613
0.073654 0.061005 0.006680
0.124887 0.049182 0.010277
0.167320 0.038559 0.013652
0.213278 0.023528 0.013345
0.264902 0.010031 0.015965
0.318471 0.010156 0.020453
0.391590 0.010174 0.025609
0.471746 0.010692 0.035425
0.556986 0.009760 0.047949
0.643786 0.013127 0.059941
0.730005 0.013507 0.071711
0.812506 0.013969 0.084235
0.893247 0.017139 0.096005
0.967341 0.016790 0.109058
0.999990 0.017046 0.116340
0.999990 0.017046 0.116340
0.999990 0.017046 0.116340
0.999990 0.017046 0.116340
0.999990 0.017046 0.116340
0.999990 0.017046 0.116340
0.999990 0.017046 0.116340
0.999990 0.017046 0.116340
0.999990 0.017046 0.116340
0.999990 0.017046 0.116340
0.999990 0.017046 0.116340
0.999990 0.017046 0.116340
0.999990 0.017046 0.116340
0.999990 0.017046 0.116340
0.000659 0.147653 0.000391
0.000276 0.137997 0.000000
0.000000 0.128003 0.000785
0.000000 0.118347 0.000116
0.000496 0.107992 0.000000
0.049575 0.100551 0.003270
0.105106 0.091634 0.006336
0.154184 0.084192 0.010157
0.196617 0.074241 0.010071
0.246873 0.061105 0.014421
0.298105 0.048947 0.019749
0.362446 0.027165 0.023124
0.437728 0.010126 0.033336
0.516909 0.010005 0.040444
0.603709 0.013036 0.054167
0.689926 0.013416 0.065937
0.771059 0.014240 0.080191
0.850823 0.016769 0.089254
0.927263 0.017034 0.101555
0.999013 0.016742 0.111902
0.999990 0.017046 0.116340
0.999990 0.017046 0.116340
0.999990 0.017046 0.116340
0.999990 0.017046 0.116340
0.999990 0.017046 0.116340
0.999990 0.017046 0.116340
0.999990 0.017046 0.116340
0.999990 0.017046 0.116340
0.999990 0.017046 0.116340
0.999990 0.017046 0.116340
0.999990 0.017046 0.116340
0.999990 0.017046 0.116340
0.999990 0.017046 0.116340
0.000629 0.182656 0.000133
0.000000 0.171686 0.000218
0.000256 0.161332 0.000000
0.000000 0.153348 0.000000
0.000467 0.142656 0.000922
0.010051 0.137775 0.000922
0.086503 0.129062 0.000000
0.132842 0.122345 0.006747
0.182705 0.111892 0.006883
0.227092 0.103557 0.010480
0.279886 0.096034 0.013547
0.341477 0.086640 0.020296
0.412652 0.072366 0.027047
0.489305 0.054294 0.038988
0.570860 0.019786 0.045602
0.652194 0.013603 0.061141
0.734696 0.014065 0.073664
0.812506 0.013969 0.084235
0.888556 0.016581 0.094052
0.963627 0.017208 0.108082
0.999990 0.017046 0.116340
0.999990 0.017046 0.116340
0.999990 0.017046 0.116340
0.999990 0.017046 0.116340
0.999990 0.017046 0.116340
0.999990 0.017046 0.116340
0.999990 0.017046 0.116340
0.999990 0.017046 0.116340
0.999990 0.017046 0.116340
0.999990 0.017046 0.116340
0.999990 0.017046 0.116340
0.999990 0.017046 0.116340
0.999990 0.017046 0.116340
0.000600 0.217657 0.000000
0.000000 0.206687 0.000000
0.000000 0.197030 0.000000
0.000000 0.188350 0.000000
0.000437 0.177659 0.000663
0.000000 0.170011 0.000000
0.058515 0.163022 0.000800
0.118739 0.155670 0.000629
0.166055 0.150938 0.003695
0.215133 0.143497 0.007516
0.264996 0.133380 0.005921
0.322088 0.127754 0.013648
0.387394 0.118279 0.019644
0.462477 0.108246 0.028571
0.541274 0.097124 0.041934
0.623010 0.078272 0.053121
0.703195 0.043117 0.066657
0.778488 0.013739 0.080414
0.855514 0.017327 0.091207
0.927263 0.016698 0.103284
0.997645 0.017103 0.113632
0.999990 0.017046 0.116340
0.999990 0.017046 0.116340
0.999990 0.017046 0.116340
0.999990 0.017046 0.116340
0.999990 0.017046 0.116340
0.999990 0.017046 0.116340
0.999990 0.017046 0.116340
0.999990 0.017046 0.116340
0.999990 0.017046 0.116340
0.999990 0.017046 0.116340
0.999990 0.017046 0.116340
0.999990 0.017046 0.116340
0.000370 0.259329 0.000062
0.000000 0.246349 0.000902
0.000000 0.235018 0.000000
0.000399 0.224328 0.000320
0.000000 0.216344 0.000629
0.000217 0.207663 0.000938
0.016647 0.199630 0.000000
0.092705 0.192256 0.000456
0.150582 0.184625 0.000000
0.200637 0.178833 0.000645
0.251667 0.174018 0.002956
0.304069 0.168169 0.007000
0.368006 0.160064 0.009534
0.439564 0.154102 0.023875
0.517970 0.145662 0.033023
0.595397 0.135572 0.044656
0.675955 0.121405 0.060504
0.753000 0.101660 0.071469
0.828101 0.067957 0.082296
0.899306 0.017001 0.097958
0.969688 0.017069 0.110035
0.999990 0.017046 0.116340
0.999990 0.017046 0.116340
0.999990 0.017046 0.116340
0.999990 0.017046 0.116340
0.999990 0.017046 0.116340
0.999990 0.017046 0.116340
0.999990 0.017046 0.116340
0.999990 0.017046 0.116340
0.999990 0.017046 0.116340
0.999990 0.017046 0.116340
0.999990 0.017046 0.116340
0.999990 0.017046 0.116340
0.000000 0.307672 0.000694
0.000000 0.290031 0.000336
0.000000 0.279678 0.000000
0.000168 0.266000 0.000507
0.000000 0.256343 0.000000
0.000000 0.246349 0.000902
0.000000 0.238004 0.000000
0.063934 0.230235 0.000285
0.132562 0.223696 0.000000
0.185749 0.214836 0.000000
0.234434 0.210077 0.000000
0.288204 0.204203 0.000129
0.350963 0.200112 0.010786
0.420960 0.192203 0.013542
0.495259 0.185855 0.022692
0.572877 0.180090 0.037254
0.651281 0.170641 0.051594
0.729102 0.159214 0.060519
0.805362 0.141808 0.078629
0.882215 0.117064 0.090125
0.953027 0.068118 0.105032
0.999013 0.016406 0.113632
0.999990 0.017046 0.116340
0.999990 0.017046 0.116340
0.999990 0.017046 0.116340
0.999990 0.017046 0.116340
0.999990 0.017046 0.116340
0.999990 0.017046 0.116340
0.999990 0.017046 0.116340
0.999990 0.017046 0.116340
0.999990 0.017046 0.116340
0.999990 0.017046 0.116340
0.999990 0.017046 0.116340
0.000090 0.359338 0.000000
0.000000 0.344683 0.000000
0.000311 0.329332 0.000000
0.000000 0.316353 0.000387
0.000000 0.303011 0.000000
0.000000 0.290031 0.000336
0.000350 0.282664 0.000000
0.017172 0.272285 0.000645
0.106721 0.264942 0.000609
0.165967 0.256614 0.000000
0.218367 0.251438 0.000044
0.276245 0.243471 0.000625
0.337050 0.239107 0.000676
0.403919 0.233931 0.006141
0.476846 0.228616 0.013558
0.552119 0.222908 0.025414
0.632085 0.217423 0.040953
0.711857 0.206941 0.057024
0.785963 0.194924 0.070165
0.861831 0.180199 0.084059
0.934577 0.157549 0.095556
0.999319 0.120072 0.110153
0.999367 0.061064 0.114043
0.999990 0.017046 0.116340
0.999990 0.017046 0.116340
0.999990 0.017046 0.116340
0.999990 0.017046 0.116340
0.999990 0.017046 0.116340
0.999990 0.017046 0.116340
0.999990 0.017046 0.116340
0.999990 0.017046 0.116340
0.999990 0.017046 0.116340
0.999990 0.017046 0.116340
0.000000 0.419348 0.000367
0.000000 0.401010 0.000007
0.000000 0.386356 0.000000
0.000000 0.369692 0.000489
0.000000 0.356350 0.000000
0.000000 0.344683 0.000000
0.000000 0.333017 0.000000
0.000511 0.322326 0.000832
0.051352 0.313186 0.000215
0.139924 0.304866 0.000000
0.201515 0.296819 0.000000
0.261739 0.289131 0.000591
0.322938 0.283092 0.000000
0.388828 0.277948 0.000000
0.463126 0.272608 0.002918
0.537029 0.267262 0.016505
0.618364 0.261415 0.030313
0.695983 0.255314 0.046605
0.770672 0.245612 0.063429
0.847123 0.234210 0.075817
0.918300 0.218591 0.089489
0.987330 0.196023 0.101738
0.999089 0.161408 0.112070
0.999107 0.138074 0.112242
0.999127 0.114739 0.112413
0.998946 0.098076 0.113032
0.998572 0.076415 0.114179
1.000000 0.057044 0.115550
1.000000 0.038371 0.116922
0.999982 0.028713 0.116255
1.000000 0.026703 0.117007
0.999990 0.017046 0.116340
0.999990 0.017046 0.116340
0.000000 0.482680 0.000000
0.000000 0.466017 0.000024
0.000000 0.447678 0.000000
0.000000 0.431015 0.000282
0.000434 0.415664 0.000145
0.000000 0.401010 0.000007
0.000000 0.389343 0.000095
0.000000 0.377675 0.000180
0.000000 0.366008 0.000265
0.095498 0.358863 0.000453
0.177034 0.349034 0.000000
0.242341 0.340903 0.000000
0.306862 0.336121 0.000075
0.378229 0.328186 0.000000
0.449787 0.324913 0.000000
0.524476 0.318572 0.000000
0.601704 0.314145 0.016656
0.678346 0.307067 0.031973
0.756357 0.299630 0.045558
0.830072 0.288614 0.063136
0.900461 0.276343 0.078761
0.970661 0.259411 0.093187
1.000000 0.234068 0.103879
1.000000 0.209726 0.109241
0.999652 0.188066 0.110391
0.998887 0.168415 0.110785
1.000000 0.151055 0.111403
0.999501 0.136400 0.111266
0.999511 0.124397 0.113083
0.999319 0.119400 0.113614
0.999127 0.114739 0.112413
0.999912 0.110720 0.113921
0.999329 0.107733 0.113699
0.000000 0.547350 0.001152
0.000000 0.529013 0.000793
0.000000 0.510675 0.000434
0.000000 0.496022 0.000296
0.000000 0.479694 0.000000
0.000000 0.466017 0.000024
0.000000 0.451362 0.000000
0.000414 0.438999 0.000000
0.000000 0.428029 0.000058
0.000041 0.417674 0.000000
0.134752 0.410315 0.000914
0.219609 0.402078 0.000656
0.290584 0.395819 0.000929
0.362928 0.388861 0.001203
0.436641 0.381542 0.000000
0.510937 0.376875 0.000241
0.587973 0.371148 0.000000
0.664616 0.364408 0.012593
0.742235 0.357634 0.032348
0.814186 0.349327 0.049172
0.885161 0.340042 0.065020
0.953991 0.323472 0.081176
0.999363 0.302430 0.096219
1.000000 0.274739 0.099629
1.000000 0.250396 0.104992
0.999422 0.229738 0.110578
1.000000 0.209726 0.109241
0.999059 0.196746 0.110082
0.998877 0.180418 0.108969
1.000000 0.173716 0.114692
0.998494 0.170089 0.111762
0.999672 0.164395 0.112293
0.999089 0.161408 0.112070
0.000076 0.608674 0.000945
0.000000 0.592345 0.000000
0.000000 0.575682 0.000449
0.000000 0.559354 0.000000
0.000327 0.543667 0.000929
0.000000 0.529349 0.000000
0.000155 0.515671 0.000000
0.000000 0.503028 0.000000
0.000000 0.493035 0.000075
0.000769 0.483657 0.000384
0.053953 0.475132 0.000000
0.181235 0.468275 0.000313
0.264722 0.460734 0.000054
0.344497 0.453277 0.000551
0.422901 0.446853 0.000000
0.498566 0.441487 0.000000
0.575994 0.433751 0.000000
0.652637 0.429363 0.000805
0.725957 0.423045 0.003785
0.798886 0.415042 0.025047
0.868883 0.404109 0.043379
0.937905 0.391191 0.065925
0.998721 0.372807 0.078175
1.000000 0.345750 0.093922
0.999544 0.318421 0.099063
0.999958 0.292741 0.101718
0.998608 0.270103 0.101891
0.999211 0.249755 0.102285
1.000000 0.232059 0.104634
1.000000 0.221729 0.107425
1.000000 0.220056 0.106449
0.998848 0.215756 0.106981
1.000000 0.209726 0.109241
0.000219 0.672006 0.000000
0.000000 0.656040 0.000602
0.000000 0.638678 0.001218
0.000651 0.623327 0.001082
0.000076 0.608674 0.000945
0.000000 0.592345 0.000000
0.000000 0.582353 0.000894
0.000498 0.571998 0.000227
0.000000 0.561029 0.000313
0.000709 0.553660 0.000000
0.000327 0.543667 0.000929
0.129369 0.534774 0.000000
0.233385 0.528440 0.000000
0.326648 0.520679 0.000121
0.406422 0.513558 0.000000
0.484434 0.508471 0.000359
0.561470 0.502745 0.000000
0.637136 0.497379 0.000000
0.711825 0.491038 0.000000
0.782800 0.484778 0.000000
0.849667 0.477250 0.016992
0.914973 0.464414 0.040293
0.979696 0.448928 0.061641
0.999457 0.427459 0.077524
1.000000 0.394100 0.084926
0.998923 0.363448 0.091574
0.999335 0.337432 0.095961
0.998770 0.310775 0.097642
0.998790 0.286768 0.101273
0.999585 0.270745 0.104598
0.998999 0.267757 0.104375
0.999785 0.264410 0.102422
0.999201 0.261423 0.102198
0.000562 0.728332 0.000308
0.000000 0.715353 0.001149
0.000000 0.699024 0.000035
0.000209 0.683673 0.000000
0.000000 0.671030 0.000000
0.000000 0.661036 0.000070
0.000000 0.649369 0.000155
0.000000 0.639014 0.000000
0.000449 0.630334 0.000000
0.000066 0.620341 0.000860
0.000661 0.611660 0.001169
0.025497 0.604104 0.000636
0.200678 0.596506 0.000035
0.297657 0.588663 0.000223
0.388182 0.582634 0.000000
0.467955 0.575176 0.000000
0.545968 0.570426 0.000000
0.619288 0.564782 0.000000
0.693976 0.558104 0.000441
0.764951 0.552180 0.000000
0.829865 0.545723 0.000000
0.897125 0.535513 0.020829
0.958717 0.523096 0.043152
0.999199 0.506149 0.067071
0.999810 0.473799 0.069281
0.999055 0.440800 0.078413
1.000000 0.410764 0.084309
0.999104 0.380784 0.087496
1.000000 0.351083 0.091660
0.998951 0.327438 0.097023
1.000000 0.321744 0.097553
0.999938 0.317084 0.096356
0.999355 0.314097 0.096134
0.000000 0.780695 0.000000
0.000000 0.767017 0.000274
0.000000 0.757361 0.000000
0.000000 0.745693 0.000000
0.000362 0.735003 0.000754
0.000000 0.724369 0.000000
0.000000 0.715353 0.001149
0.000000 0.704021 0.000000
0.000199 0.695341 0.000000
0.000000 0.685683 0.000000
0.000000 0.677700 0.000000
0.000000 0.670694 0.000738
0.161326 0.661390 0.000444
0.276487 0.654474 0.000000
0.370726 0.648026 0.000000
0.455191 0.641463 0.000475
0.530858 0.636098 0.000973
0.605548 0.629755 0.000492
0.677498 0.624809 0.000012
0.745734 0.619944 0.000285
0.813780 0.610419 0.000000
0.874978 0.604044 0.000165
0.935594 0.591658 0.016320
0.994840 0.578290 0.041130
0.999943 0.551151 0.056121
1.000000 0.519801 0.062770
0.999017 0.489149 0.069419
0.998652 0.455486 0.072383
0.999850 0.424777 0.081738
0.999095 0.392787 0.085681
0.999496 0.379110 0.086519
0.998913 0.375787 0.088028
1.000000 0.370093 0.088559
0.000000 0.827364 0.000000
0.000000 0.818683 0.000000
0.000000 0.808689 0.000461
0.000112 0.800010 0.000771
0.000705 0.791329 0.001078
0.000000 0.782368 0.000410
0.000000 0.772014 0.000000
0.000533 0.763334 0.000050
0.000000 0.755350 0.000359
0.000352 0.746670 0.000669
0.000000 0.739023 0.000000
0.000000 0.732017 0.000531
0.128821 0.722787 0.000856
0.255709 0.718275 0.000000
0.356403 0.710014 0.000836
0.439499 0.704484 0.000000
0.517903 0.697723 0.000321
0.592592 0.691382 0.000000
0.660829 0.686517 0.000114
0.729458 0.679979 0.000000
0.793003 0.674219 0.000000
0.855571 0.667146 0.000266
0.918924 0.656727 0.000000
0.973087 0.645146 0.019488
0.999886 0.623842 0.041762
0.998344 0.595536 0.045926
0.998565 0.564187 0.052573
0.998785 0.532502 0.060953
0.999792 0.497805 0.065649
0.998452 0.461820 0.074558
0.999247 0.446133 0.076153
0.999840 0.437452 0.076460
0.999648 0.431783 0.080453
0.000000 0.875707 0.000000
0.000000 0.867026 0.000032
0.000000 0.859043 0.000339
0.000000 0.848688 0.000000
0.000000 0.841682 0.000958
0.000000 0.832024 0.000288
0.000000 0.825354 0.000000
0.000000 0.815697 0.000000
0.000000 0.808689 0.000461
0.000000 0.802020 0.000016
0.000313 0.793338 0.000324
0.000000 0.787365 0.000000
0.108244 0.779916 0.000512
0.242563 0.774568 0.001282
0.343256 0.766978 0.000000
0.428698 0.761728 0.000000
0.507102 0.754969 0.000000
0.579053 0.750021 0.000000
0.644944 0.744541 0.000000
0.714941 0.737304 0.000000
0.777117 0.732242 0.000000
0.836948 0.726566 0.000145
0.898540 0.718517 0.000000
0.953486 0.707285 0.000000
0.992991 0.689363 0.022297
0.999464 0.664214 0.023445
0.998899 0.635541 0.035508
0.999119 0.603520 0.045617
0.998756 0.569520 0.050313
0.998785 0.532502 0.060953
0.998412 0.509834 0.067293
0.998614 0.503163 0.066848
0.998815 0.496156 0.068133
0.000000 0.918356 0.000887
0.000216 0.909675 0.001196
0.000000 0.903701 0.000750
0.000000 0.895021 0.001060
0.000000 0.887374 0.000000
0.000436 0.879670 0.000922
0.000000 0.872023 0.000000
0.000000 0.865017 0.000785
0.000063 0.858345 0.000339
0.000000 0.850361 0.000648
0.000000 0.843692 0.000203
0.000000 0.837021 0.000000
0.096276 0.830853 0.000922
0.239000 0.826317 0.001160
0.338324 0.819424 0.000000
0.422790 0.812861 0.000000
0.500800 0.807775 0.001053
0.568061 0.801933 0.000352
0.634927 0.797766 0.000624
0.697104 0.792703 0.000675
0.761042 0.785271 0.000000
0.822241 0.778896 0.000555
0.880118 0.771265 0.000000
0.934280 0.763381 0.000743
0.982190 0.750976 0.000000
0.988270 0.727166 0.002781
0.993373 0.700700 0.014313
0.996916 0.671278 0.019454
0.998506 0.636880 0.038214
0.999513 0.602182 0.042910
0.998948 0.574181 0.051512
1.000000 0.568150 0.053774
1.000000 0.561480 0.053329
0.000175 0.956343 0.000852
0.000000 0.946686 0.000183
0.000000 0.941689 0.000715
0.000000 0.935019 0.000270
0.000004 0.928349 0.000000
0.000000 0.922376 0.000000
0.000000 0.915368 0.000664
0.000216 0.909675 0.001196
0.000000 0.903701 0.000750
0.000000 0.897031 0.000305
0.000000 0.892370 0.000000
0.000000 0.883690 0.000000
0.113050 0.879145 0.000000
0.245022 0.873182 0.001040
0.336916 0.866454 0.000250
0.417273 0.861983 0.000968
0.489618 0.855362 0.000000
0.559223 0.849800 0.000000
0.621399 0.844739 0.000000
0.684550 0.840653 0.000863
0.744382 0.835312 0.000000
0.800496 0.830053 0.000000
0.860719 0.822701 0.000000
0.915275 0.813143 0.000000
0.967483 0.803306 0.000000
0.976492 0.783771 0.000000
0.980620 0.758343 0.000000
0.986115 0.732220 0.000000
0.993373 0.700700 0.014313
0.997309 0.668260 0.025398
0.998899 0.635877 0.033777
0.998708 0.631217 0.032579
0.999886 0.625186 0.034841
0.000000 0.971696 0.000989
0.000000 0.970021 0.000012
0.000000 0.971696 0.000989
0.000000 0.970021 0.000012
0.000000 0.964048 0.000000
0.000000 0.960028 0.001074
0.000000 0.953357 0.000628
0.000000 0.946686 0.000183
0.000579 0.943002 0.000000
0.000000 0.936693 0.001247
0.000000 0.932033 0.000046
0.000397 0.926338 0.000577
0.143121 0.921802 0.000815
0.250459 0.917397 0.000000
0.339616 0.911728 0.000000
0.411567 0.906780 0.000000
0.483910 0.899825 0.000000
0.548432 0.895377 0.000000
0.610607 0.890315 0.000000
0.669069 0.885336 0.000000
0.729876 0.880971 0.000000
0.787360 0.875014 0.000000
0.844844 0.869058 0.000000
0.899006 0.861510 0.000000
0.951216 0.851337 0.000277
0.961785 0.836100 0.000000
0.968843 0.814276 0.000000
0.972969 0.788849 0.000000
0.980620 0.758343 0.000000
0.986508 0.729538 0.003758
0.991813 0.697409 0.009652
0.995730 0.687632 0.024028
0.995538 0.682299 0.026290
0.000357 0.973008 0.000234
0.000000 0.971696 0.000989
0.000000 0.971696 0.000989
0.000000 0.971696 0.000989
0.000000 0.971696 0.000989
0.000000 0.970021 0.000012
0.000000 0.971696 0.000989
0.000000 0.970021 0.000012
0.000000 0.971696 0.000989
0.000000 0.970021 0.000012
0.000000 0.967034 0.000000
0.042791 0.963055 0.000148
0.183171 0.957904 0.001142
0.278386 0.952768 0.000574
0.347600 0.949216 0.000094
0.417206 0.943654 0.000366
0.475274 0.940684 0.000417
0.538819 0.934925 0.000468
0.598257 0.931593 0.000000
0.659063 0.926893 0.000570
0.713809 0.922332 0.000399
0.770901 0.918384 0.000000
0.824670 0.912512 0.000056
0.876487 0.904684 0.000000
0.929673 0.895823 0.000000
0.953340 0.881957 0.000000
0.958635 0.862504 0.000414
0.963346 0.840400 0.000000
0.968843 0.814276 0.000000
0.973754 0.785165 0.000000
0.983358 0.756948 0.000000
0.983760 0.743272 0.000212
0.983568 0.738611 0.000000
0.089705 0.972335 0.000644
0.060379 0.972327 0.000508
0.019908 0.972901 0.000902
0.000000 0.972032 0.000000
0.000000 0.972032 0.000000
0.000000 0.972032 0.000000
0.000357 0.973008 0.000234
0.000000 0.971696 0.000989
0.000000 0.972032 0.000000
0.060379 0.972327 0.000508
0.152072 0.972270 0.000165
0.210725 0.972287 0.000437
0.268007 0.973002 0.000710
0.311801 0.974019 0.000539
0.370454 0.974035 0.000812
0.422652 0.975866 0.000110
0.478960 0.975267 0.001137
0.533706 0.971041 0.000000
0.590798 0.966760 0.000039
0.641436 0.964291 0.000000
0.702243 0.959926 0.000000
0.755619 0.956061 0.000000
0.804305 0.951303 0.000000
0.859444 0.944731 0.000000
0.910284 0.935591 0.000000
0.943918 0.926501 0.000739
0.947844 0.908081 0.000000
0.950401 0.890023 0.000243
0.958243 0.864513 0.000000
0.963738 0.838390 0.000000
0.969628 0.810592 0.000000
0.973161 0.793846 0.000000
0.973946 0.789826 0.000399
0.167909 0.972582 0.000000
0.167909 0.972582 0.000000
0.139558 0.973550 0.000695
0.121377 0.972959 0.000028
0.103196 0.972033 0.001091
0.103196 0.972033 0.001091
0.089705 0.972335 0.000644
0.060379 0.972327 0.000508
0.089705 0.972335 0.000644
0.152072 0.972270 0.000165
0.199580 0.972869 0.000968
0.253542 0.972327 0.000000
0.298311 0.974322 0.000094
0.344842 0.973946 0.000000
0.398411 0.974741 0.000950
0.443573 0.975398 0.000000
0.497142 0.976195 0.000074
0.543280 0.977491 0.000879
0.590788 0.978427 0.000000
0.639664 0.978665 0.000000
0.689518 0.979880 0.000000
0.737610 0.983466 0.000106
0.787856 0.983006 0.000000
0.838887 0.978526 0.000000
0.889335 0.971061 0.000121
