lut/fujifilm/F-Log/F-Log_LUT_E_Ver.1.27/X100VI/X100VI_FLog_FGamut_to_ETERNA_BT.709_33grid_V.1.00.cube
#title:FLog_FGamut_to_ETERNA_BT.709
#FUJIFILM Corporation
#Gamma:F-Log to ETERNA
#Gamut:F-Gamut to ITU-R BT.709
#Version:1.00
LUT_3D_SIZE 9
0.006836 0.006836 0.006836
0.116712 0.006698 0.010620
0.353857 0.010025 0.022543
0.744472 0.013844 0.074864
0.999990 0.017046 0.116340
0.999990 0.017046 0.116340
0.999990 0.017046 0.116340
0.999990 0.017046 0.116340
0.999990 0.017046 0.116340
0.000918 0.070307 0.003922
0.037511 0.029482 0.006801
0.231862 0.010104 0.016581
0.513193 0.010088 0.041200
0.860599 0.016548 0.090453
0.999990 0.017046 0.116340
0.999990 0.017046 0.116340
0.999990 0.017046 0.116340
0.999990 0.017046 0.116340
0.000600 0.217657 0.000000
0.000437 0.177659 0.000663
0.166055 0.150938 0.003695
0.387394 0.118279 0.019644
0.703195 0.043117 0.066657
0.997645 0.017103 0.113632
0.999990 0.017046 0.116340
0.999990 0.017046 0.116340
0.999990 0.017046 0.116340
0.000000 0.419348 0.000367
0.000000 0.356350 0.000000
0.051352 0.313186 0.000215
0.322938 0.283092 0.000000
0.618364 0.261415 0.030313
0.918300 0.218591 0.089489
0.999127 0.114739 0.112413
1.000000 0.038371 0.116922
0.999990 0.017046 0.116340
0.000219 0.672006 0.000000
0.000076 0.608674 0.000945
0.000000 0.561029 0.000313
0.233385 0.528440 0.000000
0.561470 0.502745 0.000000
0.849667 0.477250 0.016992
1.000000 0.394100 0.084926
0.998790 0.286768 0.101273
0.999201 0.261423 0.102198
0.000000 0.875707 0.000000
0.000000 0.841682 0.000958
0.000000 0.808689 0.000461
0.108244 0.779916 0.000512
0.507102 0.754969 0.000000
0.777117 0.732242 0.000000
0.992991 0.689363 0.022297
0.998756 0.569520 0.050313
0.998815 0.496156 0.068133
0.000357 0.973008 0.000234
0.000000 0.971696 0.000989
0.000000 0.971696 0.000989
0.183171 0.957904 0.001142
0.475274 0.940684 0.000417
0.713809 0.922332 0.000399
0.929673 0.895823 0.000000
0.968843 0.814276 0.000000
0.983568 0.738611 0.000000
0.253542 0.972327 0.000000
0.230276 0.972180 0.001104
0.209356 0.972984 0.000437
0.305740 0.973822 0.000317
0.458039 0.976072 0.000468
0.640641 0.979642 0.000005
0.844747 0.985731 0.000000
0.924902 0.987930 0.000000
0.940988 0.923236 0.000000
0.298311 0.974322 0.000094
0.298311 0.974322 0.000094
0.298311 0.974322 0.000094
0.350903 0.974142 0.000145
0.429689 0.977375 0.000000
0.554424 0.976909 0.000348
0.713367 0.982342 0.000944
0.907698 0.988316 0.000172
0.925879 0.989243 0.000000
0.007219 0.006746 0.057688
0.110258 0.007167 0.016567
0.338999 0.010690 0.023829
0.705762 0.013392 0.067359
0.999990 0.017046 0.116340
0.999990 0.017046 0.116340
0.999990 0.017046 0.116340
0.999990 0.017046 0.116340
0.999990 0.017046 0.116340
0.000324 0.067898 0.060720
0.026367 0.026367 0.026367
0.221110 0.009685 0.012675
0.488952 0.009971 0.036847
0.834402 0.013806 0.087608
0.999990 0.017046 0.116340
0.999990 0.017046 0.116340
0.999990 0.017046 0.116340
0.999990 0.017046 0.116340
0.000399 0.215254 0.047042
0.000000 0.178990 0.013000
0.158625 0.151438 0.003473
0.375857 0.120872 0.019422
0.686755 0.063826 0.063109
0.981808 0.017127 0.112211
0.999990 0.017046 0.116340
0.999990 0.017046 0.116340
0.999990 0.017046 0.116340
0.000041 0.417674 0.000000
0.000090 0.359338 0.000000
0.037469 0.315163 0.000745
0.314722 0.287277 0.000000
0.606433 0.266017 0.029336
0.906955 0.227188 0.083544
1.000000 0.125373 0.114059
1.000000 0.057044 0.115550
1.000000 0.026703 0.117007
0.000000 0.670694 0.000738
0.000000 0.610683 0.000192
0.000000 0.569011 0.000003
0.216955 0.536809 0.000000
0.554815 0.511228 0.000000
0.842036 0.486437 0.006832
0.999669 0.407777 0.084086
0.998780 0.298771 0.099458
0.998999 0.267757 0.104375
0.000000 0.876683 0.000699
0.000000 0.843692 0.000203
0.000000 0.812374 0.000684
0.045092 0.784002 0.000000
0.498494 0.760827 0.000421
0.769487 0.739415 0.000000
0.993373 0.700700 0.014313
0.999139 0.580185 0.045788
0.999199 0.505813 0.068801
0.000000 0.971696 0.000989
0.000000 0.970021 0.000012
0.000000 0.971696 0.000989
0.162250 0.958708 0.000472
0.465107 0.942579 0.000196
0.706963 0.926155 0.000000
0.923410 0.902297 0.000000
0.967271 0.821644 0.000000
0.983368 0.745281 0.000000
0.230276 0.972180 0.001104
0.210725 0.972287 0.000437
0.188828 0.971778 0.000523
0.305740 0.973822 0.000317
0.451979 0.975874 0.000246
0.634581 0.979444 0.000000
0.835948 0.986592 0.000208
0.925879 0.989243 0.000000
0.942550 0.927535 0.000000
0.272700 0.974231 0.000000
0.276415 0.973813 0.000179
0.284821 0.974626 0.000000
0.350903 0.974142 0.000145
0.423628 0.977178 0.000000
0.546995 0.977409 0.000125
0.703985 0.980889 0.000000
0.897922 0.988537 0.000000
0.925879 0.989243 0.000000
0.011105 0.006766 0.201590
0.082080 0.006892 0.168984
0.323535 0.010194 0.135469
0.668029 0.013580 0.062562
0.999013 0.016742 0.111902
0.999990 0.017046 0.116340
0.999990 0.017046 0.116340
0.999990 0.017046 0.116340
0.999990 0.017046 0.116340
0.000000 0.056358 0.208923
0.006213 0.020273 0.162012
0.207992 0.006444 0.140867
0.469199 0.010363 0.069503
0.806445 0.013773 0.084011
0.999990 0.017046 0.116340
0.999990 0.017046 0.116340
0.999990 0.017046 0.116340
0.999990 0.017046 0.116340
0.000178 0.215348 0.201328
0.000217 0.176073 0.163602
0.153320 0.153320 0.153320
0.368408 0.124207 0.124586
0.671887 0.076830 0.060849
0.969688 0.017069 0.110035
0.999990 0.017046 0.116340
0.999990 0.017046 0.116340
0.999990 0.017046 0.116340
0.000000 0.421699 0.203020
0.000000 0.362406 0.173586
0.000291 0.321412 0.160309
0.310979 0.294803 0.142058
0.601149 0.272124 0.037456
0.899323 0.234360 0.083766
0.999692 0.141060 0.112464
1.000000 0.078704 0.114402
0.999377 0.049396 0.114128
0.000190 0.671384 0.183157
0.000000 0.619091 0.162067
0.000000 0.578795 0.148788
0.205781 0.546516 0.132699
0.549711 0.521228 0.071856
0.834405 0.494280 0.003594
0.999659 0.420117 0.080540
1.000000 0.309405 0.101102
0.998800 0.275100 0.101360
0.000224 0.875491 0.117223
0.000254 0.844186 0.098445
0.000000 0.814891 0.078914
0.000000 0.788951 0.051706
0.487149 0.768416 0.000000
0.762248 0.744911 0.000000
0.991219 0.707433 0.002421
0.999129 0.590844 0.050895
0.999973 0.514804 0.063301
0.000000 0.971696 0.000989
0.000000 0.971696 0.000989
0.000000 0.970021 0.000012
0.032432 0.959953 0.000457
0.442424 0.945754 0.000504
0.694058 0.929109 0.000176
0.917351 0.902100 0.000000
0.964725 0.828035 0.000000
0.983167 0.751953 0.000000
0.195866 0.973288 0.000000
0.153442 0.971573 0.000165
0.121377 0.972959 0.000028
0.276415 0.973813 0.000179
0.438881 0.974504 0.000000
0.619721 0.980445 0.000000
0.825195 0.985500 0.000000
0.925879 0.989243 0.000000
0.941372 0.932893 0.000208
0.272489 0.972406 0.103392
0.274843 0.972780 0.043886
0.277783 0.973117 0.000179
0.337413 0.974446 0.000000
0.435166 0.974585 0.000000
0.539566 0.977910 0.000000
0.693817 0.982448 0.000277
0.889516 0.987725 0.000000
0.925879 0.989243 0.000000
0.016936 0.006291 0.420039
0.017338 0.006728 0.348199
0.302001 0.010413 0.302176
0.648057 0.014065 0.249504
0.974772 0.016289 0.109282
0.999990 0.017046 0.116340
0.999990 0.017046 0.116340
0.999990 0.017046 0.116340
0.999990 0.017046 0.116340
0.017509 0.020609 0.421907
0.016754 0.006766 0.332403
0.190959 0.006931 0.285831
0.456656 0.010685 0.254937
0.790005 0.013645 0.187754
0.999990 0.017046 0.116340
0.999990 0.017046 0.116340
0.999990 0.017046 0.116340
0.999990 0.017046 0.116340
0.000148 0.211702 0.400075
0.000000 0.175489 0.330977
0.119867 0.151517 0.293180
0.360759 0.126145 0.271727
0.669120 0.076930 0.247482
0.961281 0.017264 0.105375
0.999990 0.017046 0.116340
0.999990 0.017046 0.116340
0.999990 0.017046 0.116340
0.000000 0.426702 0.407625
0.000000 0.369463 0.352012
0.000453 0.330157 0.320453
0.302734 0.302734 0.302734
0.608922 0.280563 0.281999
0.900863 0.239477 0.199004
0.999682 0.152728 0.112379
0.999731 0.094056 0.114540
0.999951 0.063714 0.115996
0.000000 0.673013 0.424324
0.000582 0.630055 0.386376
0.000228 0.591780 0.353086
0.169177 0.559353 0.333929
0.548293 0.532874 0.315422
0.838070 0.502795 0.258519
0.999256 0.433794 0.079699
1.000000 0.321744 0.097553
0.998598 0.281771 0.101804
0.000569 0.871996 0.425570
0.000206 0.844046 0.399118
0.000819 0.817408 0.371910
0.000646 0.792101 0.357039
0.482398 0.772327 0.334640
0.765129 0.750052 0.290296
0.986326 0.711865 0.009566
0.999513 0.602182 0.042910
0.998987 0.526168 0.058777
0.000000 0.971130 0.354243
0.000108 0.970800 0.346343
0.000000 0.969494 0.337468
0.000000 0.960179 0.325442
0.441983 0.946279 0.307343
0.690494 0.932127 0.250973
0.904836 0.903379 0.000000
0.965309 0.831021 0.000000
0.980620 0.758343 0.000000
0.152024 0.972466 0.299106
0.108622 0.972799 0.282726
0.080475 0.971465 0.260625
0.271875 0.973502 0.262113
0.446071 0.975924 0.263909
0.620859 0.978739 0.219293
0.807991 0.985887 0.000070
0.925879 0.989243 0.000000
0.939026 0.932613 0.000000
0.240778 0.971737 0.344199
0.234133 0.973930 0.316065
0.239026 0.972858 0.291617
0.319967 0.974400 0.276985
0.429843 0.975942 0.272117
0.554969 0.977162 0.254606
0.692628 0.981325 0.094836
0.877396 0.986994 0.000790
0.925879 0.989243 0.000000
0.029792 0.006557 0.701898
0.026479 0.007413 0.629081
0.259147 0.010664 0.541786
0.632573 0.013715 0.480374
0.961826 0.016510 0.364823
0.999990 0.017046 0.116340
0.999990 0.017046 0.116340
0.999990 0.017046 0.116340
0.999990 0.017046 0.116340
0.030577 0.006906 0.680910
0.021405 0.006944 0.576278
0.127385 0.006355 0.498371
0.441375 0.009713 0.454215
0.788406 0.013333 0.407710
0.999578 0.016513 0.248660
0.999990 0.017046 0.116340
0.999990 0.017046 0.116340
0.999990 0.017046 0.116340
0.000000 0.204010 0.638844
0.000158 0.169116 0.559364
0.000580 0.145548 0.491157
0.343916 0.121882 0.466344
0.672029 0.065890 0.442321
0.966517 0.017068 0.366776
0.999990 0.017046 0.116340
0.999990 0.017046 0.116340
0.999990 0.017046 0.116340
0.000518 0.427006 0.626829
0.000375 0.375435 0.567223
0.000414 0.337841 0.520845
0.274346 0.311052 0.505696
0.606929 0.283943 0.492551
0.906885 0.239292 0.441148
0.999422 0.195795 0.285356
0.999720 0.105722 0.114453
0.998956 0.086072 0.114849
0.000000 0.672011 0.634653
0.000935 0.633377 0.599634
0.000000 0.598451 0.568298
0.022699 0.568295 0.552140
0.541016 0.541016 0.541016
0.839199 0.508387 0.500887
1.000000 0.445288 0.386453
0.999123 0.357114 0.089398
0.999363 0.302094 0.097949
0.000539 0.864990 0.641622
0.000000 0.838713 0.616144
0.000000 0.814750 0.594352
0.000000 0.794105 0.580681
0.461832 0.771748 0.571456
0.765282 0.751644 0.547262
0.996225 0.713958 0.443981
0.999654 0.618465 0.284215
0.999360 0.548164 0.055898
0.000259 0.970374 0.613692
0.000068 0.968403 0.598649
0.000270 0.964085 0.586091
0.000000 0.952785 0.578278
0.411640 0.941217 0.567188
0.686932 0.927749 0.539840
0.913365 0.901128 0.459946
0.978156 0.832874 0.333074
0.979833 0.762028 0.000000
0.000078 0.971859 0.520864
0.000000 0.970888 0.510259
0.000000 0.971231 0.498898
0.205170 0.972635 0.492933
0.413383 0.976296 0.493360
0.623941 0.979899 0.496491
0.809684 0.986210 0.405153
0.928599 0.989002 0.113149
0.942156 0.929208 0.000000
0.099393 0.971592 0.544438
0.134588 0.972179 0.517640
0.143778 0.973676 0.494391
0.271644 0.973501 0.476878
0.401463 0.975279 0.461321
0.552393 0.978562 0.459742
0.699809 0.983322 0.416940
0.873832 0.989004 0.256777
0.925879 0.989243 0.000000
0.039147 0.006380 0.892438
0.032894 0.007572 0.859868
0.029782 0.007134 0.758917
0.600471 0.013376 0.729082
0.951026 0.016623 0.658129
1.000000 0.016918 0.397754
0.999990 0.017046 0.116340
0.999990 0.017046 0.116340
0.999990 0.017046 0.116340
0.038170 0.006411 0.886269
0.032904 0.006995 0.802848
0.030378 0.006855 0.715965
0.401258 0.010585 0.683442
0.783283 0.013395 0.652117
1.000000 0.016677 0.553769
1.000000 0.016766 0.288153
0.999990 0.017046 0.116340
0.999990 0.017046 0.116340
0.000511 0.159332 0.840110
0.000541 0.138109 0.769417
0.000000 0.124222 0.705339
0.297566 0.098596 0.673554
0.665577 0.023679 0.668035
0.969409 0.016592 0.627203
0.999941 0.016905 0.417012
0.999386 0.017229 0.219773
0.999990 0.017046 0.116340
0.000699 0.407374 0.813101
0.000154 0.368136 0.759579
0.000000 0.336205 0.718836
0.183207 0.310784 0.703277
0.590279 0.281652 0.702211
0.907047 0.232577 0.680896
0.999373 0.203385 0.546226
0.999585 0.227055 0.329558
0.999804 0.205451 0.286023
0.000000 0.653761 0.798206
0.000000 0.622463 0.769801
0.000000 0.593175 0.740640
0.000773 0.567500 0.733668
0.491323 0.542495 0.732258
0.827824 0.508298 0.719645
0.999541 0.449556 0.648832
0.998805 0.427166 0.483360
1.000000 0.375622 0.385239
0.000000 0.844096 0.793595
0.000357 0.822448 0.775484
0.000377 0.803482 0.753161
0.000980 0.784814 0.744902
0.379693 0.767309 0.749782
0.747070 0.747070 0.747070
0.995209 0.709575 0.700500
0.999193 0.642325 0.590882
0.999654 0.582506 0.469375
0.000000 0.966810 0.771215
0.001025 0.961459 0.760386
0.000000 0.947846 0.748891
0.001044 0.940813 0.746714
0.304091 0.929682 0.745907
0.655038 0.917811 0.743195
0.905705 0.894570 0.710828
0.999420 0.829919 0.635167
0.999297 0.768457 0.506515
0.000000 0.970267 0.693431
0.000000 0.971612 0.686508
0.000000 0.970945 0.680340
0.000000 0.971281 0.678609
0.333781 0.975116 0.682512
0.585787 0.979459 0.684496
0.802407 0.987628 0.665355
0.960785 0.986905 0.562074
0.967891 0.927579 0.454855
0.000000 0.969252 0.708250
0.000000 0.970939 0.689970
0.000249 0.970951 0.670711
0.063010 0.971901 0.655410
0.319907 0.974164 0.638137
0.515024 0.977799 0.630219
0.703877 0.985218 0.636367
0.875737 0.991489 0.555942
0.938738 0.990518 0.275777
0.039147 0.006380 0.892438
0.039147 0.006380 0.892438
0.039147 0.006380 0.892438
0.470432 0.009676 0.909308
0.916385 0.017393 0.873511
0.999700 0.016474 0.693989
0.999155 0.016893 0.436269
0.999166 0.016989 0.375790
0.999760 0.016710 0.332835
0.039147 0.006380 0.892438
0.039147 0.006380 0.892438
0.039147 0.006380 0.892438
0.269457 0.009928 0.861183
0.747082 0.013564 0.848996
1.000000 0.017298 0.800129
1.000000 0.016684 0.544140
0.999941 0.016570 0.418741
0.999166 0.016316 0.379250
0.038744 0.019720 0.893329
0.035230 0.013133 0.893636
0.032482 0.029219 0.877976
0.131222 0.026735 0.837387
0.618632 0.014113 0.848981
0.959794 0.016484 0.832871
0.999511 0.016518 0.668562
0.999864 0.097137 0.483813
0.999874 0.092527 0.447559
0.000154 0.342595 0.891093
0.000758 0.321912 0.893220
0.000777 0.301602 0.877816
0.000403 0.285654 0.849546
0.513434 0.260448 0.867308
0.888070 0.211714 0.863793
0.999756 0.169016 0.773585
1.000000 0.254003 0.566339
0.999727 0.250731 0.532792
0.000322 0.609267 0.888141
0.000000 0.587607 0.889289
0.000000 0.564945 0.885999
0.000380 0.544306 0.862700
0.361304 0.522854 0.874586
0.794774 0.489456 0.877648
1.000000 0.418555 0.849259
1.000000 0.439823 0.679759
0.998785 0.424288 0.618164
0.000357 0.803292 0.874120
0.001152 0.787605 0.875715
0.000970 0.771613 0.872871
0.000000 0.756997 0.856937
0.061404 0.745588 0.874071
0.686847 0.727535 0.885680
0.971542 0.690506 0.869332
0.999155 0.655051 0.765316
0.999385 0.625813 0.701101
0.000633 0.939608 0.882497
0.000000 0.928980 0.871223
0.000000 0.919329 0.860926
0.000000 0.912659 0.860481
0.000078 0.904645 0.866957
0.568621 0.895534 0.878961
0.874023 0.874023 0.874023
0.999783 0.827288 0.819094
1.000000 0.776060 0.748129
0.000000 0.966722 0.822066
0.000000 0.967394 0.818605
0.000230 0.966056 0.815899
0.000000 0.968066 0.815145
0.000029 0.971383 0.823267
0.485859 0.978132 0.833488
0.758976 0.986667 0.835610
0.984022 0.976348 0.795344
0.991117 0.918945 0.738223
0.000000 0.967387 0.828234
0.000000 0.967394 0.818605
0.000230 0.968408 0.803785
0.000623 0.968415 0.794157
0.000230 0.972105 0.784751
0.409036 0.976611 0.777259
0.658303 0.982685 0.777511
0.865730 0.991710 0.769507
0.964481 0.995370 0.637290
0.039147 0.006380 0.892438
0.039147 0.006380 0.892438
0.039147 0.006380 0.892438
0.039147 0.006380 0.892438
0.821157 0.013360 0.981280
1.000000 0.016106 0.916653
0.999117 0.016848 0.676462
0.999127 0.016607 0.617711
0.999720 0.017336 0.569567
0.039147 0.006380 0.892438
0.039147 0.006380 0.892438
0.039147 0.006380 0.892438
0.039147 0.006380 0.892438
0.633865 0.013265 0.959028
0.999461 0.016714 0.967503
0.999883 0.017342 0.774704
0.999902 0.017533 0.653743
1.000000 0.016918 0.612519
0.039147 0.006380 0.892438
0.039147 0.006380 0.892438
0.039147 0.006380 0.892438
0.039147 0.006380 0.892438
0.461825 0.010158 0.937973
0.910697 0.017012 0.984621
1.000000 0.016834 0.868508
0.999309 0.016803 0.701887
0.999511 0.017190 0.665102
0.000635 0.235916 0.890891
0.000444 0.230920 0.891423
0.001037 0.222240 0.891730
0.000845 0.217243 0.892261
0.303107 0.203746 0.922824
0.817910 0.156771 0.979496
0.999843 0.029060 0.954328
0.999323 0.220047 0.760375
0.999918 0.217753 0.727805
0.000000 0.508282 0.887407
0.000000 0.496615 0.887492
0.000000 0.484612 0.889309
0.000238 0.475931 0.889616
0.000047 0.467238 0.909184
0.700763 0.438437 0.958605
0.999942 0.370681 0.985383
0.999942 0.400255 0.833101
0.999178 0.391023 0.779852
0.000000 0.726644 0.877652
0.000000 0.717626 0.879690
0.000436 0.708946 0.880000
0.000637 0.702275 0.879554
0.000000 0.693278 0.894683
0.543961 0.682328 0.936415
0.915254 0.646933 0.975766
0.999556 0.616504 0.894211
0.999587 0.594609 0.826982
0.000098 0.880302 0.872320
0.000000 0.872654 0.870898
0.000893 0.864951 0.872184
0.000701 0.860626 0.869254
0.000000 0.855281 0.890773
0.357306 0.850532 0.928222
0.793101 0.834361 0.964969
0.999984 0.797092 0.939780
0.999630 0.766212 0.868422
0.000220 0.963608 0.888492
0.000220 0.963608 0.888492
0.000220 0.963608 0.888492
0.000220 0.963944 0.886761
0.000412 0.966252 0.900075
0.078606 0.973460 0.923426
0.653007 0.968531 0.949941
0.947266 0.947266 0.947266
1.000000 0.908152 0.898230
0.000220 0.963944 0.886761
0.000220 0.963944 0.886761
0.000220 0.963272 0.890223
0.000220 0.963944 0.886761
0.000000 0.966956 0.890445
0.000604 0.971921 0.896083
0.546062 0.981009 0.900633
0.826609 0.989716 0.899516
0.985753 0.997216 0.854676
0.039147 0.006380 0.892438
0.039147 0.006380 0.892438
0.039147 0.006380 0.892438
0.039147 0.006380 0.892438
0.561532 0.010234 0.950188
1.000000 0.016639 0.999098
1.000000 0.016829 0.878136
1.000000 0.016917 0.827285
1.000000 0.016639 0.784332
0.039147 0.006380 0.892438
0.039147 0.006380 0.892438
0.039147 0.006380 0.892438
0.039147 0.006380 0.892438
0.338852 0.010269 0.925845
0.905613 0.016448 0.992298
0.999853 0.017057 0.956145
1.000000 0.017209 0.850981
1.000000 0.016924 0.817657
0.039147 0.006380 0.892438
0.039147 0.006380 0.892438
0.039147 0.006380 0.892438
0.039147 0.006380 0.892438
0.129078 0.007014 0.901723
0.771304 0.013489 0.974308
1.000000 0.016639 0.999098
1.000000 0.016829 0.878136
1.000000 0.017209 0.850981
0.001277 0.168564 0.893359
0.001498 0.138559 0.893087
0.001114 0.128902 0.892417
0.001114 0.128902 0.892417
0.000511 0.148914 0.893754
0.636678 0.156536 0.959197
1.000000 0.016639 0.999098
0.999564 0.135453 0.921206
1.000000 0.144489 0.890282
0.000000 0.419605 0.889293
0.000316 0.382258 0.892035
0.000909 0.373913 0.890613
0.000326 0.370926 0.890391
0.000000 0.372601 0.891368
0.500010 0.401962 0.944817
0.917451 0.356199 0.985059
0.999993 0.314361 0.975431
0.999993 0.324107 0.925246
0.000272 0.668276 0.884250
0.000494 0.637598 0.887438
0.000705 0.619261 0.887078
0.000513 0.614264 0.887609
0.000322 0.609267 0.888141
0.287131 0.604443 0.923141
0.791727 0.609058 0.963672
0.999423 0.522684 0.992164
0.999816 0.528403 0.953118
0.000126 0.845637 0.870847
0.000729 0.825288 0.871241
0.000548 0.808289 0.873590
0.000367 0.791289 0.875937
0.000000 0.785316 0.875492
0.000568 0.778569 0.906642
0.674677 0.772372 0.952293
0.970294 0.755354 0.984140
0.999267 0.712049 0.976945
0.000220 0.963944 0.886761
0.000000 0.963304 0.884055
0.000422 0.957946 0.882855
0.000432 0.946278 0.882942
0.000049 0.936958 0.880544
0.000000 0.927928 0.901840
0.499973 0.913982 0.938328
0.865971 0.898714 0.973602
0.999525 0.870354 0.992072
0.000220 0.963944 0.886761
0.000220 0.963944 0.886761
0.000220 0.963944 0.886761
0.000220 0.963944 0.886761
0.000000 0.965619 0.887738
0.000000 0.968928 0.905488
0.370689 0.977560 0.932914
0.746050 0.987751 0.966730
1.000000 1.000000 1.000000
