lut/fujifilm/F-log2/F-Log2_LUT_E_Ver.1.05/X100VI/X100VI_FLog2_FGamut_to_ETERNA-BB_BT.709_33gird_V.1.00.cube
#title:FLog2_FGamut_to_ETERNA-BB_BT.709
#FUJIFILM Corporation
#Gamma:F-Log2 to ETERNA BLEACH BYPASS
#Gamut:F-Gamut to ITU-R BT.709
#Version:1.00
LUT_3D_SIZE 5
0.000000 0.000000 0.000000
0.056498 0.003054 0.007418
0.370077 0.012936 0.059243
0.657258 0.023051 0.127702
0.657258 0.023051 0.127702
0.000000 0.083300 0.025802
0.099418 0.105031 0.046497
0.556467 0.147312 0.129140
0.696827 0.155078 0.183607
0.682399 0.111432 0.163491
0.000676 0.749707 0.395368
0.128169 0.728207 0.377273
0.766622 0.802752 0.460481
0.916873 0.694486 0.392582
0.884887 0.608248 0.363715
0.422785 0.921479 0.665293
0.422785 0.921479 0.665293
0.682382 0.953221 0.729009
0.956860 0.979783 0.694703
0.959426 0.961147 0.638300
0.422785 0.921479 0.665293
0.422785 0.921479 0.665293
0.561967 0.939306 0.696731
0.892530 0.975447 0.765825
0.965265 0.980259 0.695903
0.003705 0.006209 0.026848
0.070170 0.010677 0.052238
0.460199 0.016887 0.076648
0.657258 0.023051 0.127702
0.657258 0.023051 0.127702
0.006345 0.106362 0.103860
0.116211 0.116211 0.116211
0.586367 0.154245 0.169214
0.692930 0.140175 0.176324
0.666612 0.056480 0.145194
0.000000 0.762851 0.526848
0.107047 0.721567 0.449730
0.768202 0.780692 0.475695
0.899707 0.652236 0.372468
0.870458 0.563594 0.348792
0.403616 0.923177 0.706824
0.410462 0.923386 0.687789
0.687075 0.954115 0.729230
0.960383 0.980082 0.666794
0.958067 0.953202 0.622812
0.402248 0.924546 0.703363
0.409094 0.924420 0.686058
0.564897 0.941228 0.704851
0.894874 0.976398 0.763340
0.965265 0.980259 0.695903
0.017721 0.046632 0.193126
0.121324 0.061610 0.212622
0.635215 0.140756 0.418950
0.732326 0.219674 0.357524
0.722379 0.201983 0.303384
0.099242 0.228671 0.489681
0.170599 0.228371 0.509657
0.719131 0.289269 0.590585
0.763939 0.279211 0.413497
0.726285 0.206897 0.302098
0.000000 0.801162 0.759106
0.000216 0.769869 0.721071
0.807617 0.807617 0.807617
0.958272 0.702142 0.655767
0.918292 0.608903 0.529719
0.232734 0.916537 0.795149
0.303508 0.919638 0.782023
0.663597 0.954494 0.823120
0.974630 0.985218 0.800005
0.966070 0.948535 0.720077
0.255608 0.918359 0.794309
0.313283 0.920760 0.776300
0.526369 0.939963 0.786715
0.901701 0.980114 0.846230
0.967794 0.984096 0.763750
0.120986 0.160375 0.578722
0.174132 0.191797 0.611618
0.804656 0.373329 0.815766
0.868755 0.410936 0.788093
0.851972 0.382040 0.749613
0.186039 0.436435 0.674200
0.182535 0.419188 0.669402
0.760535 0.526288 0.837762
0.892165 0.466015 0.828579
0.857440 0.388901 0.759910
0.072951 0.750820 0.774012
0.094677 0.725014 0.764247
0.594359 0.748994 0.855013
0.979898 0.739236 0.922015
0.967242 0.687938 0.868133
0.208482 0.918008 0.842625
0.198706 0.917893 0.843156
0.414138 0.933677 0.873581
0.970703 0.970703 0.970703
0.989891 0.944998 0.932804
0.208482 0.918008 0.842625
0.208482 0.918008 0.842625
0.246799 0.920471 0.849375
0.883500 0.983030 0.947488
0.989066 0.995015 0.934414
0.169323 0.322172 0.655356
0.173613 0.336407 0.656469
0.811376 0.514460 0.850989
0.902705 0.478387 0.865722
0.902705 0.478387 0.865722
0.177834 0.429625 0.670824
0.182152 0.409195 0.670465
0.744105 0.535329 0.834301
0.908756 0.489242 0.871050
0.902705 0.478387 0.865722
0.075307 0.740441 0.769883
0.126952 0.705963 0.760563
0.580697 0.722982 0.844887
0.984409 0.718090 0.950543
0.975840 0.679296 0.941481
0.208482 0.918008 0.842625
0.176810 0.917383 0.843243
0.338301 0.914409 0.854755
0.955270 0.955370 0.978774
0.993998 0.933160 0.982987
0.208482 0.918008 0.842625
0.208482 0.918008 0.842625
0.208482 0.918008 0.842625
0.849482 0.979439 0.960973
1.000000 1.000000 1.000000
