lut/fujifilm/F-log2/F-Log2_LUT_E_Ver.1.05/X100VI/X100VI_FLog2_FGamut_to_ETERNA-BB_BT.709_33gird_V.1.00.cube
#title:FLog2_FGamut_to_ETERNA-BB_BT.709
#FUJIFILM Corporation
#Gamma:F-Log2 to ETERNA BLEACH BYPASS
#Gamut:F-Gamut to ITU-R BT.709
#Version:1.00
LUT_3D_SIZE 9
0.000000 0.000000 0.000000
0.013490 0.000000 0.000445
0.056498 0.003054 0.007418
0.136261 0.006255 0.013019
0.370077 0.012936 0.059243
0.629301 0.023353 0.122375
0.657258 0.023051 0.127702
0.657258 0.023051 0.127702
0.657258 0.023051 0.127702
0.000000 0.010995 0.003375
0.014065 0.013341 0.005774
0.070563 0.017068 0.009731
0.181413 0.016899 0.019684
0.483073 0.017364 0.082732
0.657258 0.023051 0.127702
0.657258 0.023051 0.127702
0.657258 0.023051 0.127702
0.657258 0.023051 0.127702
0.000000 0.083300 0.025802
0.020057 0.089496 0.034812
0.099418 0.105031 0.046497
0.261292 0.116754 0.032720
0.556467 0.147312 0.129140
0.704821 0.178546 0.195993
0.696827 0.155078 0.183607
0.691954 0.138864 0.177078
0.682399 0.111432 0.163491
0.000000 0.292492 0.123251
0.000000 0.318470 0.134660
0.097079 0.312942 0.138532
0.311332 0.332069 0.180539
0.647142 0.406420 0.253281
0.832231 0.462511 0.309937
0.773686 0.344237 0.258696
0.753197 0.299723 0.241820
0.734461 0.263497 0.229074
0.000676 0.749707 0.395368
0.000102 0.737742 0.381387
0.128169 0.728207 0.377273
0.455811 0.756472 0.408914
0.766622 0.802752 0.460481
0.936700 0.821958 0.446618
0.916873 0.694486 0.392582
0.899124 0.649249 0.372246
0.884887 0.608248 0.363715
0.364535 0.915849 0.624328
0.356521 0.914036 0.620422
0.341078 0.913059 0.614563
0.531482 0.934764 0.628746
0.764513 0.951850 0.640583
0.915451 0.951196 0.599289
0.955569 0.917725 0.537918
0.952476 0.881855 0.499437
0.953865 0.860175 0.487497
0.422785 0.921479 0.665293
0.422785 0.921479 0.665293
0.422785 0.921479 0.665293
0.502932 0.932657 0.680215
0.682382 0.953221 0.729009
0.854998 0.970309 0.753661
0.956860 0.979783 0.694703
0.960393 0.970431 0.656497
0.959426 0.961147 0.638300
0.422785 0.921479 0.665293
0.422785 0.921479 0.665293
0.422785 0.921479 0.665293
0.456602 0.927708 0.673019
0.621002 0.946292 0.711516
0.802798 0.967134 0.761285
0.924201 0.977751 0.756553
0.965265 0.980259 0.695903
0.965265 0.980259 0.695903
0.422785 0.921479 0.665293
0.422785 0.921479 0.665293
0.422785 0.921479 0.665293
0.422785 0.921479 0.665293
0.561967 0.939306 0.696731
0.756862 0.960512 0.753114
0.892530 0.975447 0.765825
0.966826 0.981534 0.710944
0.965265 0.980259 0.695903
0.000000 0.000000 0.003461
0.013682 0.003349 0.006836
0.061189 0.003612 0.009371
0.145644 0.007373 0.016926
0.411131 0.013669 0.067723
0.649829 0.023551 0.127480
0.657258 0.023051 0.127702
0.657258 0.023051 0.127702
0.657258 0.023051 0.127702
0.003896 0.013557 0.014203
0.016602 0.016602 0.016602
0.080922 0.019497 0.012882
0.199596 0.016818 0.023812
0.517091 0.017259 0.088282
0.657258 0.023051 0.127702
0.657258 0.023051 0.127702
0.657258 0.023051 0.127702
0.657258 0.023051 0.127702
0.000113 0.088252 0.050696
0.010080 0.093028 0.051364
0.105085 0.105221 0.056347
0.264422 0.113685 0.031743
0.563313 0.143825 0.129140
0.699162 0.166352 0.187956
0.695074 0.146790 0.179476
0.686879 0.128984 0.172726
0.676750 0.087571 0.155542
0.000000 0.320106 0.151434
0.000301 0.314114 0.137899
0.102171 0.300159 0.139593
0.313497 0.317364 0.173481
0.640515 0.383934 0.232241
0.819937 0.435803 0.299811
0.765299 0.322107 0.249016
0.744027 0.280605 0.235825
0.730173 0.250269 0.222769
0.000867 0.749325 0.422524
0.000000 0.731065 0.390571
0.115474 0.715512 0.364578
0.449961 0.739619 0.399679
0.762725 0.788187 0.451468
0.938864 0.807590 0.437829
0.907117 0.674397 0.375980
0.892689 0.629071 0.364519
0.878846 0.586061 0.356741
0.354366 0.914721 0.639679
0.352807 0.913447 0.624637
0.336780 0.911162 0.609902
0.526599 0.930890 0.618671
0.768427 0.946779 0.630730
0.917998 0.947157 0.587707
0.954209 0.909443 0.524160
0.952486 0.870859 0.496062
0.952114 0.851888 0.483367
0.419261 0.925213 0.672437
0.422785 0.921479 0.665293
0.422785 0.921479 0.665293
0.501562 0.932683 0.683676
0.689419 0.955066 0.726746
0.858713 0.971570 0.745984
0.958621 0.979764 0.681613
0.959224 0.966137 0.647398
0.956889 0.957888 0.627473
0.417308 0.923260 0.670484
0.422785 0.921479 0.665293
0.422785 0.921479 0.665293
0.460316 0.927290 0.673995
0.625693 0.946851 0.713469
0.803775 0.968111 0.762262
0.924201 0.977751 0.756553
0.965265 0.980259 0.695903
0.965265 0.980259 0.695903
0.417308 0.923260 0.670484
0.422785 0.921479 0.665293
0.422785 0.921479 0.665293
0.422785 0.921479 0.665293
0.563920 0.941259 0.698684
0.757838 0.961488 0.754090
0.894874 0.975726 0.766801
0.965850 0.980894 0.708239
0.965265 0.980259 0.695903
0.003705 0.006209 0.026848
0.016803 0.006906 0.031730
0.070170 0.010677 0.052238
0.167532 0.009802 0.066938
0.460199 0.016887 0.076648
0.657258 0.023051 0.127702
0.657258 0.023051 0.127702
0.657258 0.023051 0.127702
0.657258 0.023051 0.127702
0.003101 0.023195 0.043758
0.016783 0.026208 0.052323
0.093416 0.029790 0.072746
0.234963 0.025571 0.100141
0.552669 0.020108 0.100223
0.657258 0.023051 0.127702
0.657258 0.023051 0.127702
0.657258 0.023051 0.127702
0.657258 0.023051 0.127702
0.006345 0.106362 0.103860
0.000000 0.108511 0.101151
0.116211 0.116211 0.116211
0.297826 0.126439 0.135449
0.586367 0.154245 0.169214
0.700139 0.167329 0.188933
0.692930 0.140175 0.176324
0.682982 0.114083 0.165444
0.666612 0.056480 0.145194
0.000424 0.377257 0.257898
0.000262 0.344987 0.218886
0.110156 0.325883 0.200348
0.334588 0.335145 0.223629
0.662202 0.391019 0.293082
0.810766 0.417021 0.292087
0.755735 0.304326 0.245726
0.734069 0.265170 0.230050
0.721775 0.238797 0.218195
0.000000 0.762851 0.526848
0.000000 0.742585 0.486019
0.107047 0.721567 0.449730
0.453081 0.737463 0.453992
0.768202 0.780692 0.475695
0.939267 0.792567 0.445590
0.899707 0.652236 0.372468
0.885864 0.609225 0.364692
0.870458 0.563594 0.348792
0.326008 0.915930 0.699270
0.317803 0.912816 0.676860
0.295131 0.909701 0.649567
0.516432 0.927072 0.647866
0.767450 0.942777 0.645327
0.920153 0.942775 0.587485
0.953434 0.902804 0.517546
0.953473 0.861513 0.490203
0.951147 0.839916 0.479015
0.403616 0.923177 0.706824
0.407724 0.923437 0.694710
0.410462 0.923386 0.687789
0.498432 0.933734 0.695036
0.687075 0.954115 0.729230
0.863797 0.971463 0.741769
0.960383 0.980082 0.666794
0.960403 0.962460 0.637548
0.958067 0.953202 0.622812
0.402248 0.924546 0.703363
0.407724 0.923773 0.692981
0.408118 0.923444 0.685082
0.454448 0.929064 0.688817
0.625301 0.947179 0.721366
0.808859 0.966323 0.766699
0.927523 0.979344 0.756778
0.965265 0.980259 0.695903
0.965265 0.980259 0.695903
0.402248 0.924546 0.703363
0.407724 0.923773 0.692981
0.409094 0.924420 0.686058
0.414570 0.923310 0.677407
0.564897 0.941228 0.704851
0.759791 0.963105 0.757774
0.894874 0.976398 0.763340
0.965850 0.980894 0.708239
0.965265 0.980259 0.695903
0.009947 0.013995 0.073175
0.016592 0.016843 0.075352
0.093224 0.019752 0.099235
0.230262 0.028614 0.139633
0.526061 0.022883 0.198551
0.677727 0.078465 0.208433
0.699363 0.157665 0.197895
0.690393 0.135237 0.174148
0.680647 0.102809 0.161095
0.006596 0.041356 0.103843
0.010502 0.044253 0.112941
0.114690 0.059194 0.148234
0.308426 0.063431 0.200798
0.595645 0.032926 0.238454
0.695860 0.131679 0.238090
0.700531 0.161957 0.206993
0.690001 0.136911 0.175125
0.678503 0.095859 0.159673
0.034839 0.142849 0.235305
0.041483 0.144688 0.242671
0.138059 0.149515 0.247211
0.340785 0.164272 0.264856
0.631077 0.199693 0.306211
0.729790 0.225825 0.298243
0.718472 0.208830 0.244102
0.700339 0.160994 0.186758
0.686496 0.119999 0.168598
0.029643 0.464267 0.469938
0.016583 0.425302 0.422137
0.136465 0.391336 0.385402
0.394531 0.394531 0.394531
0.718832 0.441515 0.441352
0.842973 0.453761 0.421047
0.795160 0.366299 0.337199
0.753197 0.299387 0.243551
0.729780 0.251607 0.225477
0.000000 0.783306 0.661480
0.000234 0.764683 0.627797
0.037795 0.744230 0.591766
0.456758 0.756156 0.596524
0.786353 0.789736 0.612812
0.955677 0.788713 0.542325
0.924121 0.661863 0.473023
0.904811 0.616023 0.434185
0.875735 0.560418 0.385579
0.217885 0.913265 0.756720
0.223754 0.911489 0.741898
0.214965 0.905389 0.719266
0.487882 0.919923 0.725293
0.765679 0.939340 0.736203
0.927764 0.940120 0.683996
0.960854 0.898513 0.597285
0.959140 0.854982 0.534664
0.949587 0.831584 0.500313
0.355516 0.922519 0.750703
0.371745 0.922838 0.740766
0.377221 0.922737 0.726923
0.478288 0.934792 0.733859
0.684135 0.954786 0.767745
0.868871 0.973612 0.785921
0.966826 0.981198 0.712676
0.959618 0.959758 0.670649
0.958067 0.950850 0.634925
0.365291 0.922634 0.750173
0.374483 0.921779 0.739036
0.381912 0.923632 0.727145
0.432350 0.928505 0.723957
0.616694 0.947325 0.751762
0.811981 0.968200 0.800247
0.928299 0.980940 0.789347
0.965065 0.982225 0.720574
0.965850 0.980894 0.708239
0.365291 0.922970 0.748441
0.375459 0.923428 0.736550
0.380935 0.922991 0.724436
0.392081 0.924424 0.713523
0.554919 0.941734 0.736977
0.759006 0.962083 0.782222
0.898389 0.977274 0.792448
0.967018 0.981826 0.734640
0.965850 0.981230 0.706508
0.017721 0.046632 0.193126
0.017136 0.045997 0.180789
0.121324 0.061610 0.212622
0.315031 0.094127 0.299536
0.635215 0.140756 0.418950
0.738387 0.209453 0.411391
0.732326 0.219674 0.357524
0.729406 0.209782 0.330452
0.722379 0.201983 0.303384
0.032349 0.074869 0.257786
0.041521 0.086929 0.300121
0.151569 0.102688 0.367230
0.422300 0.139129 0.463207
0.691463 0.189660 0.525020
0.746974 0.220543 0.443121
0.737794 0.225527 0.373012
0.730383 0.210423 0.333161
0.721402 0.201006 0.302407
0.099242 0.228671 0.489681
0.110568 0.239039 0.517950
0.170599 0.228371 0.509657
0.436861 0.246684 0.539379
0.719131 0.289269 0.590585
0.786391 0.297879 0.515472
0.763939 0.279211 0.413497
0.739737 0.243516 0.352383
0.726285 0.206897 0.302098
0.116719 0.570344 0.663352
0.124570 0.537536 0.640360
0.135754 0.496670 0.607293
0.462046 0.501626 0.642565
0.786941 0.536905 0.705269
0.892134 0.532943 0.663926
0.867559 0.486679 0.546855
0.841805 0.436026 0.481169
0.805117 0.369634 0.405269
0.000000 0.801162 0.759106
0.000000 0.790509 0.744372
0.000216 0.769869 0.721071
0.437550 0.782341 0.751922
0.807617 0.807617 0.807617
0.983011 0.790085 0.763396
0.958272 0.702142 0.655767
0.941699 0.659276 0.594430
0.918292 0.608903 0.529719
0.038606 0.902549 0.802399
0.000000 0.898444 0.788505
0.000300 0.892115 0.776699
0.413977 0.908130 0.799961
0.745726 0.932960 0.838523
0.933806 0.936765 0.822484
0.980778 0.891836 0.742163
0.974565 0.853754 0.671868
0.970487 0.830590 0.621941
0.232734 0.916537 0.795149
0.280242 0.918482 0.789032
0.303508 0.919638 0.782023
0.429208 0.930806 0.788875
0.663597 0.954494 0.823120
0.872768 0.977088 0.852039
0.974630 0.985218 0.800005
0.967621 0.957109 0.757530
0.966070 0.948535 0.720077
0.238794 0.916735 0.795371
0.285326 0.917702 0.788277
0.309569 0.920506 0.778786
0.385225 0.927144 0.777466
0.591465 0.947146 0.801723
0.807280 0.970572 0.843199
0.931612 0.983109 0.846590
0.972676 0.985281 0.787667
0.969747 0.985040 0.770895
0.255608 0.918359 0.794309
0.293732 0.918514 0.787746
0.313283 0.920760 0.776300
0.340264 0.922170 0.766809
0.526369 0.939963 0.786715
0.745899 0.963643 0.825707
0.901701 0.980114 0.846230
0.974630 0.985890 0.796544
0.967794 0.984096 0.763750
0.072580 0.098396 0.408044
0.065351 0.094914 0.393531
0.162884 0.114305 0.449059
0.431252 0.170105 0.562923
0.738108 0.256698 0.682832
0.810211 0.309130 0.652059
0.801230 0.304418 0.597078
0.793035 0.291989 0.562640
0.777611 0.274735 0.520613
0.099512 0.136633 0.508872
0.111804 0.156957 0.551875
0.175320 0.178132 0.593199
0.514451 0.252059 0.676547
0.776969 0.297727 0.746567
0.819776 0.319853 0.691689
0.808842 0.315876 0.620910
0.796157 0.297227 0.578884
0.780541 0.276993 0.527004
0.163415 0.374984 0.647336
0.174934 0.392365 0.664692
0.168702 0.366190 0.653059
0.487161 0.381291 0.708035
0.799352 0.408147 0.796028
0.855094 0.390303 0.750283
0.833821 0.364931 0.654028
0.807473 0.321951 0.593223
0.781125 0.280315 0.525496
0.165153 0.617485 0.730462
0.166925 0.604119 0.726110
0.164791 0.586510 0.719582
0.427549 0.585558 0.754890
0.823800 0.615160 0.865259
0.934299 0.575036 0.850573
0.905021 0.538200 0.740118
0.881412 0.493825 0.679313
0.855265 0.444847 0.614602
0.000000 0.779793 0.783949
0.029331 0.776117 0.783864
0.029924 0.768109 0.780710
0.278608 0.768507 0.794586
0.768305 0.809029 0.894895
0.967346 0.788193 0.917012
0.968380 0.737987 0.821598
0.959028 0.708925 0.781610
0.954567 0.675097 0.736206
0.048591 0.880293 0.822273
0.048591 0.880293 0.822273
0.052115 0.875214 0.822051
0.179588 0.874360 0.817628
0.670463 0.914565 0.890781
0.926758 0.926758 0.926758
0.988964 0.894423 0.887266
0.990171 0.862803 0.841332
0.989414 0.839214 0.802012
0.198706 0.917893 0.843156
0.183656 0.916585 0.829398
0.174665 0.914130 0.822786
0.285316 0.921976 0.826261
0.602006 0.952795 0.873476
0.859850 0.979611 0.915757
0.978917 0.979962 0.901483
0.983830 0.956900 0.870284
0.977587 0.946424 0.837801
0.195385 0.916972 0.839473
0.173880 0.916806 0.828199
0.171344 0.913547 0.817370
0.251108 0.918428 0.814320
0.524598 0.942576 0.846442
0.781074 0.970424 0.886992
0.934139 0.987619 0.910977
0.981455 0.990278 0.875972
0.977156 0.991407 0.855738
0.190694 0.916414 0.837520
0.181703 0.914632 0.827445
0.168998 0.913604 0.814665
0.180535 0.913028 0.804504
0.453441 0.935196 0.831211
0.712655 0.961649 0.871761
0.903644 0.982980 0.903473
0.982432 0.990583 0.880410
0.980287 0.989346 0.849571
0.120986 0.160375 0.578722
0.120211 0.153735 0.572110
0.174132 0.191797 0.611618
0.499169 0.285367 0.699315
0.804656 0.373329 0.815766
0.872270 0.412820 0.812011
0.868755 0.410936 0.788093
0.863098 0.399751 0.774868
0.851972 0.382040 0.749613
0.153365 0.239897 0.632571
0.170340 0.278159 0.648024
0.170713 0.299147 0.650336
0.439070 0.377033 0.710469
0.796190 0.440169 0.827894
0.880274 0.422940 0.833137
0.875975 0.425077 0.807711
0.868172 0.408286 0.786140
0.859393 0.390854 0.761863
0.186039 0.436435 0.674200
0.178811 0.430602 0.671801
0.182535 0.419188 0.669402
0.302367 0.431460 0.694535
0.760535 0.526288 0.837762
0.898607 0.468811 0.865809
0.892165 0.466015 0.828579
0.875975 0.427094 0.797329
0.857440 0.388901 0.759910
0.166744 0.588799 0.719805
0.172230 0.574678 0.718159
0.170680 0.560392 0.710125
0.172843 0.545015 0.706527
0.702964 0.634561 0.851005
0.940703 0.617444 0.923801
0.942302 0.583813 0.878621
0.926888 0.553210 0.845332
0.908938 0.518005 0.808138
0.072951 0.750820 0.774012
0.075307 0.740441 0.769883
0.094677 0.725014 0.764247
0.120497 0.707776 0.759586
0.594359 0.748994 0.855013
0.928637 0.779339 0.952769
0.979898 0.739236 0.922015
0.976011 0.715693 0.899247
0.967242 0.687938 0.868133
0.028467 0.866754 0.816278
0.000711 0.859713 0.813964
0.000136 0.845731 0.810367
0.001123 0.836385 0.804508
0.464253 0.860907 0.859859
0.875747 0.901854 0.957497
0.989154 0.885642 0.957684
0.989567 0.866010 0.929191
0.986456 0.849777 0.909574
0.208482 0.918008 0.842625
0.208482 0.918008 0.842625
0.198706 0.917893 0.843156
0.176810 0.917383 0.843243
0.414138 0.933677 0.873581
0.795340 0.966004 0.949426
0.970703 0.970703 0.970703
0.991834 0.955594 0.950246
0.989891 0.944998 0.932804
0.208482 0.918008 0.842625
0.208482 0.918008 0.842625
0.208482 0.918008 0.842625
0.208482 0.918008 0.842625
0.349627 0.929145 0.860528
0.713230 0.966221 0.923812
0.924746 0.988422 0.957167
0.991996 0.994921 0.952918
0.990043 0.995320 0.938851
0.208482 0.918008 0.842625
0.208482 0.918008 0.842625
0.208482 0.918008 0.842625
0.208482 0.918008 0.842625
0.246799 0.920471 0.849375
0.627024 0.955854 0.903477
0.883500 0.983030 0.947488
0.991604 0.996258 0.955625
0.989066 0.995015 0.934414
0.165084 0.251952 0.642559
0.167419 0.263563 0.645179
0.169927 0.302832 0.650558
0.368680 0.388968 0.696575
0.801408 0.510692 0.845129
0.896654 0.466523 0.865586
0.902705 0.478387 0.865722
0.902705 0.478387 0.865722
0.902705 0.478387 0.865722
0.173613 0.336407 0.656469
0.174589 0.337720 0.655714
0.172636 0.335430 0.655492
0.374347 0.390502 0.699504
0.775021 0.504635 0.834165
0.899192 0.471126 0.869492
0.902705 0.478387 0.865722
0.902705 0.478387 0.865722
0.902705 0.478387 0.865722
0.182717 0.434844 0.673976
0.177642 0.424628 0.671355
0.179605 0.415922 0.668203
0.277349 0.424033 0.687031
0.733153 0.541244 0.832570
0.924543 0.542514 0.898000
0.910901 0.496192 0.872473
0.904658 0.480676 0.865946
0.902705 0.478387 0.865722
0.166945 0.582464 0.717629
0.167740 0.567785 0.714031
0.172643 0.551350 0.708703
0.173437 0.537008 0.703375
0.682637 0.627692 0.845452
0.929731 0.645686 0.927089
0.949330 0.590605 0.910882
0.946410 0.576007 0.908039
0.939775 0.562500 0.900758
0.075105 0.746775 0.772059
0.095451 0.732325 0.767398
0.111105 0.716982 0.762516
0.140058 0.697010 0.755148
0.575019 0.732778 0.843601
0.900488 0.775653 0.942781
0.983815 0.726435 0.951965
0.984025 0.708769 0.948144
0.978176 0.690906 0.944102
0.000318 0.861723 0.813212
0.000000 0.854076 0.811789
0.000000 0.841744 0.805707
0.000348 0.829074 0.801356
0.420669 0.844239 0.845828
0.845070 0.881561 0.945418
0.985247 0.877703 0.974542
0.992505 0.849880 0.970278
0.993693 0.833190 0.967433
0.208482 0.918008 0.842625
0.198706 0.917893 0.843156
0.198706 0.917893 0.843156
0.164498 0.913001 0.838136
0.344552 0.918930 0.857905
0.761140 0.950454 0.939300
0.953115 0.959415 0.980727
0.994179 0.949153 0.985832
0.992821 0.938854 0.982457
0.208482 0.918008 0.842625
0.208482 0.918008 0.842625
0.208482 0.918008 0.842625
0.208482 0.918008 0.842625
0.276317 0.924802 0.852441
0.656148 0.959509 0.919633
0.901480 0.985586 0.972829
1.000000 1.000000 1.000000
0.995700 0.998104 0.995339
0.208482 0.918008 0.842625
0.208482 0.918008 0.842625
0.208482 0.918008 0.842625
0.208482 0.918008 0.842625
0.208482 0.918008 0.842625
0.548437 0.947295 0.896676
0.845767 0.979521 0.961727
0.982604 0.996734 0.993919
0.993356 0.998161 0.992633
0.169323 0.322172 0.655356
0.173815 0.330409 0.652563
0.173613 0.336407 0.656469
0.418714 0.403821 0.711581
0.811376 0.514460 0.850989
0.901537 0.471741 0.868739
0.902705 0.478387 0.865722
0.902705 0.478387 0.865722
0.902705 0.478387 0.865722
0.172828 0.340091 0.656691
0.173815 0.330409 0.652563
0.172636 0.335430 0.655492
0.395066 0.395362 0.705808
0.784596 0.510076 0.841001
0.897832 0.460828 0.866116
0.902705 0.478387 0.865722
0.902705 0.478387 0.865722
0.902705 0.478387 0.865722
0.177834 0.429625 0.670824
0.181559 0.418212 0.668426
0.182152 0.409195 0.670465
0.287910 0.420128 0.688008
0.744105 0.535329 0.834301
0.917908 0.528670 0.892449
0.908756 0.489242 0.871050
0.902705 0.478387 0.865722
0.902705 0.478387 0.865722
0.172230 0.574678 0.718159
0.169703 0.559079 0.710880
0.169521 0.543423 0.706304
0.180484 0.526849 0.702929
0.685969 0.618289 0.842301
0.927587 0.639073 0.923938
0.948554 0.582621 0.911191
0.941920 0.569114 0.903910
0.937630 0.555215 0.901065
0.075307 0.740441 0.769883
0.105820 0.724432 0.763714
0.126952 0.705963 0.760563
0.141045 0.687328 0.751019
0.580697 0.722982 0.844887
0.902058 0.767949 0.944067
0.984409 0.718090 0.950543
0.978559 0.700227 0.946500
0.975840 0.679296 0.941481
0.000000 0.858401 0.814719
0.000721 0.848718 0.810589
0.001123 0.836385 0.804508
0.000156 0.824077 0.801887
0.423217 0.838185 0.844629
0.849570 0.877122 0.947902
0.988187 0.869301 0.975828
0.994077 0.842511 0.969832
0.994287 0.824174 0.969473
0.208482 0.918008 0.842625
0.198706 0.917893 0.843156
0.176810 0.917383 0.843243
0.153746 0.911574 0.839422
0.338301 0.914409 0.854755
0.764272 0.947050 0.940056
0.955270 0.955370 0.978774
0.992619 0.945189 0.984633
0.993998 0.933160 0.982987
0.208482 0.918008 0.842625
0.208482 0.918008 0.842625
0.208482 0.918008 0.842625
0.208482 0.918008 0.842625
0.282376 0.924664 0.854394
0.660840 0.960402 0.919855
0.906172 0.986146 0.974783
1.000000 1.000000 1.000000
1.000000 1.000000 1.000000
0.208482 0.918008 0.842625
0.208482 0.918008 0.842625
0.208482 0.918008 0.842625
0.208482 0.918008 0.842625
0.208482 0.918008 0.842625
0.554106 0.948829 0.899605
0.849482 0.979439 0.960973
0.982604 0.996734 0.993919
1.000000 1.000000 1.000000
