lut/fujifilm/F-log2/F-Log2_LUT_E_Ver.1.05/X100VI/X100VI_FLog2_FGamut_to_ETERNA-BB_BT.709_33gird_V.1.00.cube
#title:FLog2_FGamut_to_ETERNA-BB_BT.709
#FUJIFILM Corporation
#Gamma:F-Log2 to ETERNA BLEACH BYPASS
#Gamut:F-Gamut to ITU-R BT.709
#Version:1.00
LUT_3D_SIZE 33
0.000000 0.000000 0.000000
0.000000 0.000000 0.000000
0.000000 0.000000 0.000000
0.000000 0.000000 0.000000
0.013490 0.000000 0.000445
0.023458 0.003800 0.004574
0.029517 0.003661 0.006527
0.046723 0.003276 0.006220
0.056498 0.003054 0.007418
0.071549 0.006713 0.009062
0.091100 0.006608 0.009731
0.109281 0.006526 0.013859
0.136261 0.006255 0.013019
0.168125 0.010196 0.020524
0.224040 0.010599 0.025989
0.293634 0.014016 0.040019
0.370077 0.012936 0.059243
0.451209 0.013760 0.073496
0.523150 0.016448 0.093696
0.585317 0.019692 0.110965
0.629301 0.023353 0.122375
0.657258 0.023051 0.127702
0.657258 0.023051 0.127702
0.657258 0.023051 0.127702
0.657258 0.023051 0.127702
0.657258 0.023051 0.127702
0.657258 0.023051 0.127702
0.657258 0.023051 0.127702
0.657258 0.023051 0.127702
0.657258 0.023051 0.127702
0.657258 0.023051 0.127702
0.657258 0.023051 0.127702
0.657258 0.023051 0.127702
0.000000 0.000000 0.000000
0.000000 0.000000 0.000000
0.000000 0.000000 0.000000
0.000000 0.000000 0.000000
0.013490 0.000000 0.000445
0.023458 0.003800 0.004574
0.029517 0.003661 0.006527
0.043007 0.003358 0.006972
0.056498 0.003054 0.007418
0.071549 0.006713 0.009062
0.087385 0.006690 0.010484
0.109281 0.006526 0.013859
0.139585 0.007175 0.016704
0.183962 0.010507 0.020215
0.245151 0.014119 0.029586
0.315532 0.013516 0.045126
0.401355 0.013890 0.066522
0.481512 0.013737 0.079802
0.550322 0.019829 0.099246
0.605844 0.019890 0.116071
0.645136 0.022994 0.125527
0.657258 0.023051 0.127702
0.657258 0.023051 0.127702
0.657258 0.023051 0.127702
0.657258 0.023051 0.127702
0.657258 0.023051 0.127702
0.657258 0.023051 0.127702
0.657258 0.023051 0.127702
0.657258 0.023051 0.127702
0.657258 0.023051 0.127702
0.657258 0.023051 0.127702
0.657258 0.023051 0.127702
0.657258 0.023051 0.127702
0.000000 0.000000 0.000000
0.000000 0.000000 0.000000
0.000000 0.000000 0.000000
0.000000 0.000000 0.000000
0.013490 0.000000 0.000445
0.023458 0.003800 0.004574
0.029517 0.003661 0.006527
0.043007 0.003358 0.006972
0.056498 0.003054 0.007418
0.071549 0.006713 0.009062
0.091100 0.006608 0.009731
0.115342 0.006723 0.014083
0.147014 0.006675 0.016926
0.197451 0.009868 0.022390
0.265677 0.014318 0.034691
0.344465 0.013855 0.053160
0.429312 0.013587 0.071851
0.507315 0.017144 0.088813
0.573196 0.019971 0.107059
0.624025 0.019809 0.120199
0.657258 0.023051 0.127702
0.657258 0.023051 0.127702
0.657258 0.023051 0.127702
0.657258 0.023051 0.127702
0.657258 0.023051 0.127702
0.657258 0.023051 0.127702
0.657258 0.023051 0.127702
0.657258 0.023051 0.127702
0.657258 0.023051 0.127702
0.657258 0.023051 0.127702
0.657258 0.023051 0.127702
0.657258 0.023051 0.127702
0.657258 0.023051 0.127702
0.000000 0.000000 0.000000
0.000000 0.000000 0.000000
0.000000 0.000000 0.000000
0.000000 0.000000 0.000000
0.013490 0.000000 0.000445
0.023458 0.003800 0.004574
0.035578 0.003858 0.006751
0.043007 0.003358 0.006972
0.056498 0.003054 0.007418
0.073895 0.006993 0.010039
0.093446 0.006886 0.010707
0.122771 0.006559 0.012573
0.156005 0.010474 0.016618
0.210549 0.010567 0.027273
0.285228 0.013539 0.038820
0.367339 0.013995 0.060972
0.455508 0.015992 0.076426
0.532926 0.016227 0.094894
0.594699 0.020472 0.116602
0.640445 0.022435 0.123574
0.657258 0.023051 0.127702
0.657258 0.023051 0.127702
0.657258 0.023051 0.127702
0.657258 0.023051 0.127702
0.657258 0.023051 0.127702
0.657258 0.023051 0.127702
0.657258 0.023051 0.127702
0.657258 0.023051 0.127702
0.657258 0.023051 0.127702
0.657258 0.023051 0.127702
0.657258 0.023051 0.127702
0.657258 0.023051 0.127702
0.657258 0.023051 0.127702
0.000000 0.010995 0.003375
0.000000 0.010995 0.003375
0.000575 0.013981 0.003597
0.000575 0.013981 0.003597
0.014065 0.013341 0.005774
0.026186 0.013736 0.006220
0.041236 0.017061 0.009593
0.057072 0.017035 0.011015
0.070563 0.017068 0.009731
0.090697 0.019948 0.010620
0.114941 0.020400 0.013243
0.141919 0.019458 0.015863
0.181413 0.016899 0.019684
0.241628 0.019534 0.028078
0.312400 0.016920 0.044370
0.399011 0.013611 0.065546
0.483073 0.017364 0.082732
0.555013 0.019715 0.104659
0.614250 0.020365 0.117269
0.654912 0.022437 0.128457
0.657258 0.023051 0.127702
0.657258 0.023051 0.127702
0.657258 0.023051 0.127702
0.657258 0.023051 0.127702
0.657258 0.023051 0.127702
0.657258 0.023051 0.127702
0.657258 0.023051 0.127702
0.657258 0.023051 0.127702
0.657258 0.023051 0.127702
0.657258 0.023051 0.127702
0.657258 0.023051 0.127702
0.657258 0.023051 0.127702
0.657258 0.023051 0.127702
0.000172 0.026315 0.009681
0.000172 0.026315 0.009681
0.000172 0.026315 0.009681
0.000172 0.026315 0.009681
0.009746 0.033101 0.009593
0.026165 0.035390 0.014699
0.046300 0.038607 0.013859
0.058814 0.037999 0.009868
0.081295 0.040822 0.013465
0.099084 0.043424 0.013379
0.123910 0.046861 0.016223
0.157927 0.047092 0.020042
0.206805 0.046659 0.022577
0.271902 0.053841 0.037586
0.354795 0.051285 0.056055
0.438666 0.049705 0.075500
0.516677 0.040923 0.096008
0.580424 0.025804 0.109457
0.620311 0.019892 0.120954
0.654912 0.022437 0.128457
0.657258 0.023051 0.127702
0.657258 0.023051 0.127702
0.657258 0.023051 0.127702
0.657258 0.023051 0.127702
0.657258 0.023051 0.127702
0.657258 0.023051 0.127702
0.657258 0.023051 0.127702
0.657258 0.023051 0.127702
0.657258 0.023051 0.127702
0.657258 0.023051 0.127702
0.657258 0.023051 0.127702
0.657258 0.023051 0.127702
0.657258 0.023051 0.127702
0.000000 0.040994 0.013278
0.000000 0.043981 0.013499
0.000000 0.043981 0.013499
0.000000 0.043981 0.013499
0.010904 0.049397 0.016875
0.035146 0.051192 0.012573
0.051566 0.053819 0.015949
0.065248 0.058848 0.014132
0.087144 0.059357 0.014046
0.108256 0.063550 0.014183
0.132105 0.066348 0.014321
0.169446 0.067833 0.020093
0.227313 0.070863 0.024051
0.297492 0.076930 0.040035
0.382924 0.078642 0.064140
0.469523 0.086327 0.088691
0.542050 0.091328 0.112574
0.601668 0.099619 0.136235
0.641746 0.098704 0.147199
0.668545 0.081096 0.150437
0.666612 0.056480 0.145194
0.669340 0.066417 0.146840
0.670307 0.078389 0.151191
0.668947 0.067756 0.149547
0.665444 0.050844 0.143020
0.659201 0.035327 0.136491
0.657258 0.023051 0.127702
0.657258 0.023051 0.127702
0.657258 0.023051 0.127702
0.657258 0.023051 0.127702
0.657258 0.023051 0.127702
0.657258 0.023051 0.127702
0.657258 0.023051 0.127702
0.000000 0.058659 0.017098
0.000000 0.061646 0.017320
0.000000 0.061646 0.017320
0.000000 0.061646 0.017320
0.009717 0.066085 0.019718
0.037473 0.072790 0.023762
0.051546 0.075137 0.026160
0.072659 0.079329 0.026296
0.088494 0.080313 0.022528
0.113320 0.084761 0.020181
0.143623 0.086417 0.017832
0.186048 0.087796 0.019391
0.246452 0.094421 0.032445
0.324454 0.097976 0.049406
0.399717 0.102256 0.069829
0.475172 0.110859 0.093178
0.550234 0.120464 0.120968
0.610831 0.129733 0.145606
0.655198 0.141708 0.164606
0.687061 0.144976 0.175570
0.689607 0.138248 0.177832
0.688440 0.132611 0.175656
0.688440 0.132611 0.175656
0.687856 0.129961 0.173703
0.686295 0.126334 0.170773
0.685519 0.119022 0.167621
0.682399 0.111432 0.163491
0.680647 0.102809 0.161095
0.677918 0.093209 0.157720
0.670307 0.078389 0.151191
0.666612 0.056480 0.145194
0.663299 0.044230 0.139866
0.657258 0.023051 0.127702
0.000000 0.083300 0.025802
0.000000 0.083300 0.025802
0.000314 0.086287 0.026024
0.000000 0.086312 0.029484
0.020057 0.089496 0.034812
0.039014 0.096726 0.042094
0.060910 0.097235 0.042008
0.077330 0.100198 0.043652
0.099418 0.105031 0.046497
0.120337 0.105571 0.040243
0.153570 0.110158 0.040824
0.198340 0.113833 0.032976
0.261292 0.116754 0.032720
0.330495 0.121508 0.049457
0.407711 0.126733 0.077023
0.483558 0.133662 0.099398
0.556467 0.147312 0.129140
0.619993 0.160519 0.151516
0.664552 0.176146 0.176907
0.697975 0.183041 0.190801
0.704821 0.178546 0.195993
0.700723 0.169979 0.190886
0.699162 0.166352 0.187956
0.699363 0.160018 0.185781
0.696827 0.155078 0.183607
0.696242 0.152427 0.181653
0.695074 0.146790 0.179476
0.692930 0.140175 0.176324
0.691954 0.138864 0.177078
0.688440 0.132611 0.175656
0.686295 0.126334 0.170773
0.686496 0.119999 0.168598
0.682399 0.111432 0.163491
0.003225 0.109527 0.044357
0.010261 0.111036 0.043823
0.007131 0.113433 0.048263
0.010453 0.114352 0.051945
0.010453 0.115024 0.048484
0.041924 0.121647 0.051774
0.059320 0.124577 0.059586
0.084146 0.127680 0.064160
0.106234 0.132178 0.068734
0.126370 0.135729 0.066164
0.159995 0.138978 0.064039
0.210432 0.143179 0.064313
0.267323 0.145904 0.063833
0.337311 0.151343 0.057852
0.412181 0.156959 0.080980
0.491936 0.167796 0.107262
0.565428 0.184433 0.137226
0.630513 0.200594 0.165991
0.677419 0.216501 0.192359
0.712010 0.228696 0.210161
0.717294 0.220574 0.212421
0.714960 0.209636 0.206340
0.711838 0.201709 0.203941
0.708717 0.194119 0.199813
0.707549 0.188146 0.199368
0.706380 0.182845 0.195461
0.704427 0.180892 0.193508
0.700914 0.174639 0.192086
0.700723 0.169979 0.190886
0.699554 0.164341 0.188711
0.699756 0.158007 0.186536
0.695850 0.154101 0.182630
0.695074 0.146790 0.179476
0.014139 0.146583 0.064777
0.016484 0.146863 0.065754
0.016092 0.148536 0.066730
0.013544 0.154592 0.067930
0.015891 0.154535 0.070637
0.034655 0.158112 0.071527
0.057328 0.165596 0.076325
0.080786 0.169060 0.082630
0.106004 0.170825 0.084496
0.135914 0.173148 0.088316
0.166409 0.177784 0.095819
0.216060 0.186005 0.094586
0.279988 0.188896 0.100497
0.353298 0.193910 0.105121
0.428563 0.201886 0.106507
0.506756 0.211112 0.119477
0.584154 0.231319 0.155079
0.649039 0.253478 0.187751
0.696920 0.270698 0.213364
0.734834 0.284485 0.231387
0.740512 0.274689 0.232673
0.732508 0.261544 0.227121
0.729196 0.248956 0.223523
0.721977 0.232127 0.217749
0.719832 0.225849 0.212866
0.717294 0.220574 0.212421
0.713781 0.214321 0.210999
0.714960 0.209636 0.206340
0.711838 0.201709 0.203941
0.709300 0.196770 0.201766
0.709502 0.190435 0.199590
0.706380 0.182845 0.195461
0.704427 0.180892 0.193508
0.007636 0.202027 0.087597
0.002745 0.207467 0.089551
0.002935 0.212800 0.087288
0.002734 0.218461 0.092926
0.000580 0.222508 0.094880
0.000000 0.227866 0.096077
0.034788 0.227735 0.098167
0.074868 0.227827 0.103941
0.102431 0.229870 0.106785
0.138403 0.231718 0.114289
0.180041 0.236109 0.119532
0.229301 0.243316 0.133118
0.294205 0.248861 0.131352
0.369077 0.256832 0.142367
0.448246 0.266698 0.158043
0.529954 0.282847 0.168972
0.606375 0.305775 0.184563
0.675951 0.329165 0.215727
0.733407 0.352833 0.242984
0.773274 0.368573 0.262960
0.783643 0.359000 0.267929
0.772327 0.333604 0.257051
0.761786 0.315182 0.251054
0.745586 0.284568 0.237022
0.741488 0.275329 0.235378
0.734652 0.268157 0.230274
0.731924 0.258220 0.228628
0.730173 0.250269 0.222769
0.724314 0.244074 0.218641
0.721192 0.235811 0.217973
0.717677 0.229895 0.214819
0.717294 0.220574 0.212421
0.714758 0.215634 0.210246
0.000000 0.292492 0.123251
0.000311 0.304462 0.127602
0.000110 0.311134 0.128046
0.000000 0.318470 0.134660
0.000000 0.318470 0.134660
0.000110 0.311134 0.128046
0.000110 0.310798 0.129778
0.057000 0.312177 0.136218
0.097079 0.312942 0.138532
0.139109 0.314987 0.146257
0.185833 0.318262 0.152477
0.246629 0.322540 0.168016
0.311332 0.332069 0.180539
0.389717 0.346962 0.189515
0.476900 0.358306 0.210828
0.561729 0.379694 0.237999
0.647142 0.406420 0.253281
0.718287 0.428491 0.252851
0.775159 0.449509 0.278157
0.816586 0.468541 0.302792
0.832231 0.462511 0.309937
0.818378 0.431504 0.300345
0.804524 0.401504 0.285558
0.784810 0.364637 0.270105
0.773686 0.344237 0.258696
0.772327 0.333604 0.257051
0.764323 0.321131 0.248040
0.760225 0.311556 0.248125
0.753197 0.299723 0.241820
0.745778 0.289565 0.236492
0.743050 0.279628 0.234848
0.738559 0.272400 0.232449
0.734461 0.263497 0.229074
0.000012 0.418396 0.175641
0.000000 0.430394 0.183454
0.000000 0.430394 0.183454
0.000000 0.424058 0.181277
0.000000 0.421408 0.179324
0.000797 0.414376 0.177149
0.000214 0.411725 0.175196
0.009987 0.410832 0.179854
0.090145 0.412023 0.186210
0.137260 0.413961 0.189722
0.206272 0.415063 0.200070
0.273320 0.424871 0.213571
0.346823 0.432193 0.231507
0.425398 0.449395 0.253797
0.511011 0.469115 0.270363
0.600924 0.491068 0.289859
0.687897 0.518732 0.321914
0.760996 0.539732 0.339012
0.808494 0.555359 0.322425
0.849338 0.572076 0.343378
0.870650 0.568255 0.349993
0.861881 0.536467 0.339645
0.850766 0.504737 0.326590
0.832814 0.465498 0.310161
0.818378 0.431504 0.300345
0.811742 0.417997 0.293063
0.803738 0.405188 0.285781
0.800426 0.392601 0.282184
0.792814 0.378118 0.273926
0.785787 0.366286 0.267622
0.782082 0.355373 0.264999
0.773686 0.344237 0.258696
0.770374 0.331651 0.255098
0.000000 0.550623 0.249466
0.000000 0.546297 0.246536
0.000000 0.544623 0.245559
0.000096 0.538625 0.241653
0.000296 0.532627 0.237747
0.000106 0.527966 0.236546
0.000306 0.521296 0.236101
0.000000 0.522969 0.237077
0.085155 0.523382 0.242681
0.160619 0.524015 0.247083
0.233930 0.528021 0.256898
0.307040 0.537690 0.272352
0.385816 0.548557 0.292465
0.467523 0.562690 0.313778
0.553721 0.583380 0.340949
0.640311 0.604413 0.356761
0.723186 0.624856 0.376789
0.791594 0.644961 0.393663
0.844367 0.660437 0.398290
0.879754 0.666691 0.367500
0.902628 0.666832 0.375313
0.895811 0.636326 0.370379
0.884695 0.603923 0.360785
0.869482 0.562618 0.347816
0.857592 0.523240 0.333341
0.853302 0.510013 0.327035
0.845300 0.496867 0.321485
0.840617 0.484642 0.319618
0.833589 0.473146 0.311581
0.831255 0.461535 0.308961
0.827549 0.450622 0.306340
0.818961 0.434827 0.298835
0.812910 0.423299 0.296970
0.000000 0.663844 0.316762
0.000000 0.660858 0.316539
0.000000 0.656869 0.311879
0.000000 0.652545 0.308950
0.000000 0.648862 0.308727
0.000000 0.642862 0.304820
0.000199 0.636528 0.302645
0.000199 0.636528 0.302645
0.083094 0.636661 0.307270
0.181433 0.638780 0.312562
0.262756 0.644936 0.324555
0.341735 0.650813 0.335570
0.424227 0.661598 0.354930
0.505933 0.676067 0.374512
0.588034 0.688863 0.393118
0.671693 0.705958 0.411190
0.746948 0.724256 0.419414
0.813604 0.737082 0.426968
0.863447 0.748620 0.433855
0.904502 0.752041 0.428492
0.922885 0.754026 0.387183
0.921344 0.726730 0.386157
0.916289 0.693515 0.381977
0.899315 0.654246 0.371716
0.887817 0.611850 0.363185
0.884112 0.600936 0.360562
0.881776 0.588991 0.359671
0.872403 0.576542 0.354120
0.867720 0.564989 0.348792
0.865777 0.552041 0.343464
0.861679 0.543137 0.340090
0.857392 0.529910 0.333786
0.855055 0.518300 0.331163
0.000676 0.749707 0.395368
0.000091 0.747392 0.391683
0.000877 0.744379 0.388000
0.000000 0.740753 0.385071
0.000102 0.737742 0.381387
0.000000 0.733417 0.378457
0.000000 0.729092 0.375527
0.000112 0.727419 0.374551
0.128169 0.728207 0.377273
0.210277 0.732696 0.378661
0.299423 0.737014 0.388168
0.373903 0.747330 0.396699
0.455811 0.756472 0.408914
0.533612 0.767372 0.422858
0.615127 0.778525 0.434321
0.692536 0.791434 0.447512
0.766622 0.802752 0.460481
0.826633 0.813403 0.462399
0.870618 0.819752 0.459964
0.912065 0.820828 0.457086
0.936700 0.821958 0.446618
0.940625 0.804210 0.442042
0.939477 0.775239 0.440038
0.931493 0.740103 0.427738
0.916873 0.694486 0.392582
0.909262 0.681011 0.379133
0.906534 0.671410 0.375758
0.904197 0.659464 0.374866
0.899124 0.649249 0.372246
0.896395 0.639312 0.370602
0.894059 0.628038 0.366250
0.888985 0.617487 0.365360
0.884887 0.608248 0.363715
0.076858 0.816227 0.461243
0.045578 0.814266 0.459151
0.064152 0.813519 0.457113
0.049101 0.809859 0.455469
0.003355 0.807224 0.451957
0.010201 0.804745 0.446765
0.023107 0.801792 0.445258
0.002972 0.799584 0.440906
0.160355 0.800381 0.443764
0.246180 0.804452 0.446129
0.328874 0.810919 0.452931
0.405505 0.816853 0.461239
0.479009 0.826192 0.468794
0.554856 0.835811 0.477325
0.631097 0.844090 0.483149
0.704598 0.853093 0.492434
0.773801 0.860537 0.495328
0.830883 0.867249 0.499508
0.872915 0.872655 0.489931
0.908694 0.872866 0.480661
0.937436 0.871904 0.470191
0.947613 0.859350 0.465308
0.947241 0.838026 0.464727
0.944723 0.810760 0.457531
0.939669 0.778555 0.448160
0.937736 0.754612 0.439457
0.932268 0.746406 0.436083
0.929540 0.737142 0.430977
0.929156 0.728492 0.425117
0.924867 0.715602 0.417083
0.920377 0.710389 0.404300
0.917064 0.698810 0.395511
0.910430 0.687320 0.377847
0.206426 0.866544 0.530491
0.198019 0.866069 0.529293
0.197042 0.865092 0.528316
0.195482 0.862137 0.521926
0.191183 0.859905 0.518997
0.178086 0.858871 0.515843
0.177894 0.854210 0.514644
0.168903 0.851755 0.508030
0.223842 0.852191 0.507329
0.296176 0.855892 0.512708
0.365771 0.861662 0.514624
0.433997 0.867119 0.521735
0.501833 0.874923 0.526360
0.572403 0.880996 0.532715
0.643560 0.890393 0.537562
0.710025 0.898894 0.542188
0.775906 0.904409 0.546589
0.830058 0.908864 0.544379
0.875221 0.910193 0.539015
0.906309 0.910854 0.522602
0.932122 0.907972 0.504012
0.953634 0.901175 0.491145
0.950131 0.884263 0.484616
0.950735 0.864924 0.479821
0.948218 0.836987 0.476086
0.946284 0.813715 0.463922
0.946878 0.805707 0.460770
0.943363 0.800127 0.455887
0.943958 0.791445 0.456196
0.939860 0.782879 0.451089
0.941430 0.775847 0.448915
0.937332 0.766944 0.445539
0.936557 0.759633 0.442386
0.297687 0.903740 0.587886
0.297687 0.903740 0.587886
0.295342 0.903461 0.586910
0.294365 0.902821 0.584202
0.284982 0.901368 0.582027
0.285768 0.898356 0.578343
0.281469 0.896460 0.573684
0.278540 0.893195 0.572484
0.288707 0.891972 0.569247
0.343836 0.896731 0.571473
0.400334 0.900457 0.575430
0.457808 0.905496 0.578632
0.522321 0.911709 0.583035
0.587225 0.916246 0.586461
0.647629 0.923879 0.594324
0.716247 0.927999 0.598727
0.776461 0.932315 0.598468
0.823969 0.934259 0.592351
0.865416 0.936006 0.586012
0.898849 0.936274 0.574035
0.925447 0.931051 0.548300
0.950283 0.927864 0.525274
0.954008 0.917795 0.515954
0.952458 0.903172 0.509649
0.954429 0.884480 0.497930
0.950543 0.857911 0.490734
0.950745 0.852585 0.483367
0.952315 0.845553 0.481192
0.950754 0.841926 0.478262
0.947241 0.835674 0.476840
0.948811 0.829314 0.471203
0.947643 0.823677 0.469028
0.946474 0.818376 0.465121
0.364535 0.915849 0.624328
0.364535 0.915849 0.624328
0.364535 0.915849 0.624328
0.356521 0.914036 0.620422
0.356521 0.914036 0.620422
0.356521 0.914036 0.620422
0.356521 0.914036 0.620422
0.348116 0.914232 0.615762
0.341078 0.913059 0.614563
0.386825 0.916029 0.616344
0.434524 0.920617 0.621808
0.473425 0.927411 0.621859
0.531482 0.934764 0.628746
0.587589 0.940501 0.631949
0.646433 0.944842 0.635153
0.707622 0.949126 0.641063
0.764513 0.951850 0.640583
0.815735 0.953041 0.637172
0.858552 0.954089 0.630832
0.888662 0.952766 0.618633
0.915451 0.951196 0.599289
0.937942 0.948401 0.571825
0.955741 0.943032 0.552789
0.953798 0.930419 0.545731
0.955569 0.917725 0.537918
0.953826 0.900123 0.521762
0.951883 0.888519 0.509512
0.955014 0.885786 0.506804
0.952476 0.881855 0.499437
0.950916 0.878227 0.496507
0.951118 0.871892 0.494333
0.952294 0.866535 0.493132
0.953865 0.860175 0.487497
0.383885 0.919053 0.642745
0.381932 0.917436 0.639063
0.381932 0.917436 0.639063
0.381932 0.917436 0.639063
0.380562 0.918470 0.637332
0.379585 0.917493 0.636355
0.376847 0.918888 0.636355
0.372156 0.917993 0.636133
0.373526 0.917968 0.632672
0.396399 0.918782 0.637024
0.438037 0.922837 0.643997
0.482999 0.929155 0.647730
0.527959 0.935138 0.653195
0.586410 0.940817 0.659105
0.644469 0.947834 0.667723
0.701551 0.953876 0.675363
0.752965 0.959388 0.674882
0.803402 0.963255 0.676887
0.844457 0.967010 0.669792
0.878868 0.967584 0.662254
0.908978 0.966261 0.650054
0.932446 0.963771 0.627028
0.950245 0.960082 0.599340
0.955922 0.953646 0.583320
0.955932 0.943658 0.574754
0.956727 0.930324 0.564234
0.956546 0.917021 0.547548
0.954008 0.912754 0.541910
0.954792 0.909742 0.538227
0.955579 0.906729 0.534543
0.954411 0.902101 0.527176
0.953826 0.900123 0.521762
0.954611 0.897111 0.518078
0.408711 0.921148 0.652511
0.408711 0.921148 0.652511
0.408711 0.921148 0.652511
0.407734 0.920171 0.651534
0.407734 0.920171 0.651534
0.403043 0.919613 0.649581
0.401673 0.920647 0.647852
0.401673 0.920647 0.647852
0.401673 0.920647 0.647852
0.401673 0.920647 0.647852
0.434906 0.924561 0.651894
0.475176 0.928977 0.660598
0.516422 0.935378 0.665086
0.568812 0.940189 0.674233
0.619833 0.945359 0.685113
0.675547 0.951762 0.694485
0.731260 0.957827 0.705585
0.779351 0.961414 0.706613
0.825098 0.965728 0.701474
0.864784 0.969847 0.696109
0.896063 0.973825 0.687816
0.920697 0.975964 0.672157
0.942794 0.973834 0.650859
0.956879 0.970900 0.620464
0.956104 0.963588 0.617312
0.956506 0.952264 0.606040
0.957694 0.938599 0.587621
0.958087 0.937597 0.583183
0.957502 0.935619 0.577770
0.957311 0.931631 0.573109
0.955751 0.928339 0.568450
0.954189 0.925721 0.560328
0.954974 0.922709 0.556644
0.422785 0.921479 0.665293
0.422785 0.921479 0.665293
0.422785 0.921479 0.665293
0.422785 0.921479 0.665293
0.422785 0.921479 0.665293
0.422785 0.921479 0.665293
0.422785 0.921479 0.665293
0.422785 0.921479 0.665293
0.423762 0.922792 0.664539
0.416725 0.921953 0.661609
0.439205 0.925113 0.663477
0.468723 0.928774 0.670004
0.507623 0.934560 0.675247
0.552584 0.939534 0.685903
0.601261 0.944426 0.695806
0.653258 0.950574 0.707660
0.707994 0.954991 0.721246
0.752955 0.960638 0.728441
0.799677 0.964586 0.731200
0.837995 0.968728 0.729298
0.876703 0.971870 0.722958
0.905637 0.975569 0.713687
0.930271 0.978044 0.696296
0.949630 0.978317 0.669808
0.960192 0.977437 0.655211
0.957071 0.971192 0.644160
0.957081 0.961541 0.633864
0.953959 0.954958 0.624543
0.958067 0.953202 0.622812
0.957482 0.951896 0.613937
0.956899 0.949581 0.610255
0.959054 0.946208 0.604839
0.958469 0.944231 0.599426
0.422785 0.921479 0.665293
0.422785 0.921479 0.665293
0.422785 0.921479 0.665293
0.422785 0.921479 0.665293
0.422785 0.921479 0.665293
0.422785 0.921479 0.665293
0.422785 0.921479 0.665293
0.422785 0.921479 0.665293
0.422785 0.921479 0.665293
0.422785 0.921479 0.665293
0.432751 0.925581 0.669421
0.470092 0.927068 0.675196
0.502932 0.932657 0.680215
0.540463 0.937796 0.692379
0.587769 0.943049 0.704012
0.633707 0.949000 0.715644
0.682382 0.953221 0.729009
0.734381 0.959033 0.742593
0.780711 0.963310 0.753250
0.816682 0.966837 0.752102
0.854998 0.970309 0.753661
0.886277 0.973951 0.747097
0.913258 0.976033 0.734144
0.937893 0.977834 0.720215
0.956860 0.979783 0.694703
0.962729 0.979016 0.674691
0.962729 0.979016 0.674691
0.959608 0.973106 0.661911
0.960393 0.970431 0.656497
0.957463 0.968173 0.650105
0.959224 0.966137 0.647398
0.957271 0.964520 0.643714
0.959426 0.961147 0.638300
0.422785 0.921479 0.665293
0.422785 0.921479 0.665293
0.422785 0.921479 0.665293
0.422785 0.921479 0.665293
0.422785 0.921479 0.665293
0.422785 0.921479 0.665293
0.422785 0.921479 0.665293
0.422785 0.921479 0.665293
0.422785 0.921479 0.665293
0.422785 0.921479 0.665293
0.421024 0.923850 0.666270
0.455625 0.926731 0.672042
0.491203 0.930925 0.677063
0.528734 0.936064 0.689226
0.573303 0.942713 0.700859
0.618264 0.947351 0.713247
0.668308 0.951209 0.724878
0.714246 0.956824 0.738243
0.762138 0.963720 0.757020
0.802798 0.966462 0.764746
0.837400 0.970016 0.767058
0.867311 0.973347 0.765687
0.897221 0.976342 0.766047
0.922831 0.978113 0.758285
0.945121 0.979972 0.741649
0.965457 0.980887 0.717868
0.965265 0.980931 0.692440
0.961943 0.980348 0.687027
0.960967 0.980716 0.679129
0.960967 0.980716 0.679129
0.960967 0.980716 0.679129
0.963706 0.979657 0.677398
0.962729 0.978680 0.676421
0.422785 0.921479 0.665293
0.422785 0.921479 0.665293
0.422785 0.921479 0.665293
0.422785 0.921479 0.665293
0.422785 0.921479 0.665293
0.422785 0.921479 0.665293
0.422785 0.921479 0.665293
0.422785 0.921479 0.665293
0.422785 0.921479 0.665293
0.422785 0.921479 0.665293
0.422785 0.921479 0.665293
0.445849 0.926952 0.670843
0.477713 0.930893 0.678348
0.515637 0.935029 0.686074
0.555906 0.939109 0.696507
0.605558 0.944642 0.709117
0.653842 0.950873 0.721727
0.702518 0.954756 0.736821
0.750800 0.960314 0.752891
0.785987 0.965846 0.760617
0.824303 0.968981 0.763907
0.857928 0.971222 0.766973
0.888815 0.975529 0.766577
0.917749 0.978220 0.762501
