lut/fujifilm/F-Log/F-Log_LUT_E_Ver.1.27/X-T2/XT2_FLog_FGamut_to_ETERNA_BT.709_33grid_V.1.01.cube
#title:FLog_FGamut_to_ETERNA_BT.709
#FUJIFILM Corporation
#Gamma:F-Log to ETERNA
#Gamut:F-Gamut to ITU-R BT.709
#Version:1.01
LUT_3D_SIZE 33
0.007876 0.007876 0.007876
0.007021 0.007876 0.007021
0.014590 0.008730 0.007017
0.063182 0.009581 0.010408
0.109332 0.010432 0.012884
0.155421 0.010428 0.014505
0.200411 0.011218 0.016921
0.253398 0.012068 0.020065
0.313224 0.012918 0.026319
0.388983 0.013706 0.034456
0.473474 0.015348 0.046803
0.553692 0.016991 0.060556
0.634826 0.018572 0.074370
0.713519 0.020154 0.088430
0.787938 0.021736 0.101394
0.860220 0.023318 0.113442
0.929510 0.024839 0.125187
0.982378 0.027155 0.134255
0.982378 0.027155 0.134255
0.982378 0.027155 0.134255
0.982378 0.027155 0.134255
0.982378 0.027155 0.134255
0.982378 0.027155 0.134255
0.982378 0.027155 0.134255
0.982378 0.027155 0.134255
0.982378 0.027155 0.134255
0.982378 0.027155 0.134255
0.982378 0.027155 0.134255
0.982378 0.027155 0.134255
0.982378 0.027155 0.134255
0.982378 0.027155 0.134255
0.982378 0.027155 0.134255
0.982378 0.027155 0.134255
0.007021 0.007876 0.007021
0.007021 0.007876 0.007021
0.005311 0.007876 0.006168
0.047066 0.009582 0.009563
0.095780 0.010433 0.012037
0.142296 0.010429 0.013658
0.186736 0.011219 0.016135
0.237282 0.012070 0.019280
0.293993 0.012920 0.024010
0.357726 0.013708 0.030017
0.429946 0.014558 0.040050
0.507416 0.016200 0.051973
0.586109 0.017782 0.065728
0.665229 0.018570 0.079482
0.741296 0.020152 0.093238
0.813151 0.022528 0.105592
0.883235 0.024110 0.117520
0.949778 0.025631 0.128534
0.982378 0.027155 0.134255
0.982378 0.027155 0.134255
0.982378 0.027155 0.134255
0.982378 0.027155 0.134255
0.982378 0.027155 0.134255
0.982378 0.027155 0.134255
0.982378 0.027155 0.134255
0.982378 0.027155 0.134255
0.982378 0.027155 0.134255
0.982378 0.027155 0.134255
0.982378 0.027155 0.134255
0.982378 0.027155 0.134255
0.982378 0.027155 0.134255
0.982378 0.027155 0.134255
0.982378 0.027155 0.134255
0.005311 0.008731 0.006168
0.005311 0.007876 0.006168
0.005311 0.008731 0.006168
0.031011 0.008729 0.008717
0.082289 0.009579 0.011190
0.128744 0.010430 0.013666
0.172879 0.011220 0.015289
0.218480 0.011216 0.017704
0.267988 0.012067 0.022437
0.324090 0.012917 0.027045
0.391852 0.014561 0.034455
0.465476 0.015349 0.045525
0.542214 0.016991 0.057571
0.619991 0.017780 0.071753
0.697036 0.019361 0.085203
0.769379 0.020943 0.098229
0.839219 0.022526 0.110340
0.907838 0.024841 0.121414
0.970840 0.026423 0.131880
0.982378 0.027155 0.134255
0.982378 0.027155 0.134255
0.982378 0.027155 0.134255
0.982378 0.027155 0.134255
0.982378 0.027155 0.134255
0.982378 0.027155 0.134255
0.982378 0.027155 0.134255
0.982378 0.027155 0.134255
0.982378 0.027155 0.134255
0.982378 0.027155 0.134255
0.982378 0.027155 0.134255
0.982378 0.027155 0.134255
0.982378 0.027155 0.134255
0.982378 0.027155 0.134255
0.005311 0.008731 0.006168
0.005309 0.012089 0.005314
0.005311 0.008731 0.006168
0.019413 0.008730 0.007869
0.068310 0.009580 0.010405
0.113239 0.010431 0.012882
0.156458 0.010428 0.014504
0.198213 0.011218 0.016922
0.245950 0.012069 0.020069
0.296985 0.012920 0.024741
0.358703 0.013708 0.030017
0.428664 0.014558 0.039379
0.502777 0.016201 0.051365
0.578478 0.016989 0.064572
0.654851 0.018571 0.077961
0.729514 0.020153 0.091108
0.799781 0.021735 0.103341
0.868034 0.023317 0.114842
0.933234 0.025633 0.125796
0.982378 0.027155 0.134255
0.982378 0.027155 0.134255
0.982378 0.027155 0.134255
0.982378 0.027155 0.134255
0.982378 0.027155 0.134255
0.982378 0.027155 0.134255
0.982378 0.027155 0.134255
0.982378 0.027155 0.134255
0.982378 0.027155 0.134255
0.982378 0.027155 0.134255
0.982378 0.027155 0.134255
0.982378 0.027155 0.134255
0.982378 0.027155 0.134255
0.982378 0.027155 0.134255
0.000905 0.029489 0.002697
0.000000 0.048416 0.000017
0.000000 0.039624 0.000930
0.004385 0.029489 0.003550
0.053530 0.021792 0.007853
0.098647 0.012936 0.011181
0.141441 0.010429 0.013658
0.182036 0.011219 0.016138
0.226538 0.012070 0.018493
0.274703 0.012067 0.022433
0.330317 0.012917 0.027774
0.395392 0.014560 0.035124
0.467735 0.015349 0.046196
0.541726 0.016991 0.057571
0.617183 0.017780 0.071205
0.691968 0.019362 0.084290
0.762663 0.020944 0.096584
0.830306 0.022526 0.108574
0.897765 0.024109 0.119771
0.959851 0.026424 0.130055
0.982378 0.027155 0.134255
0.982378 0.027155 0.134255
0.982378 0.027155 0.134255
0.982378 0.027155 0.134255
0.982378 0.027155 0.134255
0.982378 0.027155 0.134255
0.982378 0.027155 0.134255
0.982378 0.027155 0.134255
0.982378 0.027155 0.134255
0.982378 0.027155 0.134255
0.982378 0.027155 0.134255
0.982378 0.027155 0.134255
0.982378 0.027155 0.134255
0.000000 0.064900 0.000023
0.000000 0.080347 0.000028
0.000000 0.078821 0.000027
0.000000 0.071006 0.000025
0.029458 0.063799 0.001775
0.084159 0.054148 0.005281
0.130560 0.039613 0.009523
0.171285 0.024164 0.012851
0.211215 0.012072 0.017708
0.257549 0.012068 0.020856
0.308279 0.012919 0.025528
0.369203 0.013707 0.031537
0.436905 0.014557 0.040779
0.509736 0.016200 0.052644
0.583301 0.016988 0.065180
0.656560 0.018571 0.078449
0.728842 0.020153 0.091108
0.796912 0.021735 0.102548
0.863089 0.023318 0.113807
0.927129 0.024839 0.124578
0.982378 0.027155 0.134255
0.982378 0.027155 0.134255
0.982378 0.027155 0.134255
0.982378 0.027155 0.134255
0.982378 0.027155 0.134255
0.982378 0.027155 0.134255
0.982378 0.027155 0.134255
0.982378 0.027155 0.134255
0.982378 0.027155 0.134255
0.982378 0.027155 0.134255
0.982378 0.027155 0.134255
0.982378 0.027155 0.134255
0.982378 0.027155 0.134255
0.000000 0.093230 0.000033
0.000000 0.107577 0.000038
0.000000 0.111546 0.000039
0.000000 0.104952 0.000037
0.000000 0.098236 0.000034
0.060821 0.093224 0.000912
0.114605 0.085100 0.004357
0.159722 0.075755 0.006953
0.201362 0.062625 0.011136
0.246544 0.043755 0.015255
0.293500 0.021772 0.021631
0.348569 0.013709 0.029290
0.413218 0.014559 0.037251
0.483486 0.015347 0.048812
0.555584 0.016991 0.060555
0.627989 0.017779 0.072787
0.699966 0.019361 0.085690
0.767914 0.020944 0.097802
0.833541 0.022526 0.109244
0.898253 0.024109 0.119770
0.958935 0.026424 0.129750
0.982378 0.027155 0.134255
0.982378 0.027155 0.134255
0.982378 0.027155 0.134255
0.982378 0.027155 0.134255
0.982378 0.027155 0.134255
0.982378 0.027155 0.134255
0.982378 0.027155 0.134255
0.982378 0.027155 0.134255
0.982378 0.027155 0.134255
0.982378 0.027155 0.134255
0.982378 0.027155 0.134255
0.982378 0.027155 0.134255
0.000000 0.121559 0.000042
0.000000 0.135967 0.000047
0.000000 0.144515 0.000050
0.000000 0.137982 0.000048
0.000000 0.131816 0.000046
0.036755 0.126012 0.000022
0.094016 0.120940 0.000000
0.145296 0.113243 0.001722
0.188338 0.104936 0.005235
0.234187 0.095774 0.008624
0.281564 0.085086 0.012806
0.335293 0.068292 0.018447
0.397086 0.040996 0.028537
0.461081 0.015349 0.044856
0.531836 0.016199 0.056356
0.603264 0.017781 0.068527
0.673775 0.019363 0.080943
0.742273 0.020152 0.093237
0.807534 0.021734 0.104496
0.871941 0.023317 0.115145
0.933234 0.025633 0.125796
0.982378 0.027155 0.134255
0.982378 0.027155 0.134255
0.982378 0.027155 0.134255
0.982378 0.027155 0.134255
0.982378 0.027155 0.134255
0.982378 0.027155 0.134255
0.982378 0.027155 0.134255
0.982378 0.027155 0.134255
0.982378 0.027155 0.134255
0.982378 0.027155 0.134255
0.982378 0.027155 0.134255
0.982378 0.027155 0.134255
0.000000 0.150254 0.000052
0.000000 0.164174 0.000057
0.000000 0.176507 0.000062
0.000000 0.169914 0.000059
0.000000 0.164174 0.000057
0.000000 0.159779 0.000056
0.074162 0.153911 0.000009
0.127150 0.149388 0.000000
0.174645 0.142302 0.000000
0.221469 0.135338 0.001684
0.268966 0.126908 0.005194
0.321715 0.117624 0.011083
0.382523 0.106019 0.016843
0.447973 0.091910 0.026264
0.516119 0.064309 0.042092
0.582018 0.018576 0.064570
0.652042 0.018571 0.077475
0.720295 0.020153 0.089342
0.785251 0.021736 0.100601
0.848620 0.023319 0.111373
0.910035 0.024841 0.121718
0.967909 0.026424 0.131271
0.982378 0.027155 0.134255
0.982378 0.027155 0.134255
0.982378 0.027155 0.134255
0.982378 0.027155 0.134255
0.982378 0.027155 0.134255
0.982378 0.027155 0.134255
0.982378 0.027155 0.134255
0.982378 0.027155 0.134255
0.982378 0.027155 0.134255
0.982378 0.027155 0.134255
0.982378 0.027155 0.134255
0.000000 0.178339 0.000062
0.000000 0.193602 0.000068
0.000000 0.210698 0.000073
0.000000 0.203737 0.000071
0.000000 0.197815 0.000069
0.000000 0.192809 0.000067
0.037400 0.187189 0.000043
0.111753 0.181809 0.000000
0.157659 0.178325 0.000000
0.207778 0.171971 0.000000
0.256555 0.165861 0.000000
0.308690 0.159019 0.001639
0.368946 0.151260 0.007707
0.433661 0.141426 0.015176
0.501920 0.128721 0.026245
0.570060 0.112171 0.040732
0.638451 0.086463 0.059308
0.701489 0.024123 0.084714
0.766082 0.020944 0.097803
0.828657 0.022527 0.108209
0.893308 0.024109 0.119163
0.954601 0.025631 0.129142
0.982805 0.027155 0.134255
0.982561 0.027155 0.134255
0.982378 0.027155 0.134255
0.982378 0.027155 0.134255
0.982378 0.027155 0.134255
0.982378 0.027155 0.134255
0.982378 0.027155 0.134255
0.982378 0.027155 0.134255
0.982378 0.027155 0.134255
0.982378 0.027155 0.134255
0.982378 0.027155 0.134255
0.000000 0.208866 0.000073
0.000000 0.224984 0.000078
0.000000 0.243362 0.000085
0.000000 0.239881 0.000084
0.000000 0.233410 0.000081
0.000000 0.227732 0.000079
0.000000 0.222603 0.000078
0.083109 0.217467 0.000025
0.144154 0.212211 0.000000
0.191830 0.209032 0.000000
0.243536 0.203533 0.000000
0.296646 0.198033 0.000000
0.356410 0.192167 0.000000
0.420450 0.185446 0.004207
0.488583 0.177381 0.012712
0.556841 0.166570 0.024637
0.624921 0.151790 0.041384
0.691417 0.130844 0.059291
0.757370 0.097810 0.079454
0.817058 0.022527 0.105956
0.880487 0.024110 0.116484
0.941659 0.025632 0.127012
0.983233 0.027155 0.134255
0.982989 0.027155 0.134255
0.982805 0.027155 0.134255
0.982805 0.027155 0.134255
0.982561 0.027155 0.134255
0.982378 0.027155 0.134255
0.982378 0.027155 0.134255
0.982378 0.027155 0.134255
0.982378 0.027155 0.134255
0.982378 0.027155 0.134255
0.982378 0.027155 0.134255
0.000000 0.241652 0.000084
0.000000 0.259602 0.000091
0.000000 0.280849 0.000098
0.000000 0.280544 0.000098
0.000000 0.272790 0.000095
0.000000 0.266501 0.000093
0.000000 0.261067 0.000091
0.034563 0.255630 0.000068
0.120819 0.250555 0.000014
0.179728 0.245361 0.000000
0.230456 0.242059 0.000000
0.284360 0.237475 0.000000
0.344734 0.232403 0.000000
0.408709 0.227024 0.000000
0.476409 0.220974 0.000000
0.544481 0.213826 0.008477
0.614267 0.203686 0.023882
0.683140 0.189822 0.040690
0.750735 0.169120 0.060490
0.813941 0.138834 0.080899
0.873495 0.083637 0.104111
0.930426 0.025633 0.125492
0.983660 0.027155 0.134254
0.983477 0.027155 0.134254
0.983233 0.027155 0.134255
0.982989 0.027155 0.134255
0.982805 0.027155 0.134255
0.982805 0.027155 0.134255
0.982561 0.027155 0.134255
0.982378 0.027155 0.134255
0.982378 0.027155 0.134255
0.982561 0.027155 0.134255
0.982805 0.027155 0.134255
0.000000 0.278712 0.000097
0.000000 0.300020 0.000105
0.000000 0.324319 0.000113
0.000000 0.327494 0.000114
0.000000 0.319801 0.000112
0.000000 0.312353 0.000109
0.000000 0.306369 0.000107
0.000000 0.300020 0.000105
0.078680 0.294274 0.000055
0.156086 0.288955 0.000006
0.216948 0.283699 0.000000
0.271278 0.281069 0.000000
0.333666 0.276241 0.000000
0.398069 0.271534 0.000000
0.467355 0.265728 0.000000
0.537314 0.259005 0.000000
0.606849 0.250513 0.005032
0.675781 0.240007 0.021476
0.743740 0.226144 0.040666
0.807428 0.207640 0.060469
0.868740 0.179796 0.081857
0.927070 0.133819 0.104096
0.976151 0.026423 0.132732
0.983904 0.027155 0.134254
0.983660 0.027155 0.134254
0.983477 0.027155 0.134254
0.983233 0.027155 0.134255
0.982989 0.027155 0.134255
0.982805 0.027155 0.134255
0.982561 0.027155 0.134255
0.982805 0.027155 0.134255
0.982805 0.027155 0.134255
0.982989 0.027155 0.134255
0.000000 0.322305 0.000112
0.000000 0.346177 0.000121
0.000000 0.373834 0.000130
0.000000 0.380611 0.000133
0.000000 0.371758 0.000130
0.000000 0.363638 0.000127
0.000000 0.356373 0.000124
0.000000 0.350267 0.000122
0.000000 0.344467 0.000120
0.117179 0.339023 0.000047
0.191776 0.334254 0.000000
0.251173 0.331624 0.000000
0.319604 0.326550 0.000000
0.388097 0.321782 0.000000
0.458299 0.316525 0.000000
0.529478 0.310414 0.000000
0.599376 0.302959 0.000000
0.669091 0.293489 0.000000
0.737292 0.281579 0.016689
0.800552 0.266007 0.037837
0.862472 0.246100 0.059228
0.921525 0.219171 0.080862
0.975885 0.178262 0.103288
0.990631 0.119589 0.118465
0.984332 0.027155 0.134254
0.983904 0.027155 0.134254
0.983660 0.027155 0.134254
0.983477 0.027155 0.134254
0.983233 0.027155 0.134255
0.982989 0.027155 0.134255
0.982989 0.027155 0.134255
0.983233 0.027155 0.134255
0.983233 0.027155 0.134255
0.000000 0.371392 0.000130
0.000000 0.398256 0.000139
0.000000 0.429027 0.000150
0.000000 0.439101 0.000153
0.000000 0.429332 0.000150
0.000000 0.421273 0.000147
0.000000 0.413641 0.000144
0.000000 0.406864 0.000142
0.000000 0.401003 0.000140
0.027055 0.395445 0.000121
0.152929 0.390061 0.000043
0.232898 0.385170 0.000000
0.299802 0.383516 0.000000
0.374765 0.377953 0.000000
0.448081 0.372879 0.000000
0.520725 0.367134 0.000000
0.591904 0.360473 0.000000
0.662473 0.352896 0.000000
0.730114 0.342572 0.000000
0.794402 0.329623 0.005801
0.855345 0.312280 0.030613
0.914765 0.288894 0.054997
0.970281 0.258364 0.078831
0.995519 0.219716 0.096512
0.993409 0.174231 0.107429
0.990387 0.118612 0.118465
0.984332 0.027155 0.134254
0.983904 0.027155 0.134254
0.983660 0.027155 0.134254
0.983477 0.027155 0.134254
0.983233 0.027155 0.134255
0.983477 0.027155 0.134254
0.983660 0.027155 0.134254
0.000000 0.425791 0.000149
0.000000 0.455280 0.000159
0.000000 0.487883 0.000170
0.000000 0.499972 0.000174
0.000000 0.490325 0.000171
0.000000 0.482449 0.000168
0.000000 0.474940 0.000166
0.000000 0.467796 0.000163
0.000000 0.462302 0.000161
0.000000 0.457356 0.000160
0.072935 0.452282 0.000113
0.194841 0.447754 0.000038
0.282440 0.442495 0.000000
0.354716 0.441573 0.000000
0.435112 0.435949 0.000000
0.510564 0.431241 0.000000
0.583330 0.425130 0.000000
0.653899 0.418224 0.000000
0.722089 0.408816 0.000000
0.786494 0.397088 0.000000
0.848154 0.382002 0.000000
0.907385 0.362034 0.016614
0.963024 0.336816 0.045335
0.997849 0.300671 0.069485
0.997021 0.259522 0.084189
0.995519 0.219716 0.096512
0.993409 0.174231 0.107429
0.990389 0.115560 0.119441
0.984332 0.027155 0.134254
0.983904 0.027155 0.134254
0.983660 0.027155 0.134254
0.983904 0.027155 0.134254
0.984087 0.027155 0.134254
0.000000 0.484342 0.000169
0.000000 0.515480 0.000180
0.000000 0.549365 0.000192
0.000000 0.562247 0.000196
0.000000 0.553333 0.000193
0.000000 0.544908 0.000190
0.000000 0.538924 0.000188
0.000000 0.532880 0.000186
0.000000 0.527446 0.000184
0.000000 0.522989 0.000182
0.000000 0.517983 0.000181
0.131877 0.513392 0.000099
0.246945 0.509292 0.000028
0.340039 0.504338 0.000000
0.415366 0.503843 0.000000
0.497533 0.498341 0.000000
0.572069 0.493267 0.000000
0.644041 0.487338 0.000000
0.712230 0.479334 0.000000
0.777917 0.469743 0.000000
0.839515 0.456672 0.000000
0.898002 0.439389 0.000000
0.954355 0.416550 0.000000
0.998215 0.385105 0.029025
0.998247 0.342919 0.051789
0.997848 0.301953 0.069486
0.997020 0.259705 0.084189
0.995336 0.218434 0.096512
0.993168 0.168431 0.108526
0.989541 0.102555 0.121391
0.984087 0.027155 0.134254
0.984575 0.028681 0.133644
0.990389 0.114583 0.119441
0.000000 0.545396 0.000190
0.000000 0.576595 0.000201
0.000000 0.610358 0.000213
0.000000 0.623484 0.000217
0.000000 0.616280 0.000215
0.000000 0.609747 0.000213
0.000000 0.603336 0.000210
0.000000 0.598513 0.000209
0.000000 0.593018 0.000207
0.000000 0.588561 0.000205
0.000000 0.584043 0.000204
0.000000 0.579647 0.000202
0.196983 0.575723 0.000081
0.308511 0.571683 0.000012
0.401726 0.568134 0.000000
0.477664 0.567212 0.000000
0.558488 0.562198 0.000000
0.631436 0.557185 0.000000
0.700174 0.550708 0.000000
0.765189 0.542215 0.000000
0.825931 0.531831 0.000000
0.883990 0.517417 0.000000
0.940036 0.498302 0.000000
0.991017 0.473449 0.000000
0.994701 0.430833 0.003089
0.997969 0.387120 0.027499
0.998246 0.344384 0.050508
0.997849 0.300915 0.069485
0.996779 0.255309 0.086020
0.995097 0.210619 0.098586
0.992566 0.152802 0.112063
0.992988 0.162631 0.110296
0.994676 0.199935 0.101758
0.000000 0.606267 0.000211
0.000000 0.637221 0.000222
0.000000 0.670618 0.000234
0.000000 0.686126 0.000239
0.000000 0.679410 0.000237
0.000000 0.672938 0.000235
0.000000 0.667687 0.000233
0.000000 0.662376 0.000231
0.000000 0.657369 0.000229
0.000000 0.653034 0.000228
0.000000 0.648516 0.000226
0.000000 0.644731 0.000225
0.112288 0.641302 0.000155
0.269110 0.637808 0.000059
0.374472 0.634258 0.000000
0.465184 0.630343 0.000000
0.539047 0.629970 0.000000
0.615903 0.624407 0.000000
0.686105 0.619028 0.000000
0.750509 0.611696 0.000000
0.811434 0.602838 0.000000
0.869064 0.590805 0.000000
0.925108 0.575659 0.000000
0.975843 0.555751 0.000000
0.986664 0.518873 0.000000
0.990833 0.477356 0.000000
0.994516 0.432420 0.002234
0.998215 0.385472 0.028293
0.998250 0.338950 0.053681
0.997611 0.290903 0.073757
0.996361 0.239985 0.090534
0.996181 0.235650 0.091876
0.997200 0.266299 0.082298
0.000000 0.666772 0.000233
0.000000 0.696383 0.000243
0.000000 0.727948 0.000254
0.000000 0.744921 0.000260
0.000000 0.739121 0.000258
0.000000 0.733321 0.000256
0.000000 0.727948 0.000254
0.000000 0.723002 0.000252
0.000000 0.718729 0.000251
0.000000 0.714882 0.000249
0.000000 0.710547 0.000248
0.000000 0.706640 0.000246
0.000000 0.703282 0.000245
0.218539 0.699844 0.000111
0.344778 0.696353 0.000034
0.442449 0.692925 0.000000
0.528095 0.689071 0.000000
0.596891 0.688516 0.000000
0.669840 0.683259 0.000000
0.735464 0.676842 0.000000
0.796327 0.669633 0.000000
0.853834 0.660286 0.000000
0.909450 0.647521 0.000000
0.960184 0.631887 0.000000
0.978082 0.601358 0.000000
0.982494 0.562650 0.000000
0.986663 0.520888 0.000000
0.990833 0.475708 0.000000
0.995193 0.425094 0.006567
0.998409 0.371308 0.036349
0.998020 0.318071 0.062712
0.997846 0.304151 0.068387
0.998251 0.336814 0.054352
0.000000 0.724040 0.000253
0.000000 0.752186 0.000262
0.000000 0.780332 0.000272
0.000000 0.796756 0.000278
0.000000 0.791810 0.000276
0.000000 0.786560 0.000274
0.000000 0.782408 0.000273
0.000000 0.778501 0.000272
0.000000 0.774044 0.000270
0.000000 0.770075 0.000269
0.000000 0.766473 0.000267
0.000000 0.762749 0.000266
0.000000 0.759391 0.000265
0.150696 0.756569 0.000172
0.308860 0.753747 0.000075
0.416542 0.750257 0.000009
0.506338 0.747441 0.000000
0.577271 0.746763 0.000000
0.649792 0.742910 0.000000
0.718773 0.737470 0.000000
0.780490 0.731299 0.000000
0.837814 0.722929 0.000000
0.893184 0.712301 0.000000
0.944345 0.698742 0.000000
0.969139 0.674502 0.000000
0.973426 0.641227 0.000000
0.977837 0.603251 0.000000
0.982678 0.560146 0.000000
0.987338 0.511791 0.000000
0.992367 0.458124 0.000000
0.997105 0.400246 0.020543
0.998405 0.375826 0.034213
0.996242 0.411541 0.014135
0.000000 0.776425 0.000271
0.000000 0.801030 0.000279
0.000000 0.827100 0.000288
0.000000 0.843890 0.000294
0.000000 0.839310 0.000293
0.000000 0.835037 0.000291
0.000000 0.830946 0.000290
0.000000 0.827405 0.000289
0.000000 0.823803 0.000287
0.000000 0.820201 0.000286
0.000000 0.816904 0.000285
0.000000 0.813546 0.000284
0.000000 0.810676 0.000283
0.008382 0.807867 0.000276
0.267512 0.805280 0.000118
0.388623 0.803010 0.000044
0.483119 0.800133 0.000000
0.565224 0.796706 0.000000
0.631151 0.796090 0.000000
0.699032 0.792299 0.000000
0.763802 0.786493 0.000000
0.821369 0.779345 0.000000
0.876495 0.769998 0.000000
0.928387 0.758333 0.000000
0.960565 0.739403 0.000000
0.964423 0.709975 0.000000
0.968894 0.676272 0.000000
0.973610 0.638296 0.000000
0.978757 0.594459 0.000000
0.984272 0.544333 0.000000
0.989729 0.488346 0.000000
0.992796 0.453667 0.000000
0.989729 0.489445 0.000000
0.000000 0.823559 0.000287
0.000000 0.846332 0.000295
0.000000 0.870509 0.000304
0.000000 0.887360 0.000309
0.000000 0.883330 0.000308
0.000000 0.879301 0.000307
0.000000 0.875638 0.000305
0.000000 0.872280 0.000304
0.000000 0.869166 0.000303
0.000000 0.866052 0.000302
0.000000 0.862938 0.000301
0.000000 0.860313 0.000300
0.000000 0.857688 0.000299
0.000000 0.855062 0.000298
0.218107 0.852906 0.000165
0.355700 0.850269 0.000081
0.457765 0.847879 0.000018
0.542312 0.845185 0.000000
0.618190 0.841699 0.000000
0.679478 0.840350 0.000000
0.745041 0.834971 0.000000
0.804560 0.829227 0.000000
0.860052 0.821774 0.000000
0.912554 0.811451 0.000000
0.952360 0.797222 0.000000
0.956217 0.771518 0.000000
0.960319 0.741967 0.000000
0.964851 0.707960 0.000000
0.970057 0.668518 0.000000
0.975631 0.623399 0.000000
0.981391 0.572052 0.000000
0.985805 0.529375 0.000000
0.982250 0.563565 0.000000
0.000000 0.867090 0.000302
0.000000 0.888154 0.000310
0.000000 0.910622 0.000318
0.000000 0.926984 0.000323
0.000000 0.923382 0.000322
0.000000 0.920024 0.000321
0.000000 0.916666 0.000320
0.000000 0.913796 0.000319
0.000000 0.910866 0.000318
0.000000 0.907935 0.000317
0.000000 0.905249 0.000316
0.000000 0.903051 0.000315
0.000000 0.900609 0.000314
0.000000 0.898350 0.000313
0.147400 0.896383 0.000223
0.319788 0.894353 0.000118
0.429850 0.891840 0.000050
0.519035 0.889085 0.000000
0.596134 0.885843 0.000000
0.666458 0.881746 0.000000
0.723534 0.880520 0.000000
0.786044 0.875325 0.000000
0.842573 0.869092 0.000000
0.895868 0.860479 0.000000
0.944280 0.849180 0.000000
0.947952 0.827017 0.000000
0.951870 0.800946 0.000000
0.956217 0.770602 0.000000
0.961055 0.735495 0.000000
0.966444 0.694772 0.000000
0.972263 0.649408 0.000000
0.977838 0.601786 0.000000
0.974284 0.633229 0.000000
0.000000 0.907203 0.000316
0.000000 0.926984 0.000323
0.000000 0.946399 0.000330
0.000000 0.961052 0.000335
0.000000 0.958122 0.000334
0.000000 0.955130 0.000333
0.000000 0.952627 0.000332
0.000000 0.950124 0.000331
0.000000 0.947804 0.000331
0.000000 0.945239 0.000330
0.000000 0.943408 0.000329
0.000000 0.941332 0.000328
0.000000 0.939439 0.000328
0.000000 0.937363 0.000327
0.000000 0.935715 0.000326
0.276247 0.933310 0.000158
0.398090 0.931223 0.000083
0.491182 0.928590 0.000026
0.571211 0.925957 0.000000
0.642877 0.923081 0.000000
0.709172 0.919718 0.000000
0.763135 0.917820 0.000000
0.822410 0.912503 0.000000
0.877413 0.905416 0.000000
0.925947 0.895521 0.000000
0.940056 0.877631 0.000000
0.943789 0.854430 0.000000
0.947769 0.827566 0.000000
0.952360 0.796672 0.000000
0.957870 0.760528 0.000000
0.963320 0.719133 0.000000
0.969384 0.672487 0.000000
0.966199 0.697703 0.000000
0.000000 0.943408 0.000329
0.000000 0.960625 0.000335
0.000000 0.978270 0.000341
0.000000 0.984192 0.000343
0.000000 0.984192 0.000343
0.000000 0.984009 0.000343
0.000000 0.984009 0.000343
0.000000 0.981994 0.000343
0.000000 0.980040 0.000342
0.000000 0.978270 0.000341
0.000000 0.976072 0.000340
0.000000 0.974484 0.000340
0.000000 0.972714 0.000339
0.000000 0.971187 0.000339
0.000000 0.969173 0.000338
0.223857 0.967321 0.000201
0.362426 0.965966 0.000117
0.460340 0.964614 0.000057
0.543909 0.962836 0.000006
0.617162 0.960327 0.000000
0.684738 0.957390 0.000000
0.746577 0.953477 0.000000
0.798465 0.951214 0.000000
0.855848 0.944737 0.000000
0.906396 0.936551 0.000000
0.933260 0.922812 0.000000
0.936321 0.902725 0.000000
0.940299 0.878669 0.000000
0.944523 0.850767 0.000000
0.949116 0.818469 0.000000
0.954625 0.782325 0.000000
0.960565 0.738426 0.000000
0.958054 0.757109 0.000000
0.000000 0.975156 0.000340
0.000000 0.984192 0.000343
0.000000 0.984192 0.000343
0.000000 0.984192 0.000343
0.000000 0.984192 0.000343
0.000000 0.984192 0.000343
0.000000 0.984192 0.000343
0.000000 0.984192 0.000343
0.000000 0.984192 0.000343
0.000000 0.984192 0.000343
0.000000 0.985108 0.000344
0.000000 0.986207 0.000344
0.000000 0.987489 0.000344
0.000000 0.988832 0.000345
0.000000 0.990297 0.000345
0.161277 0.992054 0.000248
0.319745 0.993749 0.000152
0.424677 0.995694 0.000089
0.512153 0.994404 0.000036
0.588885 0.992199 0.000000
0.657377 0.989629 0.000000
0.720680 0.986327 0.000000
0.780077 0.982414 0.000000
0.829829 0.979540 0.000000
0.883550 0.972881 0.000000
