lut/fujifilm/F-Log/F-Log_LUT_E_Ver.1.27/X-T2/XT2_FLog_FGamut_to_ETERNA_BT.709_33grid_V.1.01.cube
#title:FLog_FGamut_to_ETERNA_BT.709
#FUJIFILM Corporation
#Gamma:F-Log to ETERNA
#Gamut:F-Gamut to ITU-R BT.709
#Version:1.01
LUT_3D_SIZE 9
0.007876 0.007876 0.007876
0.109332 0.010432 0.012884
0.313224 0.012918 0.026319
0.634826 0.018572 0.074370
0.929510 0.024839 0.125187
0.982378 0.027155 0.134255
0.982378 0.027155 0.134255
0.982378 0.027155 0.134255
0.982378 0.027155 0.134255
0.000905 0.029489 0.002697
0.053530 0.021792 0.007853
0.226538 0.012070 0.018493
0.467735 0.015349 0.046196
0.762663 0.020944 0.096584
0.982378 0.027155 0.134255
0.982378 0.027155 0.134255
0.982378 0.027155 0.134255
0.982378 0.027155 0.134255
0.000000 0.150254 0.000052
0.000000 0.164174 0.000057
0.174645 0.142302 0.000000
0.382523 0.106019 0.016843
0.652042 0.018571 0.077475
0.910035 0.024841 0.121718
0.982378 0.027155 0.134255
0.982378 0.027155 0.134255
0.982378 0.027155 0.134255
0.000000 0.278712 0.000097
0.000000 0.319801 0.000112
0.078680 0.294274 0.000055
0.333666 0.276241 0.000000
0.606849 0.250513 0.005032
0.868740 0.179796 0.081857
0.983660 0.027155 0.134254
0.982805 0.027155 0.134255
0.982989 0.027155 0.134255
0.000000 0.484342 0.000169
0.000000 0.553333 0.000193
0.000000 0.527446 0.000184
0.246945 0.509292 0.000028
0.572069 0.493267 0.000000
0.839515 0.456672 0.000000
0.998247 0.342919 0.051789
0.993168 0.168431 0.108526
0.990389 0.114583 0.119441
0.000000 0.724040 0.000253
0.000000 0.791810 0.000276
0.000000 0.774044 0.000270
0.000000 0.759391 0.000265
0.506338 0.747441 0.000000
0.780490 0.731299 0.000000
0.969139 0.674502 0.000000
0.987338 0.511791 0.000000
0.996242 0.411541 0.014135
0.000000 0.907203 0.000316
0.000000 0.958122 0.000334
0.000000 0.947804 0.000331
0.000000 0.939439 0.000328
0.398090 0.931223 0.000083
0.709172 0.919718 0.000000
0.925947 0.895521 0.000000
0.952360 0.796672 0.000000
0.966199 0.697703 0.000000
0.000000 0.984192 0.000343
0.000000 0.984192 0.000343
0.000000 0.984192 0.000343
0.000000 0.986207 0.000344
0.151877 0.992054 0.000254
0.574049 0.999344 0.000000
0.824875 0.999933 0.000000
0.918767 0.983012 0.000000
0.936321 0.902481 0.000000
0.000000 0.984192 0.000343
0.000000 0.984192 0.000343
0.000000 0.984192 0.000343
0.000000 0.984192 0.000343
0.000000 0.988343 0.000345
0.341903 0.994175 0.000139
0.643455 0.999949 0.000000
0.893793 0.999927 0.000000
0.915342 0.999925 0.000000
0.007904 0.008735 0.054839
0.101029 0.010432 0.012034
0.302723 0.012919 0.024737
0.602226 0.017781 0.068527
0.898253 0.024109 0.119770
0.982378 0.027155 0.134255
0.982378 0.027155 0.134255
0.982378 0.027155 0.134255
0.982378 0.027155 0.134255
0.002712 0.027968 0.062665
0.031015 0.031015 0.031015
0.215428 0.011217 0.017706
0.447100 0.015350 0.042849
0.740014 0.020152 0.092811
0.982378 0.027155 0.134255
0.982378 0.027155 0.134255
0.982378 0.027155 0.134255
0.982378 0.027155 0.134255
0.000000 0.153677 0.049764
0.000000 0.171076 0.031083
0.163591 0.154147 0.000000
0.372808 0.121893 0.012763
0.639466 0.018572 0.075406
0.898741 0.024109 0.119770
0.982378 0.027155 0.134255
0.982378 0.027155 0.134255
0.982378 0.027155 0.134255
0.000000 0.288972 0.038330
0.000000 0.333172 0.002803
0.046932 0.308807 0.000079
0.323709 0.291200 0.000000
0.602505 0.265166 0.000000
0.865370 0.200554 0.075332
0.983904 0.027155 0.134254
0.982805 0.027155 0.134255
0.982989 0.027155 0.134255
0.000000 0.501498 0.000175
0.000000 0.568597 0.000198
0.000000 0.545824 0.000190
0.220383 0.529442 0.000051
0.565101 0.513354 0.000000
0.836028 0.475721 0.000000
0.998233 0.362028 0.041231
0.994011 0.188151 0.104075
0.991236 0.128991 0.116453
0.000000 0.735580 0.000257
0.000000 0.799625 0.000279
0.000000 0.783263 0.000273
0.000000 0.770991 0.000269
0.493148 0.758371 0.000000
0.774809 0.741312 0.000000
0.967546 0.687629 0.000000
0.986234 0.525895 0.000000
0.994949 0.425705 0.006568
0.000000 0.911110 0.000318
0.000000 0.960137 0.000335
0.000000 0.949879 0.000331
0.000000 0.943163 0.000329
0.374892 0.934949 0.000098
0.699342 0.925274 0.000000
0.921671 0.902726 0.000000
0.950952 0.806075 0.000000
0.964423 0.709975 0.000000
0.000000 0.980895 0.000342
0.000000 0.982910 0.000343
0.000000 0.983764 0.000343
0.000000 0.985718 0.000344
0.086988 0.991633 0.000293
0.558544 0.998918 0.000009
0.821579 0.999933 0.000000
0.917299 0.989790 0.000000
0.934668 0.914447 0.000000
0.000000 0.981811 0.000342
0.000000 0.984192 0.000343
0.000000 0.984192 0.000343
0.000000 0.984192 0.000343
0.000000 0.987733 0.000345
0.344834 0.992221 0.000137
0.624531 0.999950 0.000000
0.876396 0.999928 0.000000
0.915342 0.999925 0.000000
0.009694 0.012958 0.192001
0.081896 0.008738 0.168994
0.289472 0.012073 0.118548
0.575853 0.016989 0.064024
0.871453 0.023317 0.115145
0.982378 0.027155 0.134255
0.982378 0.027155 0.134255
0.982378 0.027155 0.134255
0.982378 0.027155 0.134255
0.008845 0.017050 0.204339
0.007113 0.021016 0.169044
0.207389 0.010435 0.150170
0.430862 0.014558 0.040050
0.723287 0.020153 0.089768
0.979692 0.026423 0.133646
0.982378 0.027155 0.134255
0.982378 0.027155 0.134255
0.982378 0.027155 0.134255
0.000052 0.149415 0.192482
0.000029 0.170355 0.169772
0.154955 0.154955 0.154955
0.367502 0.124406 0.124952
0.630308 0.018572 0.073335
0.894285 0.024109 0.119468
0.982378 0.027155 0.134255
0.982378 0.027155 0.134255
0.982378 0.027155 0.134255
0.000000 0.292038 0.201143
0.000000 0.337949 0.178685
0.000000 0.314015 0.163104
0.323124 0.297012 0.146658
0.600020 0.273045 0.034419
0.862984 0.208797 0.072222
0.983904 0.027155 0.134254
0.982989 0.027155 0.134255
0.982989 0.027155 0.134255
0.000000 0.510368 0.202990
0.000000 0.577036 0.172723
0.000000 0.554689 0.147493
0.213132 0.538001 0.130381
0.565627 0.523984 0.070375
0.831382 0.489459 0.000000
0.998405 0.375826 0.034213
0.994674 0.203476 0.100538
0.991900 0.142240 0.114136
0.000000 0.738161 0.203619
0.000000 0.800187 0.148373
0.000000 0.784798 0.110382
0.000000 0.772525 0.092668
0.493713 0.762403 0.029463
0.766015 0.750227 0.000000
0.966015 0.698741 0.000000
0.984885 0.538838 0.000000
0.994084 0.439014 0.000000
0.000000 0.908196 0.194213
0.000000 0.954954 0.085037
0.000000 0.945730 0.029094
0.000000 0.938768 0.000327
0.371291 0.934767 0.000101
0.684567 0.929305 0.000000
0.913489 0.906634 0.000000
0.949361 0.816210 0.000000
0.963075 0.721636 0.000000
0.000000 0.976264 0.111915
0.000000 0.977842 0.000341
0.000000 0.978025 0.000341
0.000000 0.979369 0.000342
0.048655 0.986202 0.000314
0.557385 0.995926 0.000009
0.807600 0.999934 0.000000
0.916321 0.993087 0.000000
0.933261 0.922384 0.000000
0.000000 0.977842 0.000341
0.000000 0.979369 0.000342
0.000000 0.979613 0.000342
0.000000 0.980284 0.000342
0.000000 0.983093 0.000343
0.353626 0.989228 0.000130
0.619343 0.998668 0.000000
0.871207 0.999929 0.000000
0.915342 0.999925 0.000000
0.011446 0.022620 0.372647
0.011416 0.019441 0.319882
0.272114 0.010440 0.284178
0.560259 0.015355 0.218966
0.848620 0.023319 0.111373
0.982378 0.027155 0.134255
0.982378 0.027155 0.134255
0.982378 0.027155 0.134255
0.982378 0.027155 0.134255
0.012307 0.023414 0.382357
0.011420 0.020235 0.326905
0.191055 0.008738 0.292471
0.425253 0.012927 0.254284
0.709619 0.019361 0.099852
0.966566 0.026424 0.131272
0.982378 0.027155 0.134255
0.982378 0.027155 0.134255
0.982378 0.027155 0.134255
0.000160 0.142897 0.367872
0.000127 0.167560 0.330933
0.134287 0.152648 0.298846
0.361977 0.126312 0.277508
0.632366 0.030188 0.254287
0.890561 0.024109 0.118493
0.982378 0.027155 0.134255
0.982378 0.027155 0.134255
0.982378 0.027155 0.134255
0.000106 0.294862 0.386490
0.000068 0.342665 0.358353
0.000056 0.320744 0.322742
0.306612 0.306612 0.306612
0.607861 0.278133 0.287183
0.865417 0.216130 0.164499
0.983904 0.027155 0.134254
0.982989 0.027155 0.134255
0.982989 0.027155 0.134255
0.000028 0.519544 0.417591
0.000000 0.585541 0.389706
0.000000 0.564780 0.354217
0.172418 0.548462 0.342565
0.564856 0.533345 0.317405
0.836405 0.497781 0.237349
0.997538 0.392126 0.025242
0.995339 0.215198 0.097732
0.992566 0.152802 0.112063
0.000000 0.739158 0.448997
0.000000 0.797645 0.412314
0.000000 0.783600 0.387027
0.000000 0.773464 0.369435
0.486643 0.764262 0.352159
0.774975 0.751837 0.282544
0.964180 0.707960 0.000000
0.983598 0.550683 0.000000
0.992980 0.451591 0.000000
0.000000 0.902600 0.460107
0.000000 0.947166 0.410046
0.000000 0.939044 0.389096
0.000000 0.933364 0.370468
0.348615 0.931501 0.355172
0.694875 0.925054 0.287111
0.910559 0.906635 0.000000
0.947953 0.823720 0.000000
0.961483 0.732748 0.000000
0.000000 0.971405 0.412375
0.000000 0.973228 0.318145
0.000000 0.973654 0.297199
0.000000 0.974079 0.266481
0.000000 0.981163 0.287552
0.564223 0.991372 0.302359
0.804752 0.999937 0.034548
0.916076 0.994552 0.000000
0.931609 0.929955 0.000000
0.000000 0.973653 0.290908
0.000000 0.975658 0.162358
0.000000 0.976082 0.130052
0.000000 0.976506 0.087792
0.000000 0.978701 0.055182
0.306261 0.985953 0.207916
0.626683 0.994840 0.224886
0.855519 0.999930 0.000000
0.915342 0.999925 0.000000
0.011595 0.050421 0.639714
0.011561 0.042418 0.577604
0.242699 0.012964 0.501483
0.545980 0.012931 0.430091
0.838849 0.020161 0.304724
0.982378 0.027155 0.134255
0.982378 0.027155 0.134255
0.982378 0.027155 0.134255
0.982378 0.027155 0.134255
0.011588 0.048467 0.626034
0.012402 0.039669 0.552991
0.152586 0.022617 0.486884
0.413160 0.010441 0.443973
0.711499 0.016210 0.381014
0.954601 0.025631 0.129142
0.982378 0.027155 0.134255
0.982378 0.027155 0.134255
0.982378 0.027155 0.134255
0.000306 0.131865 0.602069
0.000263 0.161289 0.551636
0.035579 0.148094 0.495854
0.347749 0.124742 0.470618
0.637549 0.033195 0.450501
0.899616 0.020953 0.354276
0.982378 0.027155 0.134255
0.982378 0.027155 0.134255
0.982378 0.027155 0.134255
0.000237 0.296346 0.606096
0.000195 0.347628 0.571976
0.000176 0.325950 0.525495
0.293674 0.308828 0.515540
0.609391 0.284012 0.500622
0.876693 0.218472 0.442176
0.988539 0.025636 0.226527
0.982989 0.027155 0.134255
0.982989 0.027155 0.134255
0.000152 0.526033 0.628161
0.000108 0.589649 0.601191
0.000097 0.571086 0.568940
0.028052 0.556796 0.554994
0.544417 0.544417 0.544417
0.839556 0.503298 0.506299
0.999867 0.411874 0.357771
0.995518 0.220754 0.096085
0.992745 0.159457 0.110295
0.000073 0.735633 0.648021
0.000031 0.791861 0.618117
0.000021 0.780381 0.593440
0.000016 0.771039 0.577864
0.456382 0.763367 0.581799
0.774221 0.751248 0.551617
0.986595 0.708482 0.426525
0.985178 0.574991 0.107207
0.992121 0.462215 0.000000
0.000009 0.892420 0.653511
0.000000 0.936254 0.611449
0.000000 0.929414 0.594347
0.000000 0.924162 0.578162
0.275075 0.924139 0.582392
0.686314 0.918850 0.561377
0.918349 0.900567 0.462786
0.963613 0.823495 0.257172
0.959647 0.743860 0.000000
0.000000 0.966964 0.615552
0.000000 0.968728 0.532376
0.000000 0.968971 0.521750
0.000000 0.969397 0.503551
0.000000 0.975014 0.506179
0.543055 0.986386 0.524419
0.805004 0.999117 0.453118
0.933089 0.990901 0.169492
0.931120 0.931604 0.000000
0.000000 0.969397 0.499643
0.000000 0.971405 0.413413
0.000000 0.971647 0.393016
0.000000 0.972316 0.364863
0.000000 0.972985 0.326756
0.210652 0.981396 0.382571
0.639651 0.991196 0.469582
0.861258 0.999955 0.304624
0.915586 0.999925 0.000000
0.001411 0.098737 0.893909
0.006627 0.081880 0.825441
0.144662 0.057927 0.734416
0.523063 0.010451 0.689162
0.835791 0.016217 0.597553
0.992077 0.024117 0.322892
0.982378 0.027155 0.134255
0.982378 0.027155 0.134255
0.982378 0.027155 0.134255
0.005787 0.088904 0.855551
0.008316 0.073207 0.785863
0.010834 0.058547 0.699382
0.385526 0.007898 0.676847
0.711834 0.013727 0.631704
0.961852 0.020167 0.509660
0.982378 0.027155 0.134255
0.982378 0.027155 0.134255
0.982378 0.027155 0.134255
0.000451 0.107279 0.826797
0.000401 0.148120 0.773070
0.000367 0.136331 0.707904
0.310524 0.118352 0.687007
0.636353 0.022591 0.688059
0.909126 0.017801 0.634150
0.993621 0.023326 0.353059
0.982378 0.027155 0.134255
0.982378 0.027155 0.134255
0.000359 0.290562 0.804753
0.000311 0.345202 0.763673
0.000295 0.327065 0.724338
0.222679 0.313064 0.718885
0.595972 0.286351 0.722924
0.881488 0.217455 0.700742
1.000000 0.020960 0.547744
0.983233 0.027155 0.134255
0.982989 0.027155 0.134255
0.000261 0.521041 0.805689
0.000217 0.585146 0.779818
0.000208 0.569758 0.752270
0.000203 0.558217 0.736937
0.519390 0.540406 0.745594
0.833221 0.506492 0.733483
1.000000 0.421240 0.651824
0.999942 0.313459 0.413554
0.993588 0.181558 0.105905
0.000175 0.723619 0.808630
0.000133 0.778870 0.778420
0.000125 0.769832 0.757958
0.000116 0.762810 0.737986
0.372368 0.757527 0.751132
0.749679 0.749679 0.749679
0.993967 0.703559 0.704446
0.999898 0.606836 0.550025
0.997448 0.507416 0.261988
0.000105 0.874177 0.800132
0.000064 0.918683 0.762957
0.000058 0.913370 0.749214
0.000051 0.910438 0.735106
0.000053 0.910927 0.739320
0.650355 0.906963 0.749123
0.910996 0.890148 0.714149
0.986234 0.820715 0.617284
0.978672 0.753719 0.377934
0.000052 0.963131 0.774881
0.000007 0.964957 0.700865
0.000000 0.965200 0.689995
0.000000 0.965382 0.677964
0.000000 0.967641 0.672530
0.475095 0.980727 0.691788
0.793118 0.994619 0.681768
0.962148 0.981774 0.571858
0.959137 0.924796 0.396693
0.000000 0.965870 0.668010
0.000000 0.967208 0.605475
0.000000 0.967634 0.586666
0.000000 0.968059 0.568651
0.000000 0.968546 0.541353
0.000000 0.975445 0.548439
0.615684 0.987729 0.607185
0.858499 0.999795 0.589821
0.938594 0.999947 0.294928
0.000533 0.121639 0.973491
0.000526 0.116387 0.957244
0.000512 0.108387 0.928905
0.453890 0.047107 0.899540
0.819773 0.013737 0.859245
1.000000 0.019385 0.686921
0.988311 0.024845 0.253031
0.982378 0.027155 0.134255
0.982378 0.027155 0.134255
0.000533 0.140079 0.986505
0.000532 0.121028 0.970803
0.000499 0.100325 0.900322
0.310166 0.067204 0.868489
0.694392 0.011244 0.859869
0.960256 0.017016 0.796076
1.000000 0.021749 0.482217
0.982378 0.027155 0.134255
0.982378 0.027155 0.134255
0.000539 0.129150 0.987784
0.000526 0.116754 0.958405
0.000496 0.109117 0.901852
0.207052 0.099938 0.871921
0.606452 0.009607 0.897236
0.906585 0.014585 0.874032
1.000000 0.019383 0.670005
0.989237 0.024846 0.270191
0.982378 0.027155 0.134255
0.000470 0.263712 0.969510
0.000419 0.325556 0.929225
0.000406 0.313587 0.899175
0.000393 0.301374 0.869247
0.538580 0.279533 0.901829
0.869224 0.209781 0.906734
1.000000 0.017808 0.820907
1.000000 0.021750 0.501576
0.993366 0.024118 0.334617
0.000351 0.493944 0.936368
0.000312 0.560736 0.919780
0.000304 0.551271 0.899258
0.000295 0.543576 0.879163
0.411866 0.531941 0.899001
0.804942 0.499427 0.906141
1.000000 0.406483 0.873623
1.000000 0.316533 0.660032
1.000000 0.304431 0.503506
0.000249 0.695970 0.910606
0.000220 0.752871 0.903542
0.000215 0.746887 0.891143
0.000207 0.743039 0.875630
0.050573 0.740471 0.882255
0.712848 0.730402 0.901392
0.977478 0.690998 0.885523
1.000000 0.624436 0.755469
0.999961 0.583093 0.637163
0.000174 0.843719 0.891665
0.000148 0.889936 0.882643
0.000143 0.886455 0.871038
0.000137 0.885966 0.861389
0.000134 0.886454 0.856138
0.563029 0.886895 0.881506
0.875389 0.875389 0.875389
0.999357 0.821035 0.817890
0.997789 0.768276 0.710756
0.000122 0.951784 0.883397
0.000094 0.961366 0.843889
0.000089 0.961610 0.835583
0.000084 0.961792 0.827095
0.000077 0.962035 0.815430
0.301574 0.973244 0.831007
0.746457 0.989263 0.840514
0.983470 0.969580 0.797249
0.983635 0.916152 0.728527
0.000073 0.962279 0.809263
0.000043 0.963618 0.760530
0.000034 0.963861 0.744774
0.000025 0.964287 0.730911
0.000014 0.964713 0.712774
0.000005 0.967216 0.700194
0.542937 0.982495 0.732054
0.849640 0.996148 0.777064
0.965363 0.999547 0.653390
0.000538 0.124815 0.984057
0.000532 0.120723 0.969887
0.000520 0.113333 0.946006
0.367047 0.086561 0.964951
0.779265 0.011248 0.999789
1.000000 0.016233 0.964114
1.000000 0.020173 0.627989
0.991831 0.024117 0.320877
0.991214 0.024116 0.308724
0.000531 0.144047 0.986018
0.000532 0.141544 0.986261
0.000536 0.134278 0.987114
0.000541 0.125487 0.988210
0.630856 0.040323 0.999889
0.942921 0.013737 0.999691
1.000000 0.017806 0.792571
0.996894 0.022537 0.414493
0.995781 0.023329 0.392081
0.000531 0.145451 0.985835
0.000531 0.145451 0.985835
0.000531 0.145451 0.985835
0.000537 0.131897 0.987601
0.514915 0.086551 0.999976
0.877911 0.012095 0.999730
1.000000 0.016229 0.922343
1.000000 0.020172 0.607470
1.000000 0.021749 0.489362
0.000515 0.176405 0.981876
0.000476 0.252173 0.971521
0.000471 0.262124 0.970181
0.000468 0.267436 0.969511
0.382318 0.254645 1.000000
0.823933 0.189095 0.999824
1.000000 0.015381 0.999657
1.000000 0.017805 0.777548
1.000000 0.020172 0.616997
0.000404 0.392656 0.951661
0.000358 0.480573 0.938440
0.000354 0.487961 0.937282
0.000350 0.494982 0.936124
0.017396 0.503408 0.965736
0.734565 0.475813 0.999978
1.000000 0.377432 0.999783
1.000000 0.274483 0.863928
1.000000 0.268855 0.724505
0.000292 0.607320 0.919308
0.000254 0.684797 0.911579
0.000252 0.688643 0.911092
0.000250 0.693039 0.910361
0.000247 0.697374 0.909874
0.591490 0.699342 0.974433
0.934706 0.663292 0.999922
1.000000 0.591968 0.902635
1.000000 0.567659 0.790136
0.000208 0.774118 0.899580
0.000178 0.834805 0.892395
0.000177 0.836454 0.892395
0.000176 0.838896 0.892152
0.000174 0.841582 0.891664
0.348144 0.847172 0.933471
0.821691 0.839625 0.985151
1.000000 0.799005 0.941242
1.000000 0.774026 0.849629
0.000146 0.900132 0.886188
0.000125 0.945801 0.883151
0.000124 0.947205 0.883151
0.000123 0.948792 0.883152
0.000122 0.951112 0.882909
0.000127 0.955204 0.893964
0.646302 0.961563 0.950979
0.948471 0.948471 0.948471
0.996131 0.911341 0.897314
0.000119 0.960026 0.884438
0.000120 0.960210 0.885171
0.000116 0.960453 0.878820
0.000110 0.960697 0.869721
0.000103 0.960879 0.858789
0.000094 0.961366 0.843644
0.368922 0.974096 0.859609
0.810088 0.992070 0.882676
0.983680 0.999990 0.862115
0.000539 0.128539 0.988028
0.000537 0.124509 0.981858
0.000526 0.117059 0.958649
0.317297 0.097068 0.972374
0.748256 0.010457 0.999808
1.000000 0.015380 0.993855
1.000000 0.018596 0.749273
1.000000 0.021748 0.478614
1.000000 0.021750 0.494431
0.000531 0.145451 0.985835
0.000531 0.145451 0.985835
0.000534 0.138064 0.986687
0.000537 0.131897 0.987601
0.576388 0.080868 0.999937
0.917833 0.012946 0.999706
1.000000 0.016230 0.932541
1.000000 0.020174 0.634096
1.000000 0.020173 0.627623
0.000531 0.145451 0.985835
0.000531 0.145451 0.985835
0.000531 0.145451 0.985835
0.000531 0.145451 0.985835
0.386766 0.131865 1.000000
0.829992 0.011244 0.999759
1.000000 0.014587 0.999656
1.000000 0.017809 0.832754
1.000000 0.018596 0.746402
0.000518 0.170666 0.982546
0.000492 0.221463 0.975968
0.000494 0.216640 0.976577
0.000497 0.212122 0.977247
0.107269 0.214311 0.990558
0.723285 0.161507 0.999876
1.000000 0.013732 0.999656
1.000000 0.016233 0.972603
1.000000 0.017017 0.848571
0.000435 0.332824 0.960495
0.000396 0.407981 0.949590
0.000397 0.404867 0.949772
0.000398 0.402852 0.950016
0.000398 0.402852 0.950016
0.565315 0.422894 1.000000
0.947601 0.346604 0.999804
1.000000 0.209594 0.999724
1.000000 0.212212 0.909342
0.000335 0.524593 0.931676
0.000295 0.600909 0.919306
0.000295 0.600054 0.919550
0.000295 0.600482 0.919306
0.000293 0.604878 0.919552
0.360408 0.619747 0.964469
0.828690 0.625509 0.999973
1.000000 0.534829 0.999838
1.000000 0.522978 0.924168
0.000250 0.693039 0.910361
0.000216 0.758488 0.901590
0.000215 0.760991 0.901102
0.000213 0.765021 0.900859
0.000211 0.769295 0.900311
0.000215 0.774119 0.910878
0.717509 0.785662 0.977928
0.997108 0.768605 0.999921
1.000000 0.744912 0.946292
0.000158 0.874734 0.888439
0.000138 0.916251 0.884912
0.000142 0.908741 0.885642
0.000146 0.901170 0.886189
0.000147 0.898667 0.886188
0.000145 0.902636 0.885884
0.500058 0.909190 0.939691
0.894183 0.909160 0.988613
1.000000 0.894863 0.971993
0.000119 0.960210 0.884683
0.000119 0.960210 0.884683
0.000119 0.960210 0.884683
0.000119 0.960210 0.884683
0.000119 0.960210 0.884683
0.000119 0.960210 0.884683
0.000128 0.966072 0.903861
0.734443 0.986649 0.959851
1.000000 1.000000 1.000000
