lut/fujifilm/F-Log/F-Log_LUT_E_Ver.1.27/X-T2/XT2_FLog_FGamut_to_ETERNA_BT.709_33grid_V.1.01.cube
#title:FLog_FGamut_to_ETERNA_BT.709
#FUJIFILM Corporation
#Gamma:F-Log to ETERNA
#Gamut:F-Gamut to ITU-R BT.709
#Version:1.01
LUT_3D_SIZE 5
0.007876 0.007876 0.007876
0.313224 0.012918 0.026319
0.929510 0.024839 0.125187
0.982378 0.027155 0.134255
0.982378 0.027155 0.134255
0.000000 0.150254 0.000052
0.174645 0.142302 0.000000
0.652042 0.018571 0.077475
0.982378 0.027155 0.134255
0.982378 0.027155 0.134255
0.000000 0.484342 0.000169
0.000000 0.527446 0.000184
0.572069 0.493267 0.000000
0.998247 0.342919 0.051789
0.990389 0.114583 0.119441
0.000000 0.907203 0.000316
0.000000 0.947804 0.000331
0.398090 0.931223 0.000083
0.925947 0.895521 0.000000
0.966199 0.697703 0.000000
0.000000 0.984192 0.000343
0.000000 0.984192 0.000343
0.000000 0.988343 0.000345
0.643455 0.999949 0.000000
0.915342 0.999925 0.000000
0.009694 0.012958 0.192001
0.289472 0.012073 0.118548
0.871453 0.023317 0.115145
0.982378 0.027155 0.134255
0.982378 0.027155 0.134255
0.000052 0.149415 0.192482
0.154955 0.154955 0.154955
0.630308 0.018572 0.073335
0.982378 0.027155 0.134255
0.982378 0.027155 0.134255
0.000000 0.510368 0.202990
0.000000 0.554689 0.147493
0.565627 0.523984 0.070375
0.998405 0.375826 0.034213
0.991900 0.142240 0.114136
0.000000 0.908196 0.194213
0.000000 0.945730 0.029094
0.371291 0.934767 0.000101
0.913489 0.906634 0.000000
0.963075 0.721636 0.000000
0.000000 0.977842 0.000341
0.000000 0.979613 0.000342
0.000000 0.983093 0.000343
0.619343 0.998668 0.000000
0.915342 0.999925 0.000000
0.011595 0.050421 0.639714
0.242699 0.012964 0.501483
0.838849 0.020161 0.304724
0.982378 0.027155 0.134255
0.982378 0.027155 0.134255
0.000306 0.131865 0.602069
0.035579 0.148094 0.495854
0.637549 0.033195 0.450501
0.982378 0.027155 0.134255
0.982378 0.027155 0.134255
0.000152 0.526033 0.628161
0.000097 0.571086 0.568940
0.544417 0.544417 0.544417
0.999867 0.411874 0.357771
0.992745 0.159457 0.110295
0.000009 0.892420 0.653511
0.000000 0.929414 0.594347
0.275075 0.924139 0.582392
0.918349 0.900567 0.462786
0.959647 0.743860 0.000000
0.000000 0.969397 0.499643
0.000000 0.971647 0.393016
0.000000 0.972985 0.326756
0.639651 0.991196 0.469582
0.915586 0.999925 0.000000
0.000533 0.121639 0.973491
0.000512 0.108387 0.928905
0.819773 0.013737 0.859245
0.988311 0.024845 0.253031
0.982378 0.027155 0.134255
0.000539 0.129150 0.987784
0.000496 0.109117 0.901852
0.606452 0.009607 0.897236
1.000000 0.019383 0.670005
0.982378 0.027155 0.134255
0.000351 0.493944 0.936368
0.000304 0.551271 0.899258
0.411866 0.531941 0.899001
1.000000 0.406483 0.873623
1.000000 0.304431 0.503506
0.000174 0.843719 0.891665
0.000143 0.886455 0.871038
0.000134 0.886454 0.856138
0.875389 0.875389 0.875389
0.997789 0.768276 0.710756
0.000073 0.962279 0.809263
0.000034 0.963861 0.744774
0.000014 0.964713 0.712774
0.542937 0.982495 0.732054
0.965363 0.999547 0.653390
0.000539 0.128539 0.988028
0.000526 0.117059 0.958649
0.748256 0.010457 0.999808
1.000000 0.018596 0.749273
1.000000 0.021750 0.494431
0.000531 0.145451 0.985835
0.000531 0.145451 0.985835
0.386766 0.131865 1.000000
1.000000 0.014587 0.999656
1.000000 0.018596 0.746402
0.000435 0.332824 0.960495
0.000397 0.404867 0.949772
0.000398 0.402852 0.950016
0.947601 0.346604 0.999804
1.000000 0.212212 0.909342
0.000250 0.693039 0.910361
0.000215 0.760991 0.901102
0.000211 0.769295 0.900311
0.717509 0.785662 0.977928
1.000000 0.744912 0.946292
0.000119 0.960210 0.884683
0.000119 0.960210 0.884683
0.000119 0.960210 0.884683
0.000128 0.966072 0.903861
1.000000 1.000000 1.000000
