lut/fujifilm/F-log2/F-Log2_LUT_E_Ver.1.05/X-H2S/XH2S_FLog2_FGamut_to_ETERNA_BT.709_33grid_V.1.00.cube
#title:FLog2_FGamut_to_ETERNA_BT.709
#FUJIFILM Corporation
#Gamma:F-Log2 to ETERNA
#Gamut:F-Gamut to ITU-R BT.709
#Version:1.00
LUT_3D_SIZE 9
0.006836 0.006836 0.006836
0.026387 0.006729 0.007503
0.133523 0.007314 0.014750
0.259818 0.009803 0.021910
0.513969 0.013365 0.065116
0.910442 0.019684 0.140601
0.998219 0.023690 0.155300
0.998219 0.023690 0.155300
0.998219 0.023690 0.155300
0.000373 0.019980 0.007503
0.022854 0.023475 0.007639
0.145636 0.019712 0.013379
0.304588 0.010452 0.029637
0.649254 0.016627 0.087543
0.998219 0.023690 0.155300
0.998219 0.023690 0.155300
0.998219 0.023690 0.155300
0.998219 0.023690 0.155300
0.000074 0.142651 0.010551
0.000457 0.152643 0.009489
0.154900 0.162515 0.007601
0.369174 0.167381 0.003058
0.712693 0.141896 0.072806
0.999588 0.022993 0.155300
0.999588 0.022993 0.155300
0.998219 0.023690 0.155300
0.998219 0.023690 0.155300
0.000473 0.368995 0.000489
0.000000 0.391016 0.001071
0.000846 0.388302 0.011453
0.366834 0.390414 0.017223
0.721285 0.399489 0.000274
0.999324 0.354811 0.066456
0.999815 0.227392 0.113063
0.998867 0.189397 0.122726
1.000000 0.145011 0.132921
0.000000 0.778977 0.023882
0.000000 0.767981 0.020507
0.000000 0.757653 0.023301
0.222630 0.749558 0.079546
0.679535 0.743294 0.087011
0.976350 0.720438 0.000161
0.999542 0.575582 0.000000
0.999590 0.517246 0.000335
0.998452 0.476607 0.000000
0.000117 0.965182 0.315282
0.000000 0.965215 0.309114
0.000000 0.965556 0.297755
0.000000 0.972221 0.307828
0.544408 0.969977 0.310733
0.861751 0.944294 0.244562
0.972097 0.865947 0.161536
0.982533 0.795204 0.061546
0.984716 0.767919 0.000000
0.000000 0.964782 0.371324
0.000000 0.964782 0.371324
0.000000 0.964782 0.371324
0.000000 0.967420 0.392536
0.289635 0.974473 0.450391
0.677701 0.987037 0.490067
0.940862 0.999629 0.386046
0.961810 0.977603 0.316023
0.961045 0.961313 0.299113
0.000000 0.964782 0.371324
0.000000 0.964782 0.371324
0.000000 0.964782 0.371324
0.000691 0.966729 0.382907
0.000000 0.973342 0.428036
0.583662 0.983117 0.508468
0.842314 0.994677 0.490132
0.957876 0.999625 0.358582
0.957876 0.999625 0.358582
0.000000 0.964782 0.371324
0.000000 0.964782 0.371324
0.000000 0.964782 0.371324
0.000000 0.965118 0.369593
0.000000 0.972044 0.409531
0.474381 0.978943 0.482496
0.765479 0.990708 0.506495
0.960997 0.999821 0.400781
0.957876 0.999625 0.358582
0.006836 0.006164 0.010297
0.028732 0.006673 0.010211
0.142323 0.006453 0.013243
0.271940 0.010197 0.022356
0.561084 0.013957 0.075551
0.965571 0.023098 0.149750
0.998219 0.023690 0.155300
0.998219 0.023690 0.155300
0.998219 0.023690 0.155300
0.000172 0.022955 0.026984
0.029297 0.029297 0.029297
0.154624 0.023510 0.013069
0.324138 0.010010 0.032035
0.696369 0.017220 0.097976
0.998219 0.023690 0.155300
0.998219 0.023690 0.155300
0.998219 0.023690 0.155300
0.998219 0.023690 0.155300
0.000649 0.149239 0.052218
0.000000 0.155275 0.040328
0.163306 0.159631 0.026105
0.379935 0.156806 0.003590
0.722870 0.127326 0.078305
0.999588 0.022993 0.155300
0.998219 0.023690 0.155300
0.998219 0.023690 0.155300
0.998219 0.023690 0.155300
0.000252 0.384884 0.073442
0.000000 0.385633 0.038388
0.000856 0.375627 0.016730
0.372320 0.376630 0.013847
0.727557 0.381347 0.000137
0.999736 0.327787 0.076035
0.999633 0.210056 0.117140
0.999279 0.163045 0.128844
0.999902 0.117682 0.138062
0.000000 0.770816 0.125894
0.000000 0.758274 0.054894
0.000745 0.742307 0.013535
0.247867 0.729668 0.072934
0.686593 0.725166 0.067617
0.983407 0.698613 0.000000
1.000000 0.548564 0.000000
0.999610 0.493911 0.000508
0.999447 0.452906 0.006488
0.000000 0.964497 0.337999
0.000000 0.965551 0.307383
0.000000 0.965562 0.288125
0.000308 0.973204 0.299175
0.559278 0.959997 0.297421
0.874666 0.932361 0.229297
0.974068 0.849271 0.139433
0.983732 0.778273 0.000000
0.984535 0.751256 0.000000
0.000108 0.964078 0.380954
0.000000 0.964782 0.371324
0.000000 0.964782 0.371324
0.000000 0.967084 0.394266
0.307816 0.976072 0.445866
0.690608 0.987443 0.471254
0.949470 0.999820 0.353922
0.961820 0.968288 0.303996
0.962817 0.949627 0.286110
0.000000 0.964446 0.373053
0.000000 0.964782 0.371324
0.000000 0.964782 0.371324
0.000000 0.967090 0.384636
0.000000 0.971998 0.434957
0.592068 0.983594 0.509669
0.844658 0.994956 0.491108
0.957876 0.999625 0.358582
0.957876 0.999625 0.358582
0.000000 0.964782 0.371324
0.000000 0.964782 0.371324
0.000000 0.964782 0.371324
0.000108 0.965423 0.374030
0.000000 0.971371 0.412993
0.480443 0.978805 0.484450
0.772908 0.990543 0.504988
0.960997 1.000000 0.399051
0.957876 0.999625 0.358582
0.006816 0.011015 0.105302
0.030082 0.010154 0.108675
0.156186 0.006973 0.119828
0.305746 0.009609 0.125173
0.617583 0.016676 0.084699
0.998219 0.023690 0.155300
0.998219 0.023690 0.155300
0.998219 0.023690 0.155300
0.998219 0.023690 0.155300
0.000000 0.041146 0.122880
0.014408 0.046479 0.125500
0.174731 0.035515 0.146950
0.370259 0.009772 0.160722
0.752284 0.016279 0.110364
0.998219 0.023690 0.155300
0.998219 0.023690 0.155300
0.998219 0.023690 0.155300
0.998219 0.023690 0.155300
0.000000 0.167754 0.165642
0.000000 0.174095 0.158187
0.173828 0.173828 0.173828
0.409423 0.164549 0.169061
0.749265 0.122724 0.084164
0.999588 0.022993 0.155300
0.998219 0.023690 0.155300
0.998219 0.023690 0.155300
0.998219 0.023690 0.155300
0.000968 0.429936 0.242203
0.000214 0.406348 0.202883
0.000424 0.390364 0.190410
0.389104 0.381330 0.176922
0.747289 0.374044 0.123050
0.999554 0.310115 0.081843
0.999652 0.186049 0.120773
0.999692 0.136691 0.134961
0.999741 0.076340 0.145773
0.000000 0.774499 0.340882
0.000000 0.758234 0.285458
0.000000 0.738979 0.239438
0.253717 0.721654 0.210223
0.696558 0.710113 0.170383
0.989094 0.677485 0.000000
0.999782 0.522243 0.000000
1.000000 0.468903 0.000000
0.999467 0.427554 0.017043
0.000098 0.962639 0.448355
0.000300 0.962690 0.413301
0.000000 0.964110 0.374785
0.000308 0.962450 0.354550
0.569839 0.950715 0.326086
0.884452 0.921481 0.225391
0.977018 0.833571 0.118309
0.981787 0.764318 0.000000
0.985331 0.735904 0.000000
0.000098 0.962975 0.446625
0.000000 0.963686 0.427367
0.000000 0.964060 0.409840
0.000000 0.968047 0.414500
0.323260 0.977050 0.451726
0.703121 0.988515 0.458609
0.957101 0.999371 0.319090
0.963200 0.957940 0.293699
0.964588 0.938613 0.269645
0.000000 0.963678 0.436996
0.000000 0.964358 0.423906
0.000300 0.964034 0.406379
0.000000 0.966380 0.403894
0.000000 0.971992 0.444587
0.595784 0.983175 0.510646
0.850719 0.995152 0.491332
0.957876 0.999625 0.358582
0.957876 0.999625 0.358582
0.000489 0.963318 0.435264
0.000000 0.964027 0.416008
0.000000 0.963393 0.403671
0.000000 0.963400 0.394044
0.000000 0.970363 0.418184
0.491193 0.979561 0.486624
0.775255 0.991158 0.504235
0.963341 1.000000 0.400027
0.957876 0.999625 0.358582
0.000000 0.032357 0.202925
0.006394 0.029206 0.201196
0.168087 0.016872 0.226107
0.353426 0.010645 0.268902
0.704545 0.016688 0.319132
0.999780 0.023621 0.177265
0.998219 0.023690 0.155300
0.998219 0.023690 0.155300
0.998219 0.023690 0.155300
0.000104 0.063623 0.237499
0.000000 0.068614 0.246597
0.189148 0.066294 0.293300
0.433180 0.010727 0.350559
0.812064 0.016511 0.380692
0.999972 0.022569 0.207883
0.998219 0.023690 0.155300
0.998219 0.023690 0.155300
0.998219 0.023690 0.155300
0.000000 0.206458 0.351485
0.000741 0.210079 0.364043
0.165947 0.206686 0.376531
0.451597 0.190271 0.380023
0.803158 0.143361 0.393368
0.998783 0.023126 0.293789
0.998219 0.023690 0.155300
0.998219 0.023690 0.155300
0.998219 0.023690 0.155300
0.000000 0.489553 0.503931
0.000124 0.461279 0.459948
0.000000 0.436347 0.427551
0.415039 0.415039 0.415039
0.779878 0.392549 0.396308
1.000000 0.318098 0.296300
0.999422 0.229738 0.110578
0.998887 0.165390 0.126360
0.999347 0.078013 0.146749
0.000000 0.783110 0.577305
0.000052 0.766503 0.533238
0.000000 0.745604 0.480075
0.227865 0.726172 0.460352
0.709034 0.705764 0.425617
1.000000 0.664087 0.304860
0.998584 0.519008 0.165225
1.000000 0.466893 0.000457
0.999669 0.418531 0.028711
0.000000 0.958745 0.597980
0.000000 0.958796 0.562925
0.000873 0.955500 0.525918
0.000000 0.945544 0.511184
0.568651 0.935142 0.495055
0.889909 0.905394 0.413840
0.984820 0.817091 0.311195
0.992521 0.747742 0.211208
0.991582 0.720597 0.105015
0.000280 0.959811 0.548106
0.000088 0.959519 0.524410
0.000000 0.960902 0.501691
0.000088 0.965569 0.493262
0.315821 0.975439 0.522368
0.714840 0.988136 0.532624
0.961388 0.999491 0.392883
0.971022 0.944004 0.353512
0.968111 0.926141 0.307493
0.000000 0.960179 0.540206
0.000088 0.961200 0.515758
0.000000 0.960572 0.493793
0.000000 0.964598 0.482657
0.000000 0.972233 0.503335
0.592844 0.982503 0.556082
0.856185 0.994620 0.539698
0.960997 0.999821 0.400781
0.960412 1.000000 0.383254
0.000671 0.960154 0.536746
0.000000 0.961231 0.509589
0.000000 0.961916 0.486871
0.000000 0.962290 0.469344
0.000000 0.968923 0.485586
0.482194 0.979363 0.528378
0.781114 0.989960 0.546434
0.962165 1.000000 0.430645
0.960805 0.999193 0.378816
0.000074 0.072412 0.372218
0.000276 0.068094 0.359661
0.185222 0.065558 0.393051
0.429215 0.048594 0.491497
0.801666 0.013701 0.619461
0.999720 0.019688 0.557453
0.999932 0.023195 0.444612
0.998965 0.019626 0.397001
0.999166 0.023374 0.342910
0.000035 0.106310 0.437634
0.000992 0.120539 0.490351
0.195896 0.125372 0.571048
0.530414 0.100026 0.680816
0.876719 0.016826 0.740609
0.999519 0.019639 0.592509
0.998956 0.019867 0.455750
1.000000 0.023588 0.398199
0.999559 0.023043 0.335012
0.000825 0.285611 0.660208
0.000807 0.300207 0.705028
0.017830 0.283494 0.703606
0.505251 0.257189 0.725669
0.861904 0.195815 0.748728
0.999825 0.115912 0.627098
0.998887 0.099857 0.463800
0.999941 0.019594 0.403167
0.999951 0.023722 0.321922
0.000000 0.568446 0.782790
0.000000 0.546163 0.752345
0.000822 0.513198 0.713332
0.402026 0.484831 0.732277
0.809892 0.440011 0.732804
0.999025 0.364563 0.650942
0.999477 0.324476 0.487816
0.999526 0.279582 0.419027
1.000000 0.225679 0.342648
0.000970 0.789425 0.781155
0.000789 0.778474 0.752356
0.000224 0.759547 0.714235
0.000827 0.739199 0.714629
0.714844 0.714844 0.714844
1.000000 0.659870 0.651723
1.000000 0.549431 0.510102
0.998948 0.500917 0.428755
0.999782 0.454021 0.351090
0.000653 0.941479 0.752883
0.000000 0.938200 0.728965
0.000863 0.932888 0.702340
0.000000 0.925278 0.685122
0.538136 0.914518 0.689844
0.890080 0.888019 0.648481
1.000000 0.800352 0.563054
0.999719 0.738503 0.471188
0.999950 0.710610 0.400050
0.000000 0.956589 0.694269
0.000000 0.957978 0.661922
0.000000 0.959031 0.631305
0.000000 0.961720 0.617461
0.239753 0.971964 0.636973
0.714237 0.985967 0.648172
0.970752 0.991679 0.562741
0.978240 0.930250 0.516757
0.977092 0.911025 0.464570
0.000000 0.958269 0.685618
0.000068 0.958321 0.650564
0.000000 0.959037 0.621676
0.000000 0.961428 0.593766
0.000000 0.969068 0.604816
0.575629 0.979432 0.634176
0.854998 0.993161 0.635989
0.967038 0.999827 0.521966
0.965870 0.999568 0.492102
0.000000 0.957300 0.675012
0.000461 0.958327 0.640934
0.000270 0.959044 0.612047
0.000078 0.959760 0.583161
0.000000 0.966430 0.583606
0.454811 0.977179 0.611441
0.781296 0.989821 0.632340
0.967621 0.999790 0.537762
0.966262 0.999574 0.482472
0.000178 0.132675 0.627023
0.000963 0.131680 0.612957
0.174554 0.142016 0.678387
0.510403 0.157935 0.812039
0.889708 0.107216 0.943551
1.000000 0.105214 0.852554
1.000000 0.109386 0.745883
0.999844 0.076446 0.710333
1.000000 0.023829 0.671715
0.000310 0.185830 0.738456
0.001057 0.215036 0.808840
0.000444 0.234617 0.872386
0.552335 0.242709 0.993683
0.921322 0.166753 0.999525
1.000000 0.121459 0.894890
1.000000 0.121009 0.771223
1.000000 0.090085 0.725290
0.999892 0.026175 0.669231
0.000086 0.416537 0.930292
0.000066 0.436847 0.945696
0.000000 0.414514 0.950306
0.432960 0.379720 0.995343
0.876043 0.306438 0.998664
1.000000 0.224435 0.923758
0.999928 0.196675 0.776344
1.000000 0.143095 0.717492
0.999864 0.063866 0.655129
0.000513 0.609223 0.913567
0.000000 0.600904 0.915605
0.001116 0.588203 0.917422
0.109834 0.562695 0.960649
0.786328 0.513805 0.988585
0.999531 0.405772 0.934275
0.999791 0.363041 0.759566
0.999638 0.322801 0.701605
0.999487 0.283570 0.638454
0.000000 0.759970 0.876417
0.000396 0.756286 0.876195
0.000597 0.749280 0.877481
0.000000 0.737264 0.898554
0.636601 0.718921 0.933329
0.989158 0.656374 0.913211
0.999605 0.586063 0.751012
0.999443 0.555474 0.703347
0.999090 0.520560 0.652755
0.000088 0.897346 0.844547
0.000088 0.897346 0.844547
0.000000 0.892350 0.845078
0.000000 0.885051 0.822668
0.392089 0.883856 0.862430
0.860352 0.860352 0.860352
1.000000 0.795989 0.790688
1.000000 0.745427 0.725891
0.999116 0.719195 0.674989
0.000824 0.952670 0.840433
0.000633 0.953387 0.811548
0.001025 0.955745 0.789805
0.000000 0.954142 0.766864
0.000000 0.966132 0.784305
0.678046 0.983206 0.800145
0.974256 0.970951 0.763082
0.990342 0.914994 0.717766
0.992515 0.896016 0.672722
0.000000 0.953038 0.832535
0.000000 0.953754 0.803649
0.000000 0.955144 0.771301
0.000000 0.956869 0.737223
0.000000 0.963210 0.729769
0.517350 0.978223 0.750425
0.848525 0.993104 0.764624
0.976199 1.000000 0.685348
0.973078 0.999162 0.646610
0.000000 0.955055 0.822153
0.000049 0.953761 0.794020
0.000000 0.955150 0.761672
0.000000 0.956538 0.729325
0.000000 0.960235 0.710288
0.368966 0.973254 0.728308
0.771893 0.988177 0.751125
0.977176 0.999999 0.691515
0.974448 1.000000 0.637957
0.000452 0.223958 0.867282
0.000654 0.219640 0.854723
0.000000 0.256885 0.922090
0.473500 0.296804 0.999012
0.879777 0.282687 0.999814
1.000000 0.251320 1.000000
1.000000 0.248011 0.982336
1.000000 0.236388 0.956996
1.000000 0.217758 0.932941
0.000000 0.313154 0.967098
0.000528 0.350477 0.960895
0.000114 0.376830 0.954777
0.286702 0.400330 0.998702
0.812640 0.375194 0.999382
0.999638 0.264997 0.999246
0.999638 0.264997 0.999246
1.000000 0.244358 0.975945
0.998902 0.221436 0.942793
0.000000 0.481872 0.938206
0.000000 0.474866 0.939492
0.000822 0.468836 0.941755
0.000238 0.463496 0.953644
0.710510 0.465151 1.000000
0.999801 0.304659 1.000000
1.000000 0.302985 0.999211
1.000000 0.264674 0.981718
0.999878 0.223420 0.938579
0.000916 0.594874 0.917868
0.000533 0.585216 0.917198
0.000150 0.574551 0.921723
0.000000 0.564893 0.921055
0.579627 0.570426 0.999313
0.983616 0.486026 0.999653
0.999311 0.424686 0.991652
1.000000 0.386393 0.945273
0.999388 0.348824 0.902355
0.000415 0.731944 0.881558
0.000000 0.722953 0.887060
0.000042 0.709276 0.887898
0.000052 0.696600 0.893175
0.342191 0.685496 0.952452
0.883955 0.663266 0.999460
1.000000 0.594387 0.954109
1.000000 0.566114 0.910130
0.999433 0.535550 0.865926
0.000000 0.875014 0.849157
0.000701 0.863987 0.851948
0.000000 0.850671 0.854520
0.000000 0.833671 0.856868
0.000136 0.828592 0.898621
0.750879 0.822951 0.980269
1.000000 0.777371 0.962141
1.000000 0.751153 0.891980
0.999469 0.729239 0.853638
0.000823 0.951662 0.845625
0.000823 0.951662 0.845625
0.000000 0.951022 0.842918
0.000000 0.951022 0.842918
0.000623 0.955645 0.859914
0.541381 0.961726 0.935105
0.942383 0.942383 0.942383
0.998730 0.904862 0.893571
1.000000 0.886879 0.862594
0.000823 0.951662 0.845625
0.000823 0.951662 0.845625
0.000823 0.951662 0.845625
0.000823 0.951662 0.845625
0.000000 0.952359 0.845625
0.323001 0.970378 0.880813
0.813512 0.989017 0.894633
0.987315 1.000000 0.859337
0.986540 0.999917 0.821574
0.000823 0.951662 0.845625
0.000823 0.951662 0.845625
0.000823 0.951662 0.845625
0.000823 0.951662 0.845625
0.000000 0.952695 0.843894
0.000029 0.964662 0.857876
0.719675 0.985821 0.874520
0.987315 1.000000 0.859337
0.983217 1.000000 0.812700
0.001323 0.334454 0.964220
0.000000 0.344167 0.962180
0.000306 0.381491 0.955978
0.163520 0.419116 0.985204
0.791088 0.431012 0.999794
0.999609 0.299999 0.998988
1.000000 0.319314 1.000000
1.000000 0.319314 1.000000
1.000000 0.319314 1.000000
0.000000 0.407843 0.949860
0.000679 0.403823 0.951367
0.000679 0.403823 0.951367
0.197536 0.420019 0.985564
0.756285 0.433794 0.999657
1.000000 0.307646 1.000000
1.000000 0.319314 1.000000
1.000000 0.319314 1.000000
1.000000 0.319314 1.000000
0.000621 0.476179 0.938738
0.000822 0.469173 0.940024
0.000000 0.462863 0.941309
0.000630 0.460479 0.959589
0.686258 0.476031 1.000000
1.000000 0.389317 0.999808
1.000000 0.335978 0.999708
1.000000 0.324310 0.999794
1.000000 0.319314 1.000000
0.001116 0.588203 0.917422
0.000735 0.578210 0.918484
0.000000 0.566904 0.920301
0.000362 0.555877 0.923095
0.575721 0.565847 0.998868
0.948201 0.520822 0.999035
0.999885 0.437659 1.000000
1.000000 0.422308 1.000000
1.000000 0.407990 0.998439
0.000224 0.725940 0.887282
0.000234 0.714273 0.887367
0.000637 0.700258 0.889938
0.001039 0.685574 0.895969
0.337118 0.674273 0.955024
0.838985 0.667942 0.999102
0.999174 0.586346 0.999102
0.999385 0.568009 0.998742
0.999988 0.547325 1.000000
0.000000 0.867670 0.852172
0.000000 0.856003 0.852257
0.000721 0.839643 0.857313
0.001123 0.825631 0.859883
0.000000 0.811929 0.899239
0.710428 0.800862 0.977375
0.999611 0.764005 0.999765
1.000000 0.731990 1.000000
0.999459 0.712676 0.998911
0.000823 0.951662 0.845625
0.000000 0.952695 0.843894
0.000823 0.951998 0.843894
0.000000 0.951358 0.841188
0.000049 0.941999 0.854586
0.494677 0.934780 0.930789
0.895669 0.917022 0.989894
1.000000 0.888324 1.000000
1.000000 0.871997 0.999215
0.000823 0.951662 0.845625
0.000823 0.951662 0.845625
0.000823 0.951662 0.845625
0.000823 0.951662 0.845625
0.000823 0.951662 0.845625
0.000412 0.965916 0.901804
0.749181 0.986026 0.958831
1.000000 1.000000 1.000000
0.997070 0.999423 0.984957
0.000823 0.951662 0.845625
0.000823 0.951662 0.845625
0.000823 0.951662 0.845625
0.000823 0.951662 0.845625
0.000823 0.951662 0.845625
0.000029 0.960629 0.878642
0.630125 0.979721 0.943774
0.959338 0.997594 0.990544
0.993747 0.999511 0.976082
0.000096 0.400836 0.951144
0.000096 0.400836 0.951144
0.000679 0.403823 0.951367
0.269871 0.423385 0.992672
0.811424 0.427221 1.000000
1.000000 0.307646 1.000000
1.000000 0.319314 1.000000
1.000000 0.319314 1.000000
1.000000 0.319314 1.000000
0.000679 0.404159 0.949636
0.000096 0.400836 0.951144
0.000679 0.403823 0.951367
0.238592 0.421423 0.990583
0.773489 0.433407 0.999347
0.999609 0.299999 0.998988
1.000000 0.319314 1.000000
1.000000 0.319314 1.000000
1.000000 0.319314 1.000000
0.000429 0.471518 0.937539
0.000238 0.465849 0.941530
0.000832 0.456833 0.943572
0.000439 0.454810 0.963582
0.699556 0.471067 0.999347
0.999551 0.369666 1.000000
1.000000 0.329306 0.999262
1.000000 0.319650 0.998593
1.000000 0.319314 1.000000
0.000000 0.581893 0.918708
0.000935 0.570532 0.923231
0.000000 0.559561 0.923316
0.000561 0.548534 0.926109
0.586090 0.556946 1.000000
0.954271 0.509352 0.999344
0.999109 0.430012 0.999020
0.999904 0.414325 1.000000
1.000000 0.398974 1.000000
0.000426 0.719270 0.886836
0.000000 0.705617 0.891137
0.000000 0.691940 0.891977
0.000264 0.677254 0.898007
0.359607 0.665429 0.958707
0.845054 0.656472 0.999409
1.000000 0.575657 1.000000
0.999395 0.556342 0.998828
1.000000 0.538980 0.999446
0.000116 0.861001 0.851727
0.000520 0.846987 0.854297
0.000000 0.831326 0.859352
0.000000 0.814325 0.861700
0.000548 0.802912 0.901277
0.723535 0.790566 0.978883
1.000000 0.750328 1.000000
1.000000 0.720323 1.000000
0.999469 0.701009 0.998997
0.000823 0.951662 0.845625
0.000000 0.951022 0.842918
0.000000 0.951358 0.841188
0.000049 0.944687 0.840743
0.000643 0.933318 0.854895
0.508369 0.926797 0.935980
0.905062 0.907145 0.990426
0.999323 0.875681 0.999438
0.999141 0.859017 1.000000
0.000823 0.951662 0.845625
0.000823 0.951662 0.845625
0.000823 0.951662 0.845625
0.000823 0.951662 0.845625
0.000823 0.951662 0.845625
0.000018 0.967926 0.901051
0.756219 0.987199 0.960032
1.000000 1.000000 1.000000
0.997070 0.997070 0.997070
0.000823 0.951662 0.845625
0.000823 0.951662 0.845625
0.000823 0.951662 0.845625
0.000823 0.951662 0.845625
0.000823 0.951662 0.845625
0.000000 0.961966 0.881347
0.637162 0.980894 0.944972
0.961684 0.998209 0.989789
1.000000 1.000000 1.000000
