lut/fujifilm/F-log2/F-Log2_LUT_E_Ver.1.05/X-H2S/XH2S_FLog2_FGamut_to_ETERNA_BT.709_33grid_V.1.00.cube
#title:FLog2_FGamut_to_ETERNA_BT.709
#FUJIFILM Corporation
#Gamma:F-Log2 to ETERNA
#Gamut:F-Gamut to ITU-R BT.709
#Version:1.00
LUT_3D_SIZE 33
0.006836 0.006836 0.006836
0.006836 0.006836 0.006836
0.006836 0.006836 0.006836
0.006836 0.006836 0.006836
0.026387 0.006729 0.007503
0.056689 0.007379 0.010348
0.077609 0.006911 0.009285
0.105566 0.006944 0.012882
0.133523 0.007314 0.014750
0.159719 0.010727 0.014132
0.191391 0.010679 0.016976
0.224431 0.009933 0.019820
0.259818 0.009803 0.021910
0.298527 0.010928 0.025953
0.355810 0.009962 0.034880
0.429121 0.013632 0.046426
0.513969 0.013365 0.065116
0.605461 0.016954 0.080792
0.704776 0.017361 0.100906
0.806044 0.020393 0.119512
0.910442 0.019684 0.140601
0.998219 0.023690 0.155300
0.998219 0.023690 0.155300
0.998219 0.023690 0.155300
0.998219 0.023690 0.155300
0.998219 0.023690 0.155300
0.998219 0.023690 0.155300
0.998219 0.023690 0.155300
0.998219 0.023690 0.155300
0.998219 0.023690 0.155300
0.998219 0.023690 0.155300
0.998219 0.023690 0.155300
0.998219 0.023690 0.155300
0.006836 0.006836 0.006836
0.006836 0.006836 0.006836
0.006836 0.006836 0.006836
0.006836 0.006836 0.006836
0.026387 0.006729 0.007503
0.051998 0.006484 0.010126
0.077609 0.006911 0.009285
0.105566 0.006944 0.012882
0.131762 0.010022 0.013996
0.159719 0.010727 0.014132
0.191391 0.010679 0.016976
0.224431 0.009933 0.019820
0.262164 0.010082 0.022886
0.312017 0.010288 0.028129
0.380052 0.010413 0.037500
0.458055 0.013970 0.054460
0.547986 0.012924 0.072399
0.644170 0.017408 0.088296
0.746223 0.016418 0.108411
0.852182 0.020345 0.127238
0.955795 0.023320 0.148550
0.998219 0.023690 0.155300
0.998219 0.023690 0.155300
0.998219 0.023690 0.155300
0.998219 0.023690 0.155300
0.998219 0.023690 0.155300
0.998219 0.023690 0.155300
0.998219 0.023690 0.155300
0.998219 0.023690 0.155300
0.998219 0.023690 0.155300
0.998219 0.023690 0.155300
0.998219 0.023690 0.155300
0.998219 0.023690 0.155300
0.006836 0.006836 0.006836
0.006836 0.006836 0.006836
0.006836 0.006836 0.006836
0.006836 0.006836 0.006836
0.026387 0.006729 0.007503
0.051998 0.006484 0.010126
0.077609 0.006911 0.009285
0.105566 0.006944 0.012882
0.131762 0.010022 0.013996
0.159719 0.010727 0.014132
0.192760 0.009982 0.016976
0.230492 0.010130 0.020042
0.274284 0.010476 0.023332
0.332545 0.010486 0.033234
0.403510 0.013877 0.043805
0.485036 0.013363 0.055351
0.580635 0.013852 0.076219
0.681902 0.016547 0.096554
0.787862 0.020137 0.117113
0.896558 0.023005 0.134211
0.998219 0.023690 0.155300
0.998219 0.023690 0.155300
0.998219 0.023690 0.155300
0.998219 0.023690 0.155300
0.998219 0.023690 0.155300
0.998219 0.023690 0.155300
0.998219 0.023690 0.155300
0.998219 0.023690 0.155300
0.998219 0.023690 0.155300
0.998219 0.023690 0.155300
0.998219 0.023690 0.155300
0.998219 0.023690 0.155300
0.998219 0.023690 0.155300
0.006836 0.006836 0.006836
0.006836 0.006836 0.006836
0.006836 0.006836 0.006836
0.006836 0.006836 0.006836
0.026387 0.006729 0.007503
0.051998 0.006484 0.010126
0.077609 0.006911 0.009285
0.105566 0.006608 0.014613
0.133523 0.007314 0.014750
0.164803 0.009949 0.013379
0.198821 0.010179 0.017200
0.241245 0.010550 0.023949
0.286407 0.010198 0.027239
0.347404 0.009821 0.031950
0.425406 0.014050 0.045449
0.513969 0.013365 0.065116
0.613868 0.017094 0.083722
0.720612 0.016664 0.105789
0.827940 0.020230 0.122887
0.941328 0.022982 0.145398
0.998219 0.023690 0.155300
0.998219 0.023690 0.155300
0.998219 0.023690 0.155300
0.998219 0.023690 0.155300
0.998219 0.023690 0.155300
0.998219 0.023690 0.155300
0.998219 0.023690 0.155300
0.998219 0.023690 0.155300
0.998219 0.023690 0.155300
0.998219 0.023690 0.155300
0.998219 0.023690 0.155300
0.998219 0.023690 0.155300
0.998219 0.023690 0.155300
0.000373 0.019980 0.007503
0.000373 0.019980 0.007503
0.000172 0.026651 0.007949
0.000172 0.026651 0.007949
0.022854 0.023475 0.007639
0.053549 0.023122 0.006046
0.085805 0.026061 0.009113
0.116894 0.023362 0.010004
0.145636 0.019712 0.013379
0.181022 0.019917 0.013739
0.211525 0.013895 0.016136
0.254735 0.010582 0.022665
0.304588 0.010452 0.029637
0.368909 0.010996 0.038031
0.449649 0.013830 0.051531
0.547986 0.012924 0.072399
0.649254 0.016627 0.087543
0.757559 0.019825 0.112540
0.870364 0.019927 0.133097
0.981407 0.022739 0.152902
0.998219 0.023690 0.155300
0.998219 0.023690 0.155300
0.998219 0.023690 0.155300
0.998219 0.023690 0.155300
0.998219 0.023690 0.155300
0.998219 0.023690 0.155300
0.998219 0.023690 0.155300
0.998219 0.023690 0.155300
0.998219 0.023690 0.155300
0.998219 0.023690 0.155300
0.998219 0.023690 0.155300
0.998219 0.023690 0.155300
0.998219 0.023690 0.155300
0.000737 0.053981 0.002808
0.000737 0.053981 0.002808
0.000737 0.053981 0.002808
0.000737 0.053981 0.002808
0.010704 0.058755 0.003477
0.052151 0.059157 0.004059
0.086753 0.063383 0.002910
0.119209 0.059314 0.007261
0.150488 0.061612 0.007621
0.185683 0.056486 0.010242
0.224786 0.056609 0.009848
0.271326 0.043219 0.016683
0.324512 0.032343 0.027426
0.390212 0.020186 0.037637
0.481321 0.013109 0.057835
0.579266 0.014213 0.077949
0.686594 0.017106 0.098508
0.797636 0.019917 0.118313
0.890890 0.020462 0.136473
0.980037 0.023437 0.152902
0.998219 0.023690 0.155300
0.998219 0.023690 0.155300
0.998219 0.023690 0.155300
0.998219 0.023690 0.155300
0.998219 0.023690 0.155300
0.998219 0.023690 0.155300
0.998219 0.023690 0.155300
0.998219 0.023690 0.155300
0.998219 0.023690 0.155300
0.998219 0.023690 0.155300
0.998219 0.023690 0.155300
0.998219 0.023690 0.155300
0.998219 0.023690 0.155300
0.000324 0.078316 0.007074
0.000324 0.078316 0.007074
0.000000 0.084683 0.003083
0.000123 0.084987 0.007519
0.000000 0.088334 0.009472
0.046262 0.085948 0.010055
0.080472 0.092519 0.006422
0.118203 0.093340 0.006026
0.153983 0.091535 0.007141
0.190739 0.091379 0.005770
0.232770 0.094097 0.010035
0.282432 0.089642 0.014077
0.343239 0.084941 0.015859
0.422035 0.073820 0.029223
0.511393 0.057111 0.052214
0.607807 0.016897 0.083501
0.702430 0.016409 0.103390
0.793921 0.020334 0.117336
0.888546 0.019847 0.137226
0.977691 0.023157 0.151925
0.998219 0.023690 0.155300
0.998219 0.023690 0.155300
0.998219 0.023690 0.155300
0.998219 0.023690 0.155300
0.998219 0.023690 0.155300
0.998219 0.023690 0.155300
0.998219 0.023690 0.155300
0.998219 0.023690 0.155300
0.998219 0.023690 0.155300
0.998219 0.023690 0.155300
0.998219 0.023690 0.155300
0.998219 0.023690 0.155300
0.998219 0.023690 0.155300
0.000000 0.108017 0.002910
0.000687 0.111980 0.004110
0.000687 0.111980 0.004110
0.000000 0.114687 0.003355
0.000094 0.119316 0.010722
0.029611 0.124322 0.010328
0.075357 0.127629 0.010379
0.118959 0.124321 0.007278
0.156692 0.125142 0.006883
0.199115 0.127530 0.003250
0.241932 0.127234 0.003832
0.293547 0.124733 0.009827
0.361582 0.125867 0.014008
0.443701 0.117345 0.022403
0.526797 0.108118 0.040426
0.615953 0.098752 0.060402
0.707666 0.069984 0.087917
0.793921 0.019999 0.119066
0.883855 0.019961 0.131812
0.972608 0.023937 0.152680
0.998219 0.023690 0.155300
0.998219 0.023690 0.155300
0.998219 0.023690 0.155300
0.998219 0.023690 0.155300
0.998219 0.023690 0.155300
0.998219 0.023690 0.155300
0.998219 0.023690 0.155300
0.998219 0.023690 0.155300
0.998219 0.023690 0.155300
0.998219 0.023690 0.155300
0.998219 0.023690 0.155300
0.998219 0.023690 0.155300
0.998219 0.023690 0.155300
0.000074 0.142651 0.010551
0.000000 0.145333 0.006336
0.000000 0.149993 0.007536
0.000457 0.152980 0.007758
0.000457 0.152643 0.009489
0.003970 0.158224 0.014372
0.062231 0.160923 0.010429
0.116191 0.160046 0.010480
0.154900 0.162515 0.007601
0.201040 0.164820 0.003215
0.247178 0.167125 0.000000
0.305830 0.166806 0.000832
0.369174 0.167381 0.003058
0.447377 0.165611 0.012653
0.531056 0.159707 0.029167
0.619821 0.152687 0.046660
0.712693 0.141896 0.072806
0.801857 0.120192 0.096328
0.887138 0.069902 0.123040
0.967917 0.023378 0.150727
0.999588 0.022993 0.155300
0.999588 0.022993 0.155300
0.999588 0.022993 0.155300
0.999588 0.022993 0.155300
0.999588 0.022993 0.155300
0.999588 0.022993 0.155300
0.998219 0.023690 0.155300
0.998219 0.023690 0.155300
0.998219 0.023690 0.155300
0.998219 0.023690 0.155300
0.998219 0.023690 0.155300
0.998219 0.023690 0.155300
0.998219 0.023690 0.155300
0.000629 0.181311 0.007054
0.000237 0.182984 0.008030
0.000821 0.185636 0.009984
0.000000 0.189015 0.005770
0.000000 0.193676 0.006969
0.000811 0.197303 0.009899
0.022898 0.202472 0.011011
0.096018 0.202826 0.014437
0.147824 0.207338 0.009520
0.195724 0.206600 0.007618
0.248316 0.207428 0.002476
0.302862 0.210209 0.000000
0.374027 0.208610 0.000762
0.448123 0.210949 0.000000
0.536103 0.208957 0.010766
0.624081 0.204950 0.031941
0.715381 0.202870 0.051610
0.802585 0.190208 0.076556
0.892728 0.168807 0.104516
0.973113 0.124629 0.129719
1.000000 0.038319 0.151976
0.999588 0.022993 0.155300
0.999588 0.022993 0.155300
0.999588 0.022993 0.155300
0.999588 0.022993 0.155300
0.999588 0.022993 0.155300
0.999588 0.022993 0.155300
0.999588 0.022993 0.155300
0.999588 0.022993 0.155300
0.999588 0.022993 0.155300
0.999588 0.022993 0.155300
0.999588 0.022993 0.155300
0.999588 0.022993 0.155300
0.000000 0.225995 0.010926
0.000000 0.230992 0.010395
0.000000 0.235315 0.013324
0.000000 0.236660 0.006402
0.000187 0.240649 0.011062
0.000000 0.246983 0.013238
0.000571 0.249971 0.013461
0.046318 0.253949 0.010051
0.125889 0.252826 0.012722
0.186495 0.255132 0.013218
0.242801 0.254534 0.014246
0.302822 0.256206 0.002406
0.373203 0.258963 0.000640
0.451407 0.259208 0.000000
0.537039 0.258956 0.000000
0.625995 0.258949 0.005863
0.716903 0.257871 0.029970
0.806642 0.250820 0.053628
0.894822 0.239470 0.077821
0.974213 0.217650 0.101875
0.999461 0.180380 0.124765
0.999682 0.148695 0.133145
0.998534 0.118715 0.136333
0.999760 0.051997 0.151136
0.999588 0.022993 0.155300
0.999588 0.022993 0.155300
0.999588 0.022993 0.155300
0.999588 0.022993 0.155300
0.999588 0.022993 0.155300
0.999588 0.022993 0.155300
0.999588 0.022993 0.155300
0.999588 0.022993 0.155300
0.999588 0.022993 0.155300
0.000000 0.285003 0.007036
0.000000 0.291674 0.007481
0.000000 0.296671 0.006949
0.000000 0.302339 0.002956
0.000000 0.309010 0.003403
0.000130 0.311324 0.007087
0.000000 0.313665 0.014230
0.000000 0.314000 0.012501
0.085953 0.314051 0.016370
0.161419 0.314684 0.020773
0.229845 0.314816 0.020514
0.297881 0.317630 0.016043
0.369440 0.317717 0.000000
0.452919 0.321509 0.000622
0.537181 0.321952 0.000054
0.628876 0.321895 0.000000
0.717831 0.323233 0.000000
0.809524 0.319144 0.019789
0.894573 0.310189 0.048418
0.975130 0.293671 0.076378
0.999393 0.266756 0.099938
0.998828 0.238754 0.108540
0.999633 0.210392 0.115410
0.999854 0.178707 0.123789
0.999874 0.154028 0.130883
0.999491 0.143699 0.133676
0.999892 0.130021 0.134516
0.999902 0.117682 0.138062
0.999329 0.102355 0.141387
1.000000 0.072319 0.147280
0.998985 0.044014 0.151445
0.999588 0.022993 0.155300
0.999588 0.022993 0.155300
0.000473 0.368995 0.000489
0.000000 0.377675 0.000180
0.000655 0.385659 0.000000
0.000060 0.394003 0.001292
0.000000 0.391016 0.001071
0.000262 0.387332 0.000847
0.000000 0.388671 0.003555
0.000000 0.387022 0.006039
0.000846 0.388302 0.011453
0.111698 0.389477 0.014485
0.202414 0.388444 0.013164
0.281593 0.389667 0.013351
0.366834 0.390414 0.017223
0.453443 0.393491 0.005519
0.542006 0.397510 0.000962
0.629593 0.399546 0.000618
0.721285 0.399489 0.000274
0.806918 0.399235 0.000000
0.891383 0.391999 0.003887
0.970180 0.377852 0.032824
0.999324 0.354811 0.066456
0.999544 0.322454 0.078297
0.999373 0.292107 0.089383
0.999010 0.256427 0.102732
0.999815 0.227392 0.113063
0.999040 0.219744 0.111641
0.999633 0.210392 0.115410
0.999834 0.202714 0.120157
0.998867 0.189397 0.122726
0.999461 0.180380 0.124765
1.000000 0.169690 0.125829
0.999480 0.156037 0.130129
1.000000 0.145011 0.132921
0.000000 0.476010 0.000000
0.000000 0.489350 0.000000
0.000000 0.489350 0.000000
0.000000 0.486364 0.000000
0.000769 0.483657 0.000384
0.000577 0.478660 0.000914
0.000000 0.477683 0.000000
0.000000 0.477683 0.000000
0.000000 0.477683 0.000000
0.000000 0.477683 0.000000
0.138802 0.476882 0.007321
0.254737 0.477277 0.009598
0.353074 0.480068 0.011429
0.445744 0.480651 0.013793
0.539784 0.483898 0.000000
0.632061 0.486491 0.000461
0.718670 0.487215 0.000871
0.801958 0.486682 0.000000
0.879968 0.481931 0.000000
0.960528 0.470790 0.000000
0.998864 0.450591 0.002806
0.999084 0.415544 0.028488
0.998913 0.383853 0.046496
0.999335 0.342137 0.071734
0.998780 0.301124 0.087345
0.999373 0.291435 0.092844
1.000000 0.280407 0.095637
0.999585 0.272089 0.097676
0.999595 0.259077 0.104685
0.999403 0.254416 0.103484
0.999996 0.245063 0.107254
0.999614 0.235071 0.108316
0.998838 0.226415 0.112086
0.000479 0.595332 0.000054
0.000000 0.591034 0.000585
0.000000 0.589359 0.000000
0.000000 0.586373 0.000000
0.000488 0.583665 0.000141
0.000000 0.579366 0.000673
0.000000 0.574705 0.000000
0.000106 0.574008 0.000000
0.000000 0.572695 0.000227
0.000000 0.572695 0.000227
0.000106 0.573671 0.001203
0.196590 0.574592 0.003667
0.326016 0.574684 0.006390
0.430807 0.574653 0.014391
0.530907 0.578097 0.000000
0.622993 0.576030 0.000083
0.709601 0.576753 0.000492
0.789174 0.576303 0.000000
0.865817 0.572251 0.000000
0.945590 0.564793 0.000000
0.999370 0.547587 0.000000
0.998614 0.516270 0.000000
1.000000 0.480571 0.000000
0.999850 0.436875 0.019441
0.998519 0.385863 0.045741
0.999900 0.372491 0.051019
0.999516 0.361152 0.059004
0.999133 0.350151 0.065258
0.999728 0.340798 0.069028
0.999928 0.332448 0.077235
0.998568 0.321478 0.077321
1.000000 0.312766 0.083797
0.998780 0.301124 0.087345
0.000000 0.692354 0.000000
0.000000 0.691041 0.000343
0.000000 0.687357 0.000121
0.000000 0.685347 0.000874
0.000000 0.682361 0.000653
0.000018 0.678677 0.000431
0.000000 0.673680 0.000962
0.000000 0.674017 0.000000
0.000219 0.672006 0.000000
0.000000 0.669019 0.000000
0.000000 0.669019 0.000000
0.074123 0.667332 0.010109
0.279013 0.666377 0.025886
0.408441 0.664788 0.037262
0.513230 0.664421 0.046992
0.610401 0.663255 0.037996
0.697795 0.663318 0.022609
0.778937 0.659868 0.000000
0.851474 0.657908 0.000000
0.925186 0.650253 0.000000
0.993623 0.638382 0.000454
0.999513 0.610584 0.000000
0.999542 0.575582 0.000000
1.000000 0.531900 0.000472
1.000000 0.473899 0.000000
0.998854 0.462931 0.000000
0.998864 0.450591 0.002806
0.999065 0.442575 0.009281
0.999074 0.429564 0.016289
0.999669 0.419204 0.025250
0.998893 0.409540 0.034212
0.999879 0.398849 0.035273
0.999104 0.388850 0.045965
0.000000 0.778977 0.023882
0.000000 0.775990 0.023661
0.000000 0.774348 0.016516
0.000000 0.773009 0.013809
0.000000 0.767981 0.020507
0.000000 0.765667 0.016825
0.000000 0.764025 0.009680
0.000000 0.759333 0.014648
0.000000 0.757653 0.023301
0.000000 0.755300 0.035414
0.000533 0.752579 0.055425
0.000533 0.749555 0.070999
0.222630 0.749558 0.079546
0.378059 0.746385 0.090836
0.493995 0.745101 0.101766
0.593117 0.744544 0.101646
0.679535 0.743294 0.087011
0.762440 0.738817 0.055383
0.837723 0.734549 0.000000
0.907329 0.728986 0.000110
0.976350 0.720438 0.000161
0.990253 0.695126 0.000000
0.993605 0.661716 0.000281
0.999503 0.622251 0.000000
0.999542 0.575582 0.000000
1.000000 0.548564 0.000000
0.998987 0.537594 0.000000
0.998603 0.527936 0.000000
0.999590 0.517246 0.000335
0.999207 0.507589 0.000000
1.000000 0.496898 0.000730
0.998833 0.486264 0.000000
0.998452 0.476607 0.000000
0.000244 0.852157 0.117394
0.000000 0.849842 0.113712
0.000000 0.850178 0.111981
0.000053 0.847832 0.114464
0.000000 0.845181 0.112511
0.000000 0.841192 0.107852
0.000000 0.840192 0.103413
0.000456 0.837179 0.099731
0.000000 0.834522 0.107407
0.000000 0.831168 0.115083
0.000000 0.828511 0.122757
0.000264 0.826133 0.131410
0.137512 0.823378 0.136840
0.335758 0.820920 0.143520
0.464207 0.819363 0.148726
0.568413 0.816682 0.154772
0.658940 0.812332 0.145333
0.740667 0.808844 0.137398
0.818094 0.806821 0.107499
0.891625 0.799641 0.020137
0.955371 0.791245 0.000000
0.980610 0.770010 0.000000
0.985915 0.738891 0.000000
0.988289 0.704503 0.000000
0.995558 0.664005 0.000504
0.999694 0.627247 0.000000
1.000000 0.618566 0.000000
0.998536 0.609271 0.000403
0.999522 0.598917 0.000000
0.999139 0.589259 0.000000
0.999732 0.580578 0.000000
0.999350 0.570921 0.000000
0.999943 0.562241 0.000000
0.000000 0.915717 0.194441
0.000000 0.914044 0.193465
0.000000 0.913739 0.189027
0.000771 0.911703 0.186321
0.000000 0.909750 0.184368
0.000000 0.906738 0.180683
0.000387 0.903054 0.180461
0.000196 0.899739 0.172340
0.000196 0.899067 0.175801
0.000000 0.895071 0.180769
0.000000 0.893086 0.184984
0.000000 0.890740 0.187468
0.000000 0.888388 0.199582
0.284276 0.884642 0.207426
0.423869 0.883846 0.205179
0.539220 0.880918 0.208965
0.634045 0.878130 0.205914
0.717140 0.874280 0.196250
0.796914 0.870855 0.175980
0.864767 0.862383 0.144437
0.931846 0.851640 0.083785
0.974299 0.834821 0.000000
0.980189 0.806687 0.000005
0.980408 0.776681 0.000000
0.985521 0.740900 0.000000
0.989860 0.697136 0.000000
0.989085 0.689152 0.000000
0.993001 0.682064 0.000000
0.992618 0.672406 0.000000
0.995558 0.664005 0.000504
0.993413 0.657055 0.000000
0.994983 0.649352 0.000366
0.995970 0.638997 0.000000
0.000127 0.964605 0.258261
0.000520 0.962932 0.257285
0.000520 0.962932 0.257285
0.000000 0.960281 0.255331
0.000328 0.958943 0.252626
0.000721 0.957268 0.251649
0.000000 0.953978 0.246988
0.000530 0.953281 0.246988
0.000000 0.950631 0.245035
0.000000 0.949317 0.245790
0.000000 0.946298 0.251734
0.000000 0.944618 0.260387
0.000000 0.942609 0.261140
0.185487 0.942102 0.264890
0.372004 0.938584 0.264957
0.494785 0.935828 0.265504
0.598408 0.932176 0.260945
0.684243 0.926596 0.253013
0.760694 0.920572 0.237711
0.833239 0.911649 0.213312
0.900508 0.901533 0.174625
0.957227 0.887690 0.114281
0.971915 0.866759 0.072168
0.976434 0.837979 0.080015
0.979202 0.806623 0.054317
0.984716 0.767919 0.000000
0.984535 0.751256 0.000000
0.984736 0.744584 0.000000
0.984938 0.737914 0.000000
0.985139 0.730908 0.000297
0.985733 0.722562 0.000000
0.987303 0.714859 0.000161
0.988481 0.709500 0.000000
0.000117 0.965182 0.315282
0.000117 0.965855 0.311819
0.000000 0.964879 0.310843
0.000000 0.965215 0.309114
0.000000 0.965215 0.309114
0.000000 0.965887 0.305653
0.000000 0.964212 0.304676
0.000000 0.964548 0.302945
0.000000 0.965556 0.297755
0.000000 0.966895 0.300461
0.000000 0.969209 0.304145
0.000000 0.970547 0.306851
0.000000 0.972221 0.307828
0.000499 0.975511 0.312488
0.291023 0.976655 0.315585
0.435702 0.974407 0.316047
0.544408 0.969977 0.310733
0.638649 0.965545 0.300538
0.723506 0.959324 0.289898
0.796242 0.953719 0.273621
0.861751 0.944294 0.244562
0.925697 0.933259 0.202191
0.964235 0.918151 0.144641
0.968945 0.892687 0.160610
0.972097 0.865947 0.161536
0.977602 0.832861 0.137567
0.980953 0.807181 0.098246
0.981548 0.801525 0.082982
0.982533 0.795204 0.061546
0.983520 0.789218 0.038383
0.981577 0.781983 0.003636
0.983146 0.775287 0.000000
0.984716 0.767919 0.000000
0.000000 0.965842 0.331078
0.000000 0.965842 0.331078
0.000000 0.965842 0.331078
0.000000 0.965842 0.331078
0.000000 0.965842 0.331078
0.000000 0.965842 0.331078
0.000000 0.966177 0.329348
0.000000 0.966177 0.329348
0.000000 0.965176 0.324910
0.000000 0.965842 0.331078
0.000000 0.967819 0.336491
0.000000 0.969158 0.339200
0.000108 0.970464 0.348074
0.000000 0.972803 0.355219
0.219657 0.976523 0.357820
0.389160 0.978386 0.357663
0.500989 0.981882 0.354750
0.593266 0.986155 0.347706
0.674791 0.989674 0.338488
0.752803 0.987949 0.322656
0.823585 0.980725 0.302695
0.886356 0.972696 0.273637
0.944242 0.961128 0.232774
0.961467 0.943122 0.203219
0.966571 0.917664 0.209559
0.971484 0.889225 0.206047
0.976596 0.858820 0.177862
0.975821 0.852181 0.171250
0.973677 0.845904 0.166368
0.977592 0.840160 0.159977
0.978186 0.834167 0.146441
0.977410 0.828537 0.134637
0.978981 0.822177 0.129000
0.000000 0.965467 0.348605
0.000000 0.965467 0.348605
0.000000 0.964491 0.347629
0.000000 0.964491 0.347629
0.000000 0.964491 0.347629
0.000000 0.965163 0.344168
0.000000 0.965163 0.344168
0.000000 0.965499 0.342437
0.000000 0.965499 0.342437
0.000000 0.966475 0.343413
0.000000 0.967142 0.349582
0.000108 0.968111 0.360187
0.000000 0.968442 0.368086
0.000000 0.971421 0.377936
0.019648 0.974295 0.388457
0.306065 0.976858 0.395016
0.439397 0.979849 0.406835
0.542426 0.983533 0.408890
0.632751 0.985854 0.399896
0.709977 0.988822 0.379093
0.782119 0.993239 0.355586
0.847225 0.996149 0.332609
0.906471 0.994206 0.298582
0.955951 0.983171 0.251329
0.958900 0.963773 0.249238
0.964004 0.938987 0.252118
0.967941 0.910917 0.240707
0.967951 0.901602 0.228681
0.970888 0.894545 0.223042
0.972460 0.888184 0.217407
0.972660 0.882523 0.211770
0.974232 0.877171 0.200942
0.975408 0.872485 0.196281
0.000000 0.964782 0.371324
0.000000 0.964782 0.371324
0.000000 0.964782 0.371324
0.000000 0.964782 0.371324
0.000000 0.964782 0.371324
0.000000 0.964782 0.371324
0.000000 0.964782 0.371324
0.000499 0.964421 0.369593
0.000000 0.965454 0.367863
0.000499 0.964757 0.367863
0.000108 0.966431 0.368840
0.000000 0.967098 0.375007
0.000000 0.969437 0.382152
0.000000 0.970407 0.392758
0.000000 0.973052 0.404341
0.198143 0.974580 0.415679
0.366862 0.977776 0.427860
0.483965 0.981119 0.446155
0.579958 0.982623 0.452203
0.657768 0.985887 0.445468
0.727171 0.990021 0.430612
0.798338 0.993126 0.407859
0.867159 0.996960 0.378938
0.926012 0.999717 0.330312
0.954562 1.000000 0.287495
0.959465 0.981692 0.292551
0.961830 0.959646 0.288507
0.963995 0.945277 0.279718
0.966541 0.940230 0.273327
0.964397 0.934625 0.264984
0.966944 0.929242 0.260325
0.968121 0.924555 0.255664
0.968323 0.918557 0.251758
0.000000 0.964782 0.371324
0.000000 0.964782 0.371324
0.000000 0.964782 0.371324
0.000000 0.964782 0.371324
0.000000 0.964782 0.371324
0.000000 0.964782 0.371324
0.000000 0.964782 0.371324
0.000000 0.964782 0.371324
0.000000 0.964782 0.371324
0.000000 0.964782 0.371324
0.000000 0.966761 0.376739
0.000000 0.967426 0.382907
0.000000 0.967420 0.392536
0.000489 0.968695 0.407577
0.000681 0.971003 0.420891
0.000873 0.972975 0.435934
0.289635 0.974473 0.450391
0.416513 0.978603 0.464696
0.525211 0.981135 0.483523
0.605952 0.984305 0.495293
0.677701 0.987037 0.490067
0.748083 0.991474 0.479648
0.816903 0.993629 0.459379
0.879663 0.997602 0.428505
0.940862 0.999629 0.386046
0.955731 0.999060 0.324282
0.955339 0.999725 0.330450
0.959264 0.983659 0.317222
0.961810 0.977603 0.316023
0.958880 0.975345 0.309633
0.962405 0.970266 0.309409
0.959867 0.966335 0.302043
0.961045 0.961313 0.299113
0.000000 0.964782 0.371324
0.000000 0.964782 0.371324
0.000000 0.964782 0.371324
0.000000 0.964782 0.371324
0.000000 0.964782 0.371324
0.000000 0.964782 0.371324
0.000000 0.964782 0.371324
0.000000 0.964782 0.371324
0.000000 0.964782 0.371324
0.000000 0.964782 0.371324
0.000000 0.964446 0.373053
0.000691 0.966729 0.382907
0.000300 0.966723 0.392536
0.000000 0.968727 0.401411
0.000000 0.971035 0.414723
0.000000 0.973006 0.429765
0.219838 0.975711 0.447187
0.381127 0.977726 0.467797
0.485134 0.979699 0.484671
0.578971 0.982559 0.506515
0.647982 0.984333 0.513402
0.709565 0.987952 0.513144
0.775255 0.991158 0.504235
0.837229 0.994784 0.494347
0.898619 0.997103 0.475585
0.953366 0.999598 0.439074
0.961782 0.999834 0.381524
0.958269 0.999967 0.347223
0.957292 0.999998 0.341054
0.958660 0.999637 0.339324
0.958660 0.999973 0.337593
0.957684 0.998661 0.338348
0.958469 0.995649 0.334664
0.000000 0.964782 0.371324
0.000000 0.964782 0.371324
0.000000 0.964782 0.371324
0.000000 0.964782 0.371324
0.000000 0.964782 0.371324
0.000000 0.964782 0.371324
0.000000 0.964782 0.371324
0.000000 0.964782 0.371324
0.000000 0.964782 0.371324
0.000000 0.964782 0.371324
0.000000 0.964782 0.371324
0.000000 0.966425 0.378470
0.000000 0.966418 0.388097
0.000000 0.969399 0.397950
0.000098 0.969696 0.412016
0.000290 0.972005 0.425329
0.161578 0.975027 0.440745
0.337727 0.976715 0.458341
0.452484 0.979442 0.477391
0.546322 0.982303 0.499234
0.624716 0.985194 0.510027
0.690014 0.988059 0.512477
0.754333 0.990618 0.510488
0.817678 0.993882 0.498872
0.877700 0.996562 0.481840
