lut/fujifilm/F-log2/F-Log2_LUT_E_Ver.1.05/X-H2S/XH2S_FLog2_FGamut_to_ETERNA_BT.709_33grid_V.1.00.cube
#title:FLog2_FGamut_to_ETERNA_BT.709
#FUJIFILM Corporation
#Gamma:F-Log2 to ETERNA
#Gamut:F-Gamut to ITU-R BT.709
#Version:1.00
LUT_3D_SIZE 5
0.006836 0.006836 0.006836
0.133523 0.007314 0.014750
0.513969 0.013365 0.065116
0.998219 0.023690 0.155300
0.998219 0.023690 0.155300
0.000074 0.142651 0.010551
0.154900 0.162515 0.007601
0.712693 0.141896 0.072806
0.999588 0.022993 0.155300
0.998219 0.023690 0.155300
0.000000 0.778977 0.023882
0.000000 0.757653 0.023301
0.679535 0.743294 0.087011
0.999542 0.575582 0.000000
0.998452 0.476607 0.000000
0.000000 0.964782 0.371324
0.000000 0.964782 0.371324
0.289635 0.974473 0.450391
0.940862 0.999629 0.386046
0.961045 0.961313 0.299113
0.000000 0.964782 0.371324
0.000000 0.964782 0.371324
0.000000 0.972044 0.409531
0.765479 0.990708 0.506495
0.957876 0.999625 0.358582
0.006816 0.011015 0.105302
0.156186 0.006973 0.119828
0.617583 0.016676 0.084699
0.998219 0.023690 0.155300
0.998219 0.023690 0.155300
0.000000 0.167754 0.165642
0.173828 0.173828 0.173828
0.749265 0.122724 0.084164
0.998219 0.023690 0.155300
0.998219 0.023690 0.155300
0.000000 0.774499 0.340882
0.000000 0.738979 0.239438
0.696558 0.710113 0.170383
0.999782 0.522243 0.000000
0.999467 0.427554 0.017043
0.000098 0.962975 0.446625
0.000000 0.964060 0.409840
0.323260 0.977050 0.451726
0.957101 0.999371 0.319090
0.964588 0.938613 0.269645
0.000489 0.963318 0.435264
0.000000 0.963393 0.403671
0.000000 0.970363 0.418184
0.775255 0.991158 0.504235
0.957876 0.999625 0.358582
0.000074 0.072412 0.372218
0.185222 0.065558 0.393051
0.801666 0.013701 0.619461
0.999932 0.023195 0.444612
0.999166 0.023374 0.342910
0.000825 0.285611 0.660208
0.017830 0.283494 0.703606
0.861904 0.195815 0.748728
0.998887 0.099857 0.463800
0.999951 0.023722 0.321922
0.000970 0.789425 0.781155
0.000224 0.759547 0.714235
0.714844 0.714844 0.714844
1.000000 0.549431 0.510102
0.999782 0.454021 0.351090
0.000000 0.956589 0.694269
0.000000 0.959031 0.631305
0.239753 0.971964 0.636973
0.970752 0.991679 0.562741
0.977092 0.911025 0.464570
0.000000 0.957300 0.675012
0.000270 0.959044 0.612047
0.000000 0.966430 0.583606
0.781296 0.989821 0.632340
0.966262 0.999574 0.482472
0.000452 0.223958 0.867282
0.000000 0.256885 0.922090
0.879777 0.282687 0.999814
1.000000 0.248011 0.982336
1.000000 0.217758 0.932941
0.000000 0.481872 0.938206
0.000822 0.468836 0.941755
0.710510 0.465151 1.000000
1.000000 0.302985 0.999211
0.999878 0.223420 0.938579
0.000415 0.731944 0.881558
0.000042 0.709276 0.887898
0.342191 0.685496 0.952452
1.000000 0.594387 0.954109
0.999433 0.535550 0.865926
0.000823 0.951662 0.845625
0.000000 0.951022 0.842918
0.000623 0.955645 0.859914
0.942383 0.942383 0.942383
1.000000 0.886879 0.862594
0.000823 0.951662 0.845625
0.000823 0.951662 0.845625
0.000000 0.952695 0.843894
0.719675 0.985821 0.874520
0.983217 1.000000 0.812700
0.000096 0.400836 0.951144
0.000679 0.403823 0.951367
0.811424 0.427221 1.000000
1.000000 0.319314 1.000000
1.000000 0.319314 1.000000
0.000429 0.471518 0.937539
0.000832 0.456833 0.943572
0.699556 0.471067 0.999347
1.000000 0.329306 0.999262
1.000000 0.319314 1.000000
0.000426 0.719270 0.886836
0.000000 0.691940 0.891977
0.359607 0.665429 0.958707
1.000000 0.575657 1.000000
1.000000 0.538980 0.999446
0.000823 0.951662 0.845625
0.000000 0.951358 0.841188
0.000643 0.933318 0.854895
0.905062 0.907145 0.990426
0.999141 0.859017 1.000000
0.000823 0.951662 0.845625
0.000823 0.951662 0.845625
0.000823 0.951662 0.845625
0.637162 0.980894 0.944972
1.000000 1.000000 1.000000
