lut/fujifilm/F-log2/F-Log2_LUT_E_Ver.1.05/X-H2/XH2_FLog2_FGamut_to_ETERNA_BT.709_33grid_V.1.00.cube
#title:FLog2_FGamut_to_ETERNA_BT.709
#FUJIFILM Corporation
#Gamma:F-Log2 to ETERNA
#Gamut:F-Gamut to ITU-R BT.709
#Version:1.00
LUT_3D_SIZE 33
0.006836 0.006836 0.006836
0.006836 0.006836 0.006836
0.006836 0.006836 0.006836
0.006836 0.006836 0.006836
0.026387 0.006729 0.007503
0.056689 0.007379 0.010348
0.081324 0.006493 0.010262
0.112996 0.007117 0.009644
0.139976 0.006510 0.010535
0.166565 0.007240 0.014132
0.197260 0.006551 0.014270
0.228146 0.010187 0.017336
0.269593 0.010254 0.019647
0.311041 0.010656 0.020232
0.367347 0.009722 0.022988
0.445158 0.009962 0.031828
0.531376 0.010342 0.043598
0.632643 0.014046 0.058743
0.734696 0.014401 0.071934
0.841832 0.013306 0.087832
0.952876 0.016117 0.107637
0.999990 0.017046 0.116340
0.999990 0.017046 0.116340
0.999990 0.017046 0.116340
0.999990 0.017046 0.116340
0.999990 0.017046 0.116340
0.999990 0.017046 0.116340
0.999990 0.017046 0.116340
0.999990 0.017046 0.116340
0.999990 0.017046 0.116340
0.999990 0.017046 0.116340
0.999990 0.017046 0.116340
0.999990 0.017046 0.116340
0.006836 0.006836 0.006836
0.006836 0.006836 0.006836
0.006836 0.006836 0.006836
0.006836 0.006836 0.006836
0.026387 0.006729 0.007503
0.056689 0.007379 0.010348
0.081324 0.006493 0.010262
0.109281 0.007199 0.010399
0.139976 0.006510 0.010535
0.166565 0.007240 0.014132
0.193545 0.006970 0.013294
0.228146 0.010187 0.017336
0.275654 0.010450 0.019871
0.324532 0.010353 0.020675
0.391590 0.010174 0.025609
0.473115 0.009995 0.035425
0.568323 0.013502 0.050348
0.672720 0.013802 0.066246
0.778488 0.013739 0.080414
0.890900 0.016860 0.095028
0.999013 0.016742 0.111902
0.999990 0.017046 0.116340
0.999990 0.017046 0.116340
0.999990 0.017046 0.116340
0.999990 0.017046 0.116340
0.999990 0.017046 0.116340
0.999990 0.017046 0.116340
0.999990 0.017046 0.116340
0.999990 0.017046 0.116340
0.999990 0.017046 0.116340
0.999990 0.017046 0.116340
0.999990 0.017046 0.116340
0.999990 0.017046 0.116340
0.006836 0.006836 0.006836
0.006836 0.006836 0.006836
0.006836 0.006836 0.006836
0.006836 0.006836 0.006836
0.026387 0.006729 0.007503
0.056689 0.007379 0.010348
0.081324 0.006493 0.010262
0.109281 0.007199 0.010399
0.136261 0.006255 0.013019
0.165589 0.006264 0.013156
0.197260 0.006551 0.014270
0.237922 0.010302 0.016806
0.283083 0.010622 0.016632
0.340368 0.010328 0.022098
0.415832 0.010289 0.029960
0.505763 0.010587 0.040977
0.603709 0.013036 0.054167
0.710454 0.013950 0.069312
0.822282 0.013748 0.085434
0.939385 0.017092 0.103730
0.999990 0.017046 0.116340
0.999990 0.017046 0.116340
0.999990 0.017046 0.116340
0.999990 0.017046 0.116340
0.999990 0.017046 0.116340
0.999990 0.017046 0.116340
0.999990 0.017046 0.116340
0.999990 0.017046 0.116340
0.999990 0.017046 0.116340
0.999990 0.017046 0.116340
0.999990 0.017046 0.116340
0.999990 0.017046 0.116340
0.999990 0.017046 0.116340
0.006836 0.006836 0.006836
0.006836 0.006836 0.006836
0.006836 0.006836 0.006836
0.006836 0.006836 0.006836
0.026387 0.006729 0.007503
0.051998 0.007157 0.006663
0.081324 0.006493 0.010262
0.109281 0.007199 0.010399
0.139976 0.006510 0.010535
0.170280 0.007158 0.013379
0.207035 0.006667 0.013739
0.246329 0.011113 0.016274
0.295206 0.010344 0.020539
0.357573 0.009606 0.023519
0.437728 0.010126 0.033336
0.531376 0.010342 0.043598
0.637727 0.013266 0.057988
0.750531 0.013705 0.076817
0.864313 0.016129 0.091429
0.983178 0.016765 0.110480
0.999990 0.017046 0.116340
0.999990 0.017046 0.116340
0.999990 0.017046 0.116340
0.999990 0.017046 0.116340
0.999990 0.017046 0.116340
0.999990 0.017046 0.116340
0.999990 0.017046 0.116340
0.999990 0.017046 0.116340
0.999990 0.017046 0.116340
0.999990 0.017046 0.116340
0.999990 0.017046 0.116340
0.999990 0.017046 0.116340
0.999990 0.017046 0.116340
0.000373 0.019980 0.007503
0.000373 0.019980 0.007503
0.000172 0.026651 0.007949
0.000172 0.026651 0.007949
0.022854 0.023475 0.007639
0.054526 0.023427 0.010484
0.085805 0.026061 0.009113
0.116894 0.023362 0.010004
0.145636 0.019712 0.013379
0.182390 0.019220 0.013739
0.217586 0.014092 0.016359
0.259818 0.010812 0.016718
0.312411 0.009959 0.020232
0.381814 0.010059 0.026140
0.463340 0.010217 0.034227
0.565977 0.013894 0.045911
0.672720 0.013802 0.066246
0.789634 0.013156 0.079884
0.909082 0.017116 0.097425
0.999990 0.017046 0.116340
0.999990 0.017046 0.116340
0.999990 0.017046 0.116340
0.999990 0.017046 0.116340
0.999990 0.017046 0.116340
0.999990 0.017046 0.116340
0.999990 0.017046 0.116340
0.999990 0.017046 0.116340
0.999990 0.017046 0.116340
0.999990 0.017046 0.116340
0.999990 0.017046 0.116340
0.999990 0.017046 0.116340
0.999990 0.017046 0.116340
0.999990 0.017046 0.116340
0.000737 0.053981 0.002808
0.000737 0.053981 0.002808
0.000737 0.053981 0.002808
0.000737 0.053981 0.002808
0.010704 0.058755 0.003477
0.050781 0.059183 0.007519
0.083429 0.061119 0.006148
0.118625 0.056328 0.007040
0.152835 0.061556 0.010328
0.189399 0.056402 0.009489
0.228893 0.053845 0.013309
0.273078 0.051508 0.020813
0.331942 0.032850 0.022457
0.405261 0.026533 0.025437
0.492667 0.010225 0.034364
0.600971 0.014094 0.055899
0.711823 0.013588 0.067583
0.832057 0.013528 0.086632
0.927263 0.016698 0.103284
0.999013 0.016406 0.113632
0.999990 0.017046 0.116340
0.999990 0.017046 0.116340
0.999990 0.017046 0.116340
0.999990 0.017046 0.116340
0.999990 0.017046 0.116340
0.999990 0.017046 0.116340
0.999990 0.017046 0.116340
0.999990 0.017046 0.116340
0.999990 0.017046 0.116340
0.999990 0.017046 0.116340
0.999990 0.017046 0.116340
0.999990 0.017046 0.116340
0.999990 0.017046 0.116340
0.000000 0.080327 0.006320
0.000000 0.084683 0.003083
0.000000 0.084683 0.003083
0.000000 0.084683 0.003083
0.000000 0.087669 0.003304
0.049585 0.088212 0.006816
0.084578 0.090428 0.006422
0.124657 0.091527 0.007003
0.155352 0.090165 0.010602
0.194454 0.090289 0.010208
0.235901 0.090019 0.014250
0.287516 0.088190 0.016785
0.349691 0.082792 0.018567
0.429657 0.078650 0.027183
0.527038 0.054442 0.042054
0.633228 0.017032 0.058965
0.728635 0.014205 0.071711
0.826973 0.014307 0.087387
0.924919 0.016755 0.100579
0.999013 0.016406 0.113632
0.999990 0.017046 0.116340
0.999990 0.017046 0.116340
0.999990 0.017046 0.116340
0.999990 0.017046 0.116340
0.999990 0.017046 0.116340
0.999990 0.017046 0.116340
0.999990 0.017046 0.116340
0.999990 0.017046 0.116340
0.999990 0.017046 0.116340
0.999990 0.017046 0.116340
0.999990 0.017046 0.116340
0.999990 0.017046 0.116340
0.999990 0.017046 0.116340
0.000000 0.110331 0.006594
0.000000 0.114687 0.003355
0.000486 0.118987 0.002825
0.000486 0.118987 0.002825
0.000094 0.120660 0.003801
0.033326 0.125247 0.004382
0.077120 0.126264 0.004211
0.122282 0.126585 0.004039
0.156692 0.125142 0.006883
0.200485 0.125488 0.010171
0.244670 0.124831 0.009024
0.298631 0.122945 0.014266
0.367451 0.120731 0.016492
0.454453 0.117764 0.026309
0.541264 0.109127 0.040117
0.633158 0.099711 0.053172
0.731123 0.078153 0.069996
0.827748 0.022626 0.085348
0.922572 0.016140 0.101331
0.999013 0.016406 0.113632
0.999990 0.017046 0.116340
0.999990 0.017046 0.116340
0.999990 0.017046 0.116340
0.999990 0.017046 0.116340
0.999990 0.017046 0.116340
0.999990 0.017046 0.116340
0.999990 0.017046 0.116340
0.999990 0.017046 0.116340
0.999990 0.017046 0.116340
0.999990 0.017046 0.116340
0.999990 0.017046 0.116340
0.999990 0.017046 0.116340
0.999990 0.017046 0.116340
0.000000 0.147679 0.003852
0.000000 0.147679 0.003852
0.000000 0.151338 0.000613
0.000457 0.154324 0.000836
0.000064 0.154991 0.007003
0.006708 0.158846 0.003988
0.070446 0.158755 0.000047
0.113846 0.161782 0.000000
0.153532 0.164556 0.000680
0.200455 0.162505 0.000000
0.250893 0.166035 0.003266
0.307199 0.164092 0.011215
0.375236 0.165562 0.013665
0.456568 0.161395 0.018819
0.540832 0.158814 0.033828
0.635263 0.154338 0.049059
0.733218 0.144446 0.065796
0.828053 0.126294 0.081867
0.922705 0.091476 0.098554
0.999013 0.016742 0.111902
0.999990 0.017046 0.116340
0.999990 0.017046 0.116340
0.999990 0.017046 0.116340
0.999990 0.017046 0.116340
0.999990 0.017046 0.116340
0.999990 0.017046 0.116340
0.999990 0.017046 0.116340
0.999990 0.017046 0.116340
0.999990 0.017046 0.116340
0.999990 0.017046 0.116340
0.999990 0.017046 0.116340
0.999990 0.017046 0.116340
0.999990 0.017046 0.116340
0.000000 0.186339 0.000356
0.000427 0.189326 0.000578
0.000036 0.190664 0.003286
0.000619 0.194323 0.000047
0.000227 0.196332 0.000000
0.000000 0.201690 0.000493
0.038150 0.201814 0.000098
0.100125 0.203422 0.000594
0.144503 0.207426 0.000645
0.193380 0.207665 0.000000
0.248710 0.206091 0.000000
0.306577 0.209119 0.003726
0.375397 0.206568 0.007683
0.455553 0.207760 0.014039
0.543532 0.205432 0.026563
0.638548 0.203607 0.043747
0.733955 0.199771 0.061683
0.826826 0.191332 0.075715
0.921268 0.174852 0.092762
0.998716 0.140756 0.108027
0.999529 0.100727 0.114985
0.999751 0.070721 0.114711
0.999396 0.025726 0.116030
0.999990 0.017046 0.116340
0.999990 0.017046 0.116340
0.999990 0.017046 0.116340
0.999990 0.017046 0.116340
0.999990 0.017046 0.116340
0.999990 0.017046 0.116340
0.999990 0.017046 0.116340
0.999990 0.017046 0.116340
0.999990 0.017046 0.116340
0.999990 0.017046 0.116340
0.000781 0.233984 0.000989
0.000000 0.238004 0.000000
0.000581 0.240992 0.000000
0.000000 0.244676 0.000000
0.000000 0.246349 0.000902
0.000000 0.248359 0.000149
0.000178 0.254332 0.000594
0.058831 0.254349 0.000867
0.126866 0.256491 0.000000
0.185519 0.256508 0.000129
0.240848 0.254933 0.000180
0.302822 0.256542 0.000676
0.377703 0.255197 0.000000
0.457860 0.256388 0.006019
0.545053 0.258080 0.017035
0.637330 0.257650 0.034219
0.732346 0.255824 0.051403
0.827753 0.252324 0.067609
0.917303 0.240949 0.088339
1.000000 0.220728 0.102988
0.999059 0.196746 0.110082
0.999662 0.176398 0.110476
0.998897 0.156747 0.110871
0.999117 0.126407 0.112328
0.999519 0.112394 0.114898
0.999529 0.101063 0.113254
1.000000 0.080715 0.113648
0.999951 0.063714 0.115996
0.999196 0.032397 0.116476
0.999990 0.017046 0.116340
0.999990 0.017046 0.116340
0.999990 0.017046 0.116340
0.999990 0.017046 0.116340
0.000000 0.293018 0.000558
0.000138 0.301002 0.000251
0.000000 0.307672 0.000694
0.000000 0.311692 0.000000
0.000000 0.314678 0.000000
0.000000 0.319339 0.000609
0.000319 0.317665 0.000000
0.000319 0.317665 0.000000
0.093776 0.314901 0.000044
0.168264 0.315231 0.000007
0.229262 0.315862 0.000000
0.300036 0.316273 0.000247
0.376869 0.317216 0.000000
0.458395 0.318719 0.000622
0.545004 0.319105 0.002762
0.640603 0.320267 0.020167
0.732489 0.322181 0.034866
0.822813 0.318117 0.058749
0.914899 0.312689 0.076464
0.999564 0.296431 0.092312
0.999191 0.272418 0.105574
1.000000 0.250396 0.104992
0.998637 0.234430 0.105610
0.999834 0.205066 0.108044
0.999452 0.194735 0.110836
0.999461 0.183068 0.110922
1.000000 0.173716 0.114692
1.000000 0.160711 0.112070
0.999491 0.147732 0.112910
0.999892 0.134390 0.112019
0.998926 0.121411 0.112859
1.000000 0.104049 0.113477
0.998956 0.086072 0.114849
0.000463 0.380662 0.000402
0.000000 0.391016 0.001071
0.000252 0.399000 0.000762
0.000000 0.403019 0.000000
0.000000 0.403019 0.000000
0.000252 0.399000 0.000762
0.000000 0.396013 0.000540
0.000000 0.396013 0.000540
0.000060 0.394339 0.000000
0.120496 0.391304 0.000000
0.204761 0.391412 0.000296
0.282963 0.391658 0.000000
0.369965 0.390707 0.000000
0.455789 0.395114 0.000000
0.547482 0.395057 0.000000
0.637807 0.395362 0.000618
0.730275 0.399927 0.017270
0.820600 0.397207 0.034230
0.906625 0.390574 0.056915
0.988745 0.380035 0.075691
1.000000 0.355744 0.092860
1.000000 0.331737 0.096492
0.999163 0.308428 0.100125
0.999776 0.276412 0.100605
0.999595 0.258741 0.106414
0.999211 0.249755 0.102285
0.998828 0.239427 0.105077
1.000000 0.232059 0.104634
1.000000 0.221729 0.107425
1.000000 0.209726 0.109241
0.998666 0.198756 0.109327
0.999261 0.190076 0.109637
1.000000 0.178712 0.114161
0.000000 0.494011 0.001051
0.000163 0.504004 0.000000
0.000163 0.504004 0.000000
0.000000 0.499008 0.000520
0.000000 0.496022 0.000296
0.000000 0.489350 0.000000
0.000000 0.486364 0.000000
0.000000 0.486364 0.000000
0.000000 0.482344 0.001136
0.000184 0.480671 0.000160
0.158936 0.481442 0.000000
0.264513 0.479072 0.000414
0.354835 0.479713 0.000070
0.451221 0.480550 0.000000
0.542522 0.482504 0.000000
0.633823 0.484120 0.000000
0.724148 0.484761 0.000000
0.810173 0.482498 0.000000
0.891306 0.480296 0.029156
0.973031 0.471095 0.050640
0.999045 0.452467 0.078328
0.998874 0.423128 0.084222
0.998701 0.395469 0.081465
1.000000 0.357754 0.092105
1.000000 0.331737 0.096492
0.999153 0.321103 0.094848
1.000000 0.309405 0.101102
0.999363 0.301422 0.101411
0.999373 0.290091 0.099765
0.999383 0.277751 0.103313
0.998608 0.270103 0.101891
0.999595 0.258741 0.106414
0.998818 0.251430 0.103262
0.000661 0.611660 0.001169
0.000000 0.607697 0.000000
0.000000 0.605687 0.000723
0.000669 0.599993 0.001254
0.000086 0.597006 0.001031
0.000000 0.592345 0.000000
0.000096 0.585675 0.000000
0.000000 0.584362 0.000141
0.000000 0.582353 0.000894
0.000000 0.580678 0.000000
0.029039 0.575691 0.000585
0.225915 0.575273 0.000343
0.342244 0.574330 0.000000
0.441368 0.573773 0.000000
0.531299 0.576087 0.000426
0.624755 0.573659 0.000000
0.709410 0.572093 0.000000
0.793675 0.572200 0.000457
0.876377 0.568345 0.000421
0.953604 0.560557 0.034995
1.000000 0.544480 0.055676
0.999973 0.514804 0.063301
0.998825 0.484824 0.066489
0.999638 0.444123 0.076905
0.999275 0.409787 0.083332
1.000000 0.398761 0.086124
0.998903 0.388463 0.082751
0.999889 0.377099 0.087273
0.998530 0.365794 0.089091
0.999516 0.354767 0.091883
1.000000 0.345750 0.093922
1.000000 0.333747 0.095738
0.999345 0.325428 0.097778
0.000773 0.709994 0.000000
0.000000 0.705695 0.000482
0.000000 0.703685 0.001234
0.000000 0.699024 0.000035
0.000199 0.695341 0.000000
0.000007 0.690344 0.000343
0.000000 0.685347 0.000874
0.000000 0.682361 0.000653
0.000018 0.678677 0.000431
0.000000 0.675690 0.000206
0.000000 0.673680 0.000962
0.165424 0.670965 0.000359
0.308148 0.666429 0.000597
0.419393 0.666266 0.000922
0.517931 0.662722 0.000577
0.609041 0.659679 0.000012
0.693698 0.658112 0.000199
0.778746 0.654872 0.000000
0.856365 0.651796 0.000128
0.931056 0.645454 0.000000
0.999291 0.633868 0.034532
0.999119 0.604528 0.040425
0.999340 0.572843 0.048805
0.998785 0.532502 0.060953
0.999017 0.489485 0.067688
0.999610 0.480132 0.071457
0.999620 0.468801 0.069811
0.999237 0.457800 0.076066
1.000000 0.447446 0.075399
0.999840 0.437116 0.078191
0.999065 0.428796 0.080230
1.000000 0.416096 0.082046
0.999084 0.405126 0.082132
0.000313 0.793338 0.000324
0.000000 0.792026 0.001078
0.000122 0.788342 0.000856
0.000000 0.785356 0.000633
0.000000 0.780695 0.000000
0.000000 0.775698 0.000000
0.000000 0.773689 0.000720
0.000331 0.770004 0.000495
0.000140 0.765344 0.000000
0.000000 0.760347 0.000000
0.000342 0.758338 0.000582
0.077961 0.755597 0.000000
0.290483 0.750159 0.001282
0.406227 0.746229 0.000628
0.505743 0.743999 0.000000
0.595875 0.739643 0.000000
0.675447 0.738855 0.000661
0.759520 0.734302 0.000624
0.836554 0.728576 0.000000
0.911244 0.721898 0.000641
0.979290 0.712373 0.000000
0.995730 0.687632 0.024028
0.999081 0.654557 0.022778
0.999109 0.616867 0.036879
0.999340 0.572171 0.052266
0.999743 0.557821 0.056567
0.999360 0.548164 0.055898
0.999953 0.538811 0.059667
0.999571 0.528818 0.060730
0.999189 0.518153 0.065255
0.999782 0.508128 0.072485
0.999792 0.497805 0.065649
0.999408 0.487139 0.070171
0.000000 0.867020 0.009660
0.000000 0.865004 0.020044
0.000254 0.863342 0.000000
0.000000 0.859043 0.000339
0.000063 0.858345 0.000339
0.000000 0.853349 0.000871
0.000000 0.850698 0.000000
0.000072 0.846678 0.000426
0.000000 0.841682 0.000958
0.000000 0.837021 0.000000
0.000000 0.834332 0.013602
0.000000 0.830001 0.020302
0.253075 0.826646 0.013942
0.381524 0.822401 0.032991
0.486515 0.818388 0.026702
0.577827 0.813043 0.003196
0.660530 0.809860 0.000000
0.736196 0.804494 0.000196
0.813231 0.798767 0.000000
0.887921 0.792089 0.000212
0.955573 0.784238 0.000263
0.981203 0.761330 0.000000
0.987878 0.729512 0.000297
0.994159 0.696007 0.019281
0.998687 0.655895 0.025484
0.998708 0.631217 0.032579
0.999301 0.622200 0.034617
0.999503 0.614186 0.041093
0.999119 0.603520 0.045617
1.000000 0.592829 0.046680
1.000000 0.585151 0.051426
0.999924 0.575493 0.050758
0.999542 0.565164 0.053550
0.000000 0.930891 0.081516
0.000000 0.927905 0.081292
0.000000 0.927238 0.075125
0.000387 0.925235 0.066249
0.000000 0.922585 0.064296
0.000000 0.918926 0.067535
0.000000 0.915610 0.059413
0.000206 0.910924 0.054754
0.000000 0.908610 0.051070
0.000014 0.904583 0.062207
0.000000 0.899916 0.070637
0.000000 0.895586 0.077335
0.232480 0.892996 0.086106
0.365428 0.888345 0.086875
0.466705 0.884415 0.081340
0.557231 0.879728 0.073628
0.639743 0.875917 0.048169
0.717372 0.870584 0.000519
0.789715 0.863627 0.000793
0.858737 0.855414 0.000000
0.924828 0.843263 0.000000
0.966487 0.825328 0.000000
0.972376 0.797193 0.000844
0.979049 0.765712 0.000000
0.987878 0.729512 0.000297
0.992790 0.697713 0.014089
0.992991 0.689363 0.022297
0.997693 0.679598 0.017414
0.995548 0.671975 0.019454
0.998488 0.663574 0.020738
0.999081 0.654557 0.022778
0.999283 0.645871 0.032715
0.999876 0.636854 0.034754
0.000000 0.968823 0.126163
0.000000 0.969159 0.124434
0.000000 0.969159 0.124434
0.000000 0.968518 0.121726
0.000000 0.970503 0.117512
0.000147 0.968492 0.118265
0.000000 0.966178 0.114582
0.000348 0.963502 0.109169
0.000000 0.960516 0.108945
0.000000 0.958500 0.119327
0.000000 0.954175 0.116397
0.000000 0.950821 0.124074
0.198604 0.947696 0.124587
0.337221 0.945252 0.124825
0.445535 0.939806 0.134332
0.535667 0.936122 0.131058
0.618180 0.929287 0.121171
0.690333 0.923382 0.090828
0.759364 0.916272 0.023476
0.827609 0.904445 0.000000
0.890964 0.893690 0.000192
0.950017 0.880365 0.000000
0.958837 0.855834 0.000000
0.964725 0.828035 0.000000
0.974138 0.794823 0.000000
0.980620 0.758343 0.000000
0.981605 0.747990 0.000000
0.984153 0.741597 0.000000
0.984354 0.734255 0.002250
0.988663 0.725829 0.000074
0.988471 0.719151 0.009257
0.990434 0.709773 0.009566
0.990635 0.704447 0.002199
0.000137 0.969742 0.171823
0.000137 0.969742 0.171823
0.000137 0.970749 0.166633
0.000000 0.970446 0.162196
0.000000 0.970446 0.162196
0.000530 0.970084 0.160465
0.000530 0.970084 0.160465
0.000000 0.969443 0.157757
0.000000 0.970115 0.154296
0.000000 0.970115 0.154296
0.000000 0.969779 0.156027
0.000137 0.972430 0.157980
0.195644 0.972375 0.159468
0.314902 0.974361 0.161968
0.416371 0.974756 0.159363
0.499266 0.975224 0.162257
0.581384 0.969726 0.155078
0.655491 0.962750 0.142263
0.726274 0.956534 0.117110
0.791982 0.947498 0.051265
0.852215 0.938561 0.000000
0.914985 0.924818 0.000000
0.946868 0.906769 0.000379
0.953340 0.881957 0.000000
0.960598 0.853462 0.000000
0.966094 0.822633 0.023391
0.972568 0.802526 0.000000
0.972376 0.797193 0.000844
0.973946 0.789826 0.000399
0.975516 0.782458 0.000000
0.979825 0.773694 0.000000
0.977287 0.768419 0.000000
0.981203 0.761330 0.000000
0.000000 0.970687 0.220945
0.000000 0.970687 0.220945
0.000520 0.970325 0.219215
0.000520 0.970325 0.219215
0.000520 0.970325 0.219215
0.000000 0.970020 0.214778
0.000000 0.970692 0.211317
0.000000 0.971364 0.207856
0.000000 0.970363 0.203417
0.000000 0.970363 0.203417
0.000000 0.971701 0.206125
0.000520 0.972678 0.207102
0.200718 0.972507 0.214004
0.309225 0.973740 0.214329
0.403264 0.975978 0.204577
0.486551 0.977462 0.192653
0.562408 0.978101 0.187426
0.624776 0.980725 0.173102
0.691833 0.982561 0.167653
0.757725 0.982794 0.139262
0.821672 0.973439 0.088238
0.874676 0.965391 0.000000
0.934707 0.953044 0.000000
0.941372 0.932893 0.000208
0.946868 0.906769 0.000379
0.958405 0.877963 0.135578
0.964484 0.853145 0.144625
0.964686 0.846810 0.142450
0.968018 0.840096 0.125454
0.967242 0.833792 0.117110
0.969598 0.825766 0.100867
0.970584 0.820787 0.072511
0.970595 0.813154 0.051832
0.000000 0.969931 0.265628
0.000000 0.970603 0.262167
0.000318 0.970274 0.254270
0.000318 0.970274 0.254270
0.000318 0.970274 0.254270
0.000000 0.969297 0.253293
0.000000 0.969633 0.251561
0.000000 0.969633 0.251561
0.000711 0.969608 0.248101
0.000000 0.968968 0.245395
0.000000 0.970978 0.244640
0.000000 0.971947 0.255246
0.147533 0.972966 0.256906
0.282627 0.973249 0.269479
0.379012 0.974086 0.269359
0.454083 0.976058 0.276468
0.528180 0.977388 0.280871
0.595631 0.978896 0.267523
0.662498 0.979433 0.243570
0.727603 0.983014 0.217132
0.790957 0.983348 0.160610
0.843750 0.985572 0.113493
0.894601 0.986609 0.000481
0.930389 0.973473 0.000000
0.934707 0.953044 0.000000
0.946044 0.928892 0.145618
0.958185 0.899230 0.180843
0.954670 0.893650 0.175960
0.958586 0.887905 0.169569
0.960156 0.881209 0.165663
0.961335 0.876188 0.162734
0.961928 0.868179 0.159583
0.963106 0.863493 0.154921
0.000000 0.970889 0.295493
0.000000 0.970889 0.295493
0.000000 0.970889 0.295493
0.000000 0.970889 0.295493
0.000000 0.970889 0.295493
0.000000 0.970889 0.295493
0.000000 0.970889 0.295493
0.000000 0.970889 0.295493
0.000117 0.970223 0.289324
0.000117 0.970559 0.287594
0.000117 0.971232 0.284132
0.000000 0.971561 0.292032
0.118006 0.972235 0.295285
0.253100 0.973190 0.304398
0.337948 0.974939 0.312706
0.423189 0.974679 0.321771
0.499237 0.976618 0.335047
0.568249 0.977720 0.345395
0.623186 0.980845 0.330849
0.687316 0.981096 0.315547
0.749097 0.982413 0.292347
0.808535 0.985467 0.257789
0.867782 0.986550 0.208187
0.912389 0.989547 0.000000
0.925879 0.989243 0.000000
0.935061 0.972496 0.129785
0.942107 0.949905 0.193367
0.948571 0.935417 0.199622
0.948379 0.931092 0.196692
0.948188 0.926431 0.195491
0.950735 0.920712 0.192562
0.952305 0.914352 0.186926
0.953483 0.910339 0.178805
0.000000 0.970889 0.295493
0.000000 0.970889 0.295493
0.000000 0.970889 0.295493
0.000000 0.970889 0.295493
0.000000 0.970889 0.295493
0.000000 0.970889 0.295493
0.000000 0.970889 0.295493
0.000000 0.970889 0.295493
0.000000 0.970889 0.295493
0.000000 0.970889 0.295493
0.000701 0.971529 0.298198
0.000000 0.970547 0.306851
0.090241 0.972157 0.317113
0.225334 0.972439 0.329686
0.313504 0.974773 0.343409
0.390922 0.975343 0.360149
0.465994 0.975970 0.374179
0.533244 0.979106 0.387234
0.592482 0.980430 0.396382
0.646442 0.981569 0.386051
0.704117 0.982962 0.373233
0.768246 0.983885 0.354473
0.826315 0.985620 0.330297
0.884776 0.988371 0.291301
0.935616 0.990993 0.230116
0.930158 0.989268 0.133382
0.932495 0.990124 0.191380
0.938564 0.974621 0.212453
0.939742 0.968927 0.212984
0.941897 0.964545 0.212762
0.940336 0.960919 0.209833
0.941514 0.956569 0.203442
0.944060 0.950849 0.200512
0.000000 0.970889 0.295493
0.000000 0.970889 0.295493
0.000000 0.970889 0.295493
0.000000 0.970889 0.295493
0.000000 0.970889 0.295493
0.000000 0.970889 0.295493
0.000000 0.970889 0.295493
0.000000 0.970889 0.295493
0.000000 0.970889 0.295493
0.000000 0.970889 0.295493
0.000000 0.970889 0.295493
0.000000 0.970547 0.306851
0.000000 0.972188 0.313996
0.182518 0.973742 0.323915
0.282225 0.973483 0.337859
0.374109 0.974726 0.356019
0.441752 0.975853 0.369827
0.509003 0.977310 0.391536
0.574883 0.978792 0.416702
0.624736 0.979335 0.420214
0.679281 0.982116 0.417027
0.733242 0.982583 0.410155
0.786811 0.985060 0.402530
0.844487 0.987461 0.384523
0.901579 0.989563 0.352449
0.938536 0.992147 0.302179
0.935616 0.990993 0.230116
0.932687 0.990416 0.215074
0.934055 0.990391 0.211613
0.934055 0.990391 0.211613
0.934055 0.990391 0.211613
0.932687 0.990416 0.215074
0.934055 0.988711 0.220266
0.000000 0.970889 0.295493
0.000000 0.970889 0.295493
0.000000 0.970889 0.295493
0.000000 0.970889 0.295493
0.000000 0.970889 0.295493
0.000000 0.970889 0.295493
0.000000 0.970889 0.295493
0.000000 0.970889 0.295493
0.000000 0.970889 0.295493
0.000000 0.970889 0.295493
0.000000 0.970889 0.295493
0.000000 0.971891 0.299930
0.000000 0.972188 0.313996
0.142440 0.973315 0.319872
0.259351 0.972670 0.333507
0.344199 0.973748 0.345277
0.417510 0.976074 0.363746
0.487105 0.977810 0.386429
0.553379 0.978290 0.407161
0.608508 0.980697 0.421500
0.663446 0.981805 0.417336
0.715644 0.983970 0.414902
0.770582 0.986086 0.405548
0.825912 0.986864 0.393485
0.882611 0.987952 0.376231
