lut/fujifilm/F-log2/F-Log2_LUT_E_Ver.1.05/X-H2/XH2_FLog2_FGamut_to_ETERNA_BT.709_33grid_V.1.00.cube
#title:FLog2_FGamut_to_ETERNA_BT.709
#FUJIFILM Corporation
#Gamma:F-Log2 to ETERNA
#Gamut:F-Gamut to ITU-R BT.709
#Version:1.00
LUT_3D_SIZE 9
0.006836 0.006836 0.006836
0.026387 0.006729 0.007503
0.139976 0.006510 0.010535
0.269593 0.010254 0.019647
0.531376 0.010342 0.043598
0.952876 0.016117 0.107637
0.999990 0.017046 0.116340
0.999990 0.017046 0.116340
0.999990 0.017046 0.116340
0.000373 0.019980 0.007503
0.022854 0.023475 0.007639
0.145636 0.019712 0.013379
0.312411 0.009959 0.020232
0.672720 0.013802 0.066246
0.999990 0.017046 0.116340
0.999990 0.017046 0.116340
0.999990 0.017046 0.116340
0.999990 0.017046 0.116340
0.000000 0.147679 0.003852
0.000064 0.154991 0.007003
0.153532 0.164556 0.000680
0.375236 0.165562 0.013665
0.733218 0.144446 0.065796
0.999990 0.017046 0.116340
0.999990 0.017046 0.116340
0.999990 0.017046 0.116340
0.999990 0.017046 0.116340
0.000463 0.380662 0.000402
0.000000 0.403019 0.000000
0.000060 0.394339 0.000000
0.369965 0.390707 0.000000
0.730275 0.399927 0.017270
1.000000 0.355744 0.092860
0.999595 0.258741 0.106414
1.000000 0.221729 0.107425
1.000000 0.178712 0.114161
0.000313 0.793338 0.000324
0.000000 0.780695 0.000000
0.000140 0.765344 0.000000
0.290483 0.750159 0.001282
0.675447 0.738855 0.000661
0.979290 0.712373 0.000000
0.999340 0.572171 0.052266
0.999571 0.528818 0.060730
0.999408 0.487139 0.070171
0.000137 0.969742 0.171823
0.000000 0.970446 0.162196
0.000000 0.970115 0.154296
0.195644 0.972375 0.159468
0.581384 0.969726 0.155078
0.852215 0.938561 0.000000
0.960598 0.853462 0.000000
0.973946 0.789826 0.000399
0.981203 0.761330 0.000000
0.000000 0.970889 0.295493
0.000000 0.970889 0.295493
0.000000 0.970889 0.295493
0.090241 0.972157 0.317113
0.465994 0.975970 0.374179
0.704117 0.982962 0.373233
0.935616 0.990993 0.230116
0.939742 0.968927 0.212984
0.944060 0.950849 0.200512
0.000000 0.970889 0.295493
0.000000 0.970889 0.295493
0.000000 0.970889 0.295493
0.000000 0.970882 0.305121
0.379194 0.973946 0.355266
0.629427 0.980229 0.420437
0.846833 0.987403 0.387231
0.935616 0.989984 0.235308
0.935616 0.989984 0.235308
0.000000 0.970889 0.295493
0.000000 0.970889 0.295493
0.000000 0.970889 0.295493
0.000000 0.970889 0.295493
0.260328 0.973647 0.334484
0.559047 0.980162 0.408359
0.778404 0.983911 0.404792
0.936974 0.991209 0.285406
0.935616 0.989984 0.235308
0.006836 0.006164 0.010297
0.028732 0.006673 0.010211
0.144667 0.006732 0.014219
0.279369 0.010704 0.017387
0.581813 0.013199 0.050794
0.999013 0.016406 0.113632
0.999990 0.017046 0.116340
0.999990 0.017046 0.116340
0.999990 0.017046 0.116340
0.000172 0.022955 0.026984
0.029297 0.029297 0.029297
0.158339 0.022756 0.015778
0.334307 0.009795 0.023604
0.723944 0.013310 0.071489
0.999990 0.017046 0.116340
0.999990 0.017046 0.116340
0.999990 0.017046 0.116340
0.999990 0.017046 0.116340
0.000447 0.153893 0.063047
0.000000 0.160265 0.049426
0.165259 0.163264 0.019406
0.382864 0.157718 0.016903
0.744372 0.131861 0.067082
0.999990 0.017046 0.116340
0.999990 0.017046 0.116340
0.999990 0.017046 0.116340
0.999990 0.017046 0.116340
0.000000 0.400527 0.097274
0.000635 0.398910 0.051613
0.000000 0.383002 0.007547
0.372713 0.377645 0.000000
0.736547 0.381114 0.020594
0.998751 0.334780 0.094007
0.999804 0.240067 0.107785
0.999251 0.202079 0.107820
1.000000 0.160711 0.112070
0.000000 0.788481 0.129715
0.000000 0.772958 0.048863
0.000000 0.752364 0.000137
0.291278 0.735144 0.000000
0.683673 0.723003 0.000746
0.986537 0.692856 0.012669
0.999943 0.551151 0.056121
0.999782 0.508128 0.072485
0.999620 0.467793 0.075003
0.000000 0.970984 0.235011
0.000000 0.969735 0.181453
0.000000 0.968778 0.151591
0.192323 0.971455 0.155786
0.589801 0.959879 0.149442
0.860631 0.927707 0.000000
0.963346 0.840400 0.000000
0.978064 0.776066 0.000484
0.981605 0.747654 0.000434
0.000000 0.971212 0.313020
0.000000 0.970889 0.295493
0.000000 0.970889 0.295493
0.090241 0.972157 0.317113
0.472448 0.976508 0.363042
0.714678 0.983426 0.351715
0.933280 0.989465 0.175582
0.940336 0.961255 0.208102
0.947393 0.940437 0.202551
0.000000 0.970210 0.308582
0.000000 0.970889 0.295493
0.000000 0.970889 0.295493
0.000000 0.970547 0.306851
0.380171 0.974588 0.357973
0.631774 0.980508 0.421414
0.851524 0.987962 0.389184
0.935616 0.989984 0.235308
0.935616 0.989984 0.235308
0.000000 0.970547 0.306851
0.000000 0.970889 0.295493
0.000000 0.970889 0.295493
0.000000 0.970889 0.295493
0.268735 0.973787 0.337414
0.566478 0.978988 0.412044
0.783095 0.984805 0.405016
0.940691 0.990790 0.286383
0.935616 0.989984 0.235308
0.007601 0.010356 0.089504
0.029499 0.010528 0.091148
0.161662 0.007208 0.104254
0.312199 0.010149 0.114036
0.645146 0.014351 0.110038
0.999990 0.017046 0.116340
0.999990 0.017046 0.116340
0.999990 0.017046 0.116340
0.999990 0.017046 0.116340
0.000535 0.038470 0.117464
0.014419 0.035485 0.122125
0.178455 0.026117 0.134167
0.378080 0.010286 0.146124
0.783764 0.013251 0.103355
0.999990 0.017046 0.116340
0.999990 0.017046 0.116340
0.999990 0.017046 0.116340
0.999990 0.017046 0.116340
0.000609 0.173055 0.169548
0.000000 0.177747 0.164579
0.173828 0.173828 0.173828
0.411185 0.162179 0.168085
0.773106 0.125763 0.143051
0.999990 0.017046 0.116340
0.999990 0.017046 0.116340
0.999990 0.017046 0.116340
0.999990 0.017046 0.116340
0.000000 0.445611 0.259868
0.000000 0.419340 0.224762
0.000000 0.396690 0.202215
0.392617 0.385565 0.188727
0.755102 0.378160 0.149899
0.999938 0.317084 0.096356
1.000000 0.224715 0.107648
0.999854 0.181731 0.108215
0.999501 0.136400 0.111266
0.000000 0.795114 0.360723
0.000000 0.774550 0.305828
0.000000 0.753625 0.249203
0.289880 0.729843 0.210274
0.696558 0.710450 0.168652
0.993787 0.675020 0.016968
0.999179 0.530156 0.063438
1.000000 0.488788 0.067688
0.999247 0.446133 0.076153
0.000000 0.969019 0.425107
0.000300 0.969411 0.378692
0.000308 0.969171 0.319941
0.143819 0.969688 0.274965
0.595660 0.950952 0.231441
0.869047 0.916516 0.000106
0.964725 0.828035 0.000000
0.979833 0.762028 0.000000
0.986115 0.732220 0.000000
0.000000 0.970363 0.418184
0.000883 0.970718 0.387566
0.000000 0.971123 0.363872
0.054260 0.972567 0.357976
0.476746 0.976389 0.378085
0.723477 0.983236 0.346746
0.925879 0.989243 0.000000
0.942692 0.951211 0.202242
0.948379 0.931092 0.196692
0.000098 0.970033 0.410285
0.000000 0.970749 0.381399
0.000000 0.970122 0.359433
0.000000 0.971161 0.348074
0.375669 0.975329 0.374523
0.632751 0.981149 0.424121
0.855630 0.985870 0.389184
0.935616 0.989984 0.235308
0.935616 0.989984 0.235308
0.000098 0.970705 0.406824
0.000000 0.971085 0.379668
0.000000 0.970794 0.355973
0.000499 0.971142 0.334984
0.270294 0.975061 0.352456
0.566478 0.978653 0.413773
0.784072 0.985446 0.407722
0.939714 0.990150 0.283675
0.935616 0.989984 0.235308
0.007189 0.016207 0.188946
0.010713 0.013145 0.178340
0.169858 0.007202 0.202720
0.364379 0.010444 0.241215
0.734072 0.014059 0.298059
0.999377 0.017134 0.280253
0.999972 0.017192 0.235570
0.999598 0.017039 0.125969
0.999990 0.017046 0.116340
0.000000 0.056991 0.221258
0.000000 0.059635 0.232840
0.188191 0.046689 0.268270
0.438465 0.009999 0.314750
0.845306 0.013128 0.362325
0.999961 0.017096 0.296051
0.999972 0.016520 0.239031
0.999990 0.017046 0.116340
0.999990 0.017046 0.116340
0.000360 0.204454 0.342610
0.000000 0.206458 0.351485
0.161849 0.200135 0.361043
0.453560 0.183917 0.364758
0.825064 0.134555 0.381254
0.999951 0.023050 0.325382
0.999972 0.016520 0.239031
0.999990 0.017046 0.116340
0.999990 0.017046 0.116340
0.000278 0.501518 0.517910
0.000508 0.468920 0.471000
0.000000 0.439999 0.433941
0.415039 0.415039 0.415039
0.792392 0.390261 0.400969
0.999496 0.329372 0.342629
0.999373 0.261525 0.246856
0.999240 0.214082 0.106004
0.999089 0.161408 0.112070
0.000000 0.802741 0.605796
0.000034 0.784460 0.560754
0.000456 0.757867 0.508122
0.272041 0.734494 0.472961
0.709618 0.708078 0.429302
0.999213 0.666040 0.348788
0.999531 0.532806 0.280157
0.998997 0.487279 0.199031
0.999447 0.439463 0.075708
0.000259 0.968694 0.622343
0.000000 0.968105 0.584583
0.000000 0.967185 0.538922
0.000000 0.958555 0.504175
0.595046 0.937261 0.466305
0.884050 0.903903 0.385485
0.984428 0.813389 0.339860
0.995440 0.749904 0.278077
0.993717 0.720058 0.204988
0.000000 0.969791 0.566301
0.000078 0.970179 0.529515
0.000280 0.969893 0.496192
0.000671 0.971580 0.477910
0.464999 0.977827 0.478590
0.732256 0.984200 0.455816
0.940297 0.990111 0.299472
0.951088 0.941174 0.317566
0.953262 0.920852 0.279445
0.000270 0.969126 0.560133
0.000471 0.969176 0.525077
0.000000 0.969925 0.490023
0.000088 0.971282 0.463843
0.363339 0.974453 0.471343
0.643684 0.981092 0.515664
0.858158 0.988361 0.463953
0.943227 0.990017 0.317976
0.939714 0.990150 0.283675
0.000270 0.970134 0.554942
0.000000 0.969208 0.518911
0.000671 0.969900 0.486563
0.000000 0.970647 0.451508
0.242128 0.973874 0.449586
0.563336 0.979610 0.485613
0.788754 0.985237 0.473618
0.942049 0.990334 0.345133
0.938738 0.989509 0.280969
0.000000 0.040809 0.339375
0.000000 0.043498 0.325532
0.182322 0.034347 0.355769
0.429646 0.010333 0.438949
0.832371 0.013781 0.555658
1.000000 0.017394 0.524884
0.999741 0.017191 0.450336
1.000000 0.016576 0.409113
0.999559 0.016658 0.367891
0.000256 0.082691 0.404481
0.000629 0.094941 0.451785
0.183422 0.090401 0.518277
0.525599 0.025908 0.612508
0.910947 0.014178 0.664468
0.999137 0.016702 0.557230
0.999347 0.017184 0.459965
0.998965 0.016602 0.412575
0.999559 0.017330 0.364431
0.000845 0.268662 0.627499
0.000444 0.274945 0.664731
0.000000 0.258985 0.655720
0.494527 0.231850 0.670106
0.880901 0.169483 0.688862
1.000000 0.117604 0.599187
0.999643 0.128485 0.477165
0.999329 0.048584 0.418262
0.999951 0.017337 0.354801
0.000000 0.563455 0.773691
0.000208 0.539163 0.743999
0.000439 0.505556 0.702282
0.393437 0.472061 0.709199
0.821249 0.426468 0.704227
0.999419 0.364906 0.639582
1.000000 0.338750 0.515109
0.999697 0.300185 0.458124
1.000000 0.251937 0.397012
0.000000 0.802081 0.804766
0.000000 0.790457 0.779426
0.000405 0.770833 0.741304
0.010986 0.746618 0.726879
0.714844 0.714844 0.714844
1.000000 0.658190 0.660374
0.999463 0.561377 0.552968
0.999119 0.517822 0.486886
0.999953 0.469581 0.416144
0.000240 0.959765 0.788297
0.000000 0.956488 0.764380
0.000000 0.948860 0.734070
0.000000 0.936228 0.713921
0.565500 0.921888 0.700055
0.890080 0.887347 0.651941
0.998866 0.801005 0.588482
0.998924 0.745117 0.516316
1.000000 0.715182 0.452101
0.000049 0.966868 0.726532
0.000249 0.967255 0.689746
0.000451 0.966969 0.656423
0.000451 0.970666 0.637386
0.427046 0.976429 0.636732
0.737310 0.984479 0.629582
0.957855 0.989688 0.529727
0.968858 0.929134 0.512851
0.970054 0.909179 0.466832
0.000441 0.966538 0.718634
0.000000 0.966951 0.685309
0.000451 0.968650 0.647770
0.000259 0.969366 0.618882
0.305249 0.973872 0.609559
0.631936 0.981187 0.623091
0.859307 0.990448 0.604396
0.951019 0.992934 0.470977
0.947899 0.992737 0.428777
0.000441 0.967211 0.715171
0.000000 0.966620 0.677410
0.000000 0.968010 0.645063
0.000000 0.968732 0.606547
0.143569 0.972522 0.595118
0.546504 0.979475 0.598984
0.791665 0.986968 0.602699
0.952580 0.992528 0.494671
0.948292 0.991736 0.424341
0.000000 0.088112 0.566132
0.000226 0.088790 0.553042
0.161314 0.090754 0.608706
0.504218 0.088210 0.724695
0.915610 0.016803 0.835751
0.999873 0.032034 0.759043
1.000000 0.088126 0.690989
0.999864 0.063530 0.656860
1.000000 0.028915 0.620332
0.000000 0.141603 0.675836
0.000330 0.161825 0.742091
0.000511 0.167061 0.800309
0.537565 0.157861 0.895376
0.941402 0.016754 0.922546
1.000000 0.038286 0.802442
1.000000 0.102095 0.713844
0.999652 0.078843 0.672794
1.000000 0.037900 0.624460
0.000336 0.360603 0.883555
0.001111 0.366907 0.891899
0.000346 0.347592 0.890562
0.405857 0.308448 0.919447
0.893709 0.233127 0.944337
0.999736 0.178572 0.844363
0.999363 0.180100 0.726110
1.000000 0.130140 0.679817
0.999682 0.054259 0.619406
0.000000 0.583282 0.886359
0.001136 0.570918 0.886444
0.000561 0.555928 0.888039
0.000582 0.527217 0.915899
0.788521 0.472500 0.938524
0.999178 0.371867 0.878489
0.999801 0.356414 0.733695
0.999840 0.319491 0.683856
1.000000 0.281231 0.631309
0.000588 0.761283 0.875664
0.000789 0.754613 0.875219
0.000014 0.746630 0.875528
0.000000 0.733276 0.893896
0.622538 0.708604 0.911981
0.996406 0.644252 0.888094
0.999605 0.586735 0.747551
0.999443 0.555137 0.705078
0.999674 0.522203 0.659898
0.000000 0.912983 0.878008
0.000854 0.910275 0.878762
0.000000 0.905640 0.881023
0.000000 0.899984 0.865758
0.417500 0.888937 0.872418
0.860352 0.860352 0.860352
0.999813 0.796655 0.796855
0.999469 0.751755 0.737696
0.999307 0.720494 0.693492
0.000614 0.964287 0.875403
0.000422 0.965339 0.844785
0.000230 0.965720 0.817628
0.000623 0.967071 0.801078
0.249497 0.974482 0.804038
0.701895 0.985332 0.803742
0.972886 0.971312 0.764812
0.989557 0.916661 0.728371
0.992124 0.895338 0.685812
0.000614 0.965295 0.870211
0.000000 0.965371 0.838616
0.000000 0.965086 0.805293
0.000000 0.966474 0.772944
0.000039 0.971478 0.762785
0.585968 0.981336 0.760020
0.854001 0.990986 0.761164
0.966625 0.995261 0.675051
0.964873 0.994704 0.631121
0.000029 0.963653 0.863067
0.000814 0.965010 0.836887
0.000039 0.964421 0.799125
0.000000 0.966145 0.765047
0.000000 0.971179 0.748718
0.482355 0.977688 0.742167
0.789098 0.987120 0.754277
0.968578 0.995198 0.687386
0.963896 0.994735 0.624952
0.000330 0.152414 0.790544
0.000531 0.147760 0.779714
0.000300 0.176997 0.843929
0.461083 0.193510 0.938104
0.908626 0.153385 0.990289
0.999727 0.170410 0.946375
0.999525 0.186827 0.896636
0.999928 0.177519 0.874981
1.000000 0.164559 0.846934
0.000643 0.224249 0.890977
0.000625 0.247583 0.890804
0.000000 0.269606 0.891387
0.266665 0.295901 0.920801
0.837382 0.249330 0.982937
1.000000 0.167646 0.991812
1.000000 0.199762 0.921222
0.999525 0.187835 0.891446
0.999544 0.170886 0.858739
0.000689 0.403918 0.890886
0.000000 0.398281 0.888711
0.000114 0.389265 0.890749
0.000124 0.377597 0.890837
0.717051 0.365728 0.964758
0.999687 0.206662 0.999676
0.999477 0.237434 0.936008
0.999899 0.207144 0.902410
0.999544 0.170886 0.858739
0.000170 0.557602 0.889016
0.000000 0.543285 0.887149
0.000000 0.529270 0.889718
0.000793 0.514255 0.887852
0.556027 0.513376 0.943785
0.999914 0.404338 0.992046
1.000000 0.374765 0.929563
1.000000 0.348164 0.886559
0.999035 0.314919 0.846571
0.000000 0.726644 0.877652
0.000000 0.712966 0.878493
0.000837 0.695269 0.880840
0.000000 0.677629 0.880480
0.296274 0.659572 0.923687
0.886138 0.628924 0.973538
0.999395 0.571801 0.919228
0.999032 0.546539 0.878931
0.999846 0.515583 0.839164
0.000000 0.886636 0.874496
0.000300 0.873967 0.870145
0.000510 0.855630 0.869785
0.000721 0.836955 0.871156
0.000530 0.825910 0.902836
0.746198 0.814422 0.959367
0.999420 0.770098 0.943192
0.999842 0.745186 0.881907
0.999671 0.723913 0.846269
0.000220 0.963944 0.886761
0.000220 0.963944 0.886761
0.000220 0.963944 0.886761
0.000000 0.962632 0.887516
0.000018 0.967926 0.901051
0.565815 0.965157 0.947579
0.942383 0.942383 0.942383
0.999706 0.905502 0.896277
0.999141 0.885230 0.865078
0.000220 0.963944 0.886761
0.000220 0.963944 0.886761
0.000220 0.963944 0.886761
0.000220 0.963944 0.886761
0.000000 0.966620 0.892176
0.432865 0.978547 0.901817
0.821527 0.990496 0.900269
0.983992 0.998243 0.862574
0.980870 0.997038 0.825566
0.000220 0.963944 0.886761
0.000220 0.963944 0.886761
0.000220 0.963944 0.886761
0.000220 0.963944 0.886761
0.000220 0.964616 0.883300
0.244988 0.974456 0.884532
0.733748 0.986488 0.885569
0.984968 0.998547 0.867011
0.979894 0.997406 0.817668
0.001037 0.222240 0.891730
0.000000 0.234604 0.891645
0.000213 0.272256 0.893340
0.057647 0.321611 0.908313
0.797236 0.331581 0.973102
1.000000 0.200967 1.000000
1.000000 0.226311 0.999280
1.000000 0.226311 0.999280
1.000000 0.226311 0.999280
0.000968 0.303909 0.891129
0.000968 0.303909 0.891129
0.000968 0.303909 0.891129
0.088928 0.323909 0.908672
0.749919 0.336651 0.968306
0.999687 0.206662 0.999676
1.000000 0.226311 0.999280
1.000000 0.226311 0.999280
1.000000 0.226311 0.999280
0.001083 0.401908 0.891641
0.000699 0.392587 0.889242
0.000316 0.382594 0.890304
0.000518 0.375587 0.891590
0.664047 0.391924 0.960320
1.000000 0.299302 0.998988
1.000000 0.244650 0.999641
1.000000 0.228322 0.998528
1.000000 0.226311 0.999280
0.000000 0.549954 0.887594
0.000190 0.534267 0.889187
0.000000 0.519950 0.887320
0.000410 0.504262 0.888915
0.531593 0.507927 0.941696
0.954320 0.454042 0.984200
0.999753 0.363332 0.998028
1.000000 0.342648 1.000000
1.000000 0.327297 1.000000
0.000819 0.718939 0.878938
0.000244 0.703950 0.880531
0.000062 0.686949 0.882878
0.000272 0.668276 0.884250
0.252882 0.645548 0.921239
0.828071 0.633237 0.966566
0.999213 0.541694 0.989062
0.999231 0.517688 0.992695
0.999645 0.492679 0.991892
0.000098 0.880302 0.872320
0.000893 0.864951 0.872184
0.000126 0.845637 0.870847
0.000338 0.826962 0.872218
0.000739 0.808244 0.899016
0.695780 0.788231 0.952343
1.000000 0.750670 0.989245
0.999267 0.709696 0.989058
0.999287 0.686025 0.990960
0.000220 0.963944 0.886761
0.000220 0.963944 0.886761
0.000220 0.963944 0.886761
0.000220 0.964280 0.885031
0.000000 0.952271 0.896478
0.504645 0.937539 0.941840
0.893133 0.914099 0.977335
0.999906 0.880012 0.992739
1.000000 0.862010 0.990649
0.000220 0.963944 0.886761
0.000220 0.963944 0.886761
0.000220 0.963944 0.886761
0.000220 0.963944 0.886761
0.000000 0.964947 0.891200
0.268637 0.975523 0.928375
0.759149 0.989121 0.968152
1.000000 1.000000 1.000000
0.997070 0.999423 0.984957
0.000220 0.963944 0.886761
0.000220 0.963944 0.886761
0.000220 0.963944 0.886761
0.000220 0.963944 0.886761
0.000220 0.963944 0.886761
0.000000 0.971572 0.917071
0.647129 0.983654 0.956024
0.953277 0.997060 0.992051
0.995700 1.000000 0.983225
0.000979 0.292243 0.891216
0.000777 0.298914 0.891661
0.000968 0.303909 0.891129
0.203684 0.328990 0.915609
0.815811 0.329826 0.976254
0.999878 0.211658 0.999144
1.000000 0.226311 0.999280
1.000000 0.226311 0.999280
1.000000 0.226311 0.999280
0.000184 0.307594 0.891352
0.000777 0.298914 0.891661
0.000968 0.303909 0.891129
0.149533 0.325543 0.912629
0.768493 0.334895 0.971456
0.999114 0.192008 0.999539
1.000000 0.226311 0.999280
1.000000 0.226311 0.999280
1.000000 0.226311 0.999280
0.000000 0.395934 0.891195
0.000901 0.385580 0.890528
0.000518 0.375587 0.891590
0.000717 0.368917 0.891144
0.677738 0.384614 0.962051
1.000000 0.282638 0.999606
0.999467 0.236666 0.999950
1.000000 0.226311 0.999280
1.000000 0.226311 0.999280
0.000000 0.543285 0.887149
0.000783 0.525923 0.887765
0.000602 0.509259 0.888384
0.000027 0.494606 0.888246
0.540594 0.499723 0.943204
0.961759 0.441874 0.984509
1.000000 0.354651 0.998337
0.999579 0.335001 0.998731
0.999397 0.318337 0.999347
0.000000 0.712966 0.878493
0.000837 0.695269 0.880840
0.000000 0.676957 0.883941
0.000282 0.656272 0.886066
0.272050 0.636457 0.917776
0.835117 0.622408 0.969582
0.999223 0.529354 0.992610
0.999635 0.504347 0.991804
1.000000 0.479979 0.993707
0.000000 0.872654 0.870898
0.000000 0.856328 0.869785
0.000721 0.836955 0.871156
0.000931 0.818282 0.872527
0.000357 0.797915 0.901808
0.702434 0.779747 0.952874
0.999832 0.736353 0.987379
0.999277 0.697692 0.990875
0.999297 0.674357 0.991047
0.000220 0.963944 0.886761
0.000220 0.963944 0.886761
0.000220 0.963608 0.888492
0.000029 0.959621 0.883832
0.000039 0.945937 0.894301
0.515014 0.929310 0.939887
0.897441 0.904664 0.980353
0.999131 0.872700 0.989585
1.000000 0.850343 0.990735
0.000220 0.963944 0.886761
0.000220 0.963944 0.886761
0.000220 0.963944 0.886761
0.000220 0.963944 0.886761
0.000000 0.964611 0.892930
0.274697 0.975384 0.930328
0.764231 0.988341 0.967399
1.000000 1.000000 1.000000
0.996094 0.996094 0.996094
0.000220 0.963944 0.886761
0.000220 0.963944 0.886761
0.000220 0.963944 0.886761
0.000220 0.963944 0.886761
0.000220 0.963944 0.886761
0.000000 0.971908 0.915340
0.654166 0.984491 0.958954
0.959338 0.997259 0.992273
1.000000 1.000000 1.000000
