lut/fujifilm/F-log2/F-Log2_LUT_E_Ver.1.05/X-H2/XH2_FLog2_FGamut_to_ETERNA_BT.709_33grid_V.1.00.cube
#title:FLog2_FGamut_to_ETERNA_BT.709
#FUJIFILM Corporation
#Gamma:F-Log2 to ETERNA
#Gamut:F-Gamut to ITU-R BT.709
#Version:1.00
LUT_3D_SIZE 5
0.006836 0.006836 0.006836
0.139976 0.006510 0.010535
0.531376 0.010342 0.043598
0.999990 0.017046 0.116340
0.999990 0.017046 0.116340
0.000000 0.147679 0.003852
0.153532 0.164556 0.000680
0.733218 0.144446 0.065796
0.999990 0.017046 0.116340
0.999990 0.017046 0.116340
0.000313 0.793338 0.000324
0.000140 0.765344 0.000000
0.675447 0.738855 0.000661
0.999340 0.572171 0.052266
0.999408 0.487139 0.070171
0.000000 0.970889 0.295493
0.000000 0.970889 0.295493
0.465994 0.975970 0.374179
0.935616 0.990993 0.230116
0.944060 0.950849 0.200512
0.000000 0.970889 0.295493
0.000000 0.970889 0.295493
0.260328 0.973647 0.334484
0.778404 0.983911 0.404792
0.935616 0.989984 0.235308
0.007601 0.010356 0.089504
0.161662 0.007208 0.104254
0.645146 0.014351 0.110038
0.999990 0.017046 0.116340
0.999990 0.017046 0.116340
0.000609 0.173055 0.169548
0.173828 0.173828 0.173828
0.773106 0.125763 0.143051
0.999990 0.017046 0.116340
0.999990 0.017046 0.116340
0.000000 0.795114 0.360723
0.000000 0.753625 0.249203
0.696558 0.710450 0.168652
0.999179 0.530156 0.063438
0.999247 0.446133 0.076153
0.000000 0.970363 0.418184
0.000000 0.971123 0.363872
0.476746 0.976389 0.378085
0.925879 0.989243 0.000000
0.948379 0.931092 0.196692
0.000098 0.970705 0.406824
0.000000 0.970794 0.355973
0.270294 0.975061 0.352456
0.784072 0.985446 0.407722
0.935616 0.989984 0.235308
0.000000 0.040809 0.339375
0.182322 0.034347 0.355769
0.832371 0.013781 0.555658
0.999741 0.017191 0.450336
0.999559 0.016658 0.367891
0.000845 0.268662 0.627499
0.000000 0.258985 0.655720
0.880901 0.169483 0.688862
0.999643 0.128485 0.477165
0.999951 0.017337 0.354801
0.000000 0.802081 0.804766
0.000405 0.770833 0.741304
0.714844 0.714844 0.714844
0.999463 0.561377 0.552968
0.999953 0.469581 0.416144
0.000049 0.966868 0.726532
0.000451 0.966969 0.656423
0.427046 0.976429 0.636732
0.957855 0.989688 0.529727
0.970054 0.909179 0.466832
0.000441 0.967211 0.715171
0.000000 0.968010 0.645063
0.143569 0.972522 0.595118
0.791665 0.986968 0.602699
0.948292 0.991736 0.424341
0.000330 0.152414 0.790544
0.000300 0.176997 0.843929
0.908626 0.153385 0.990289
0.999525 0.186827 0.896636
1.000000 0.164559 0.846934
0.000689 0.403918 0.890886
0.000114 0.389265 0.890749
0.717051 0.365728 0.964758
0.999477 0.237434 0.936008
0.999544 0.170886 0.858739
0.000000 0.726644 0.877652
0.000837 0.695269 0.880840
0.296274 0.659572 0.923687
0.999395 0.571801 0.919228
0.999846 0.515583 0.839164
0.000220 0.963944 0.886761
0.000220 0.963944 0.886761
0.000018 0.967926 0.901051
0.942383 0.942383 0.942383
0.999141 0.885230 0.865078
0.000220 0.963944 0.886761
0.000220 0.963944 0.886761
0.000220 0.964616 0.883300
0.733748 0.986488 0.885569
0.979894 0.997406 0.817668
0.000979 0.292243 0.891216
0.000968 0.303909 0.891129
0.815811 0.329826 0.976254
1.000000 0.226311 0.999280
1.000000 0.226311 0.999280
0.000000 0.395934 0.891195
0.000518 0.375587 0.891590
0.677738 0.384614 0.962051
0.999467 0.236666 0.999950
1.000000 0.226311 0.999280
0.000000 0.712966 0.878493
0.000000 0.676957 0.883941
0.272050 0.636457 0.917776
0.999223 0.529354 0.992610
1.000000 0.479979 0.993707
0.000220 0.963944 0.886761
0.000220 0.963608 0.888492
0.000039 0.945937 0.894301
0.897441 0.904664 0.980353
1.000000 0.850343 0.990735
0.000220 0.963944 0.886761
0.000220 0.963944 0.886761
0.000220 0.963944 0.886761
0.654166 0.984491 0.958954
1.000000 1.000000 1.000000
