lut/fujifilm/F-Log/F-Log_LUT_E_Ver.1.27/GFX100S/GFX100S_FLog_FGamut_to_ETERNA-BB_BT.709_33grid_V.1.01.cube
#title:FLog_FGamut_to_ETERNA-BB_BT.709
#FUJIFILM Corporation
#Gamma:F-Log to ETERNA BLEACH BYPASS
#Gamut:F-Gamut to ITU-R BT.709
#Version:1.01
LUT_3D_SIZE 33
0.000000 0.000000 0.000000
0.000000 0.000000 0.000000
0.017397 0.003603 0.004352
0.065488 0.006181 0.010569
0.125118 0.006166 0.017013
0.215241 0.010117 0.034418
0.317092 0.013783 0.065359
0.417384 0.013821 0.093372
0.497731 0.016648 0.116500
0.559313 0.016571 0.135277
0.604274 0.020537 0.151125
0.633791 0.023526 0.161113
0.654319 0.023051 0.169680
0.654319 0.023051 0.169680
0.654319 0.023051 0.169680
0.654319 0.023051 0.169680
0.654319 0.023051 0.169680
0.654319 0.023051 0.169680
0.654319 0.023051 0.169680
0.654319 0.023051 0.169680
0.654319 0.023051 0.169680
0.654319 0.023051 0.169680
0.654319 0.023051 0.169680
0.654319 0.023051 0.169680
0.654319 0.023051 0.169680
0.654319 0.023051 0.169680
0.654319 0.023051 0.169680
0.654319 0.023051 0.169680
0.654319 0.023051 0.169680
0.654319 0.023051 0.169680
0.654319 0.023051 0.169680
0.654319 0.023051 0.169680
0.654319 0.023051 0.169680
0.000000 0.000000 0.000000
0.000000 0.000000 0.000000
0.000000 0.000000 0.000000
0.045354 0.003301 0.009681
0.105566 0.006608 0.014613
0.178877 0.010279 0.026160
0.282097 0.013248 0.057101
0.382389 0.013622 0.083382
0.469190 0.014300 0.109219
0.532724 0.016848 0.126488
0.582185 0.016711 0.143089
0.616394 0.020258 0.155031
0.641222 0.022689 0.163066
0.654319 0.023051 0.169680
0.654319 0.023051 0.169680
0.654319 0.023051 0.169680
0.654319 0.023051 0.169680
0.654319 0.023051 0.169680
0.654319 0.023051 0.169680
0.654319 0.023051 0.169680
0.654319 0.023051 0.169680
0.654319 0.023051 0.169680
0.654319 0.023051 0.169680
0.654319 0.023051 0.169680
0.654319 0.023051 0.169680
0.654319 0.023051 0.169680
0.654319 0.023051 0.169680
0.654319 0.023051 0.169680
0.654319 0.023051 0.169680
0.654319 0.023051 0.169680
0.654319 0.023051 0.169680
0.654319 0.023051 0.169680
0.654319 0.023051 0.169680
0.000000 0.000000 0.000000
0.000000 0.000000 0.000000
0.000000 0.000000 0.000000
0.029517 0.003661 0.006527
0.079955 0.006518 0.013723
0.145644 0.006701 0.020386
0.244758 0.013442 0.042676
0.341334 0.012890 0.074902
0.431850 0.014159 0.096524
0.501446 0.016567 0.115746
0.555598 0.016988 0.134300
0.597236 0.019699 0.148195
0.628516 0.019980 0.158937
0.648258 0.023527 0.165996
0.654319 0.023051 0.169680
0.654319 0.023051 0.169680
0.654319 0.023051 0.169680
0.654319 0.023051 0.169680
0.654319 0.023051 0.169680
0.654319 0.023051 0.169680
0.654319 0.023051 0.169680
0.654319 0.023051 0.169680
0.654319 0.023051 0.169680
0.654319 0.023051 0.169680
0.654319 0.023051 0.169680
0.654319 0.023051 0.169680
0.654319 0.023051 0.169680
0.654319 0.023051 0.169680
0.654319 0.023051 0.169680
0.654319 0.023051 0.169680
0.654319 0.023051 0.169680
0.654319 0.023051 0.169680
0.654319 0.023051 0.169680
0.000383 0.009657 0.000667
0.000383 0.009657 0.000667
0.003313 0.013259 0.000136
0.009776 0.000115 0.000000
0.063535 0.003891 0.010348
0.120033 0.006945 0.017765
0.199404 0.010141 0.032996
0.296564 0.013249 0.061984
0.388450 0.013819 0.083606
0.466844 0.014021 0.108242
0.529009 0.016930 0.127242
0.575339 0.020198 0.143089
0.611703 0.019700 0.153078
0.635161 0.022828 0.161113
0.654319 0.023051 0.169680
0.654319 0.023051 0.169680
0.654319 0.023051 0.169680
0.654319 0.023051 0.169680
0.654319 0.023051 0.169680
0.654319 0.023051 0.169680
0.654319 0.023051 0.169680
0.654319 0.023051 0.169680
0.654319 0.023051 0.169680
0.654319 0.023051 0.169680
0.654319 0.023051 0.169680
0.654319 0.023051 0.169680
0.654319 0.023051 0.169680
0.654319 0.023051 0.169680
0.654319 0.023051 0.169680
0.654319 0.023051 0.169680
0.654319 0.023051 0.169680
0.654319 0.023051 0.169680
0.654319 0.023051 0.169680
0.006424 0.032180 0.005910
0.002910 0.026265 0.002757
0.003694 0.022580 0.002535
0.000000 0.019676 0.003066
0.063688 0.056228 0.006012
0.119612 0.043958 0.016755
0.176331 0.017006 0.023898
0.259224 0.013778 0.045827
0.348371 0.014400 0.074372
0.433219 0.013461 0.096524
0.501446 0.016567 0.115746
0.554228 0.017013 0.137762
0.592153 0.020479 0.148949
0.624801 0.020398 0.157961
0.643566 0.022968 0.164042
0.654319 0.023051 0.169680
0.654319 0.023051 0.169680
0.654319 0.023051 0.169680
0.654319 0.023051 0.169680
0.654319 0.023051 0.169680
0.654319 0.023051 0.169680
0.654319 0.023051 0.169680
0.654319 0.023051 0.169680
0.654319 0.023051 0.169680
0.654319 0.023051 0.169680
0.654319 0.023051 0.169680
0.654319 0.023051 0.169680
0.654319 0.023051 0.169680
0.654319 0.023051 0.169680
0.654319 0.023051 0.169680
0.654319 0.023051 0.169680
0.654319 0.023051 0.169680
0.654319 0.023051 0.169680
0.003666 0.056573 0.007468
0.002891 0.048926 0.006046
0.000938 0.046301 0.007554
0.000000 0.040328 0.007109
0.013652 0.038351 0.006578
0.106857 0.099921 0.010466
0.169426 0.091168 0.019922
0.252522 0.082615 0.034485
0.341094 0.067909 0.066351
0.413064 0.034587 0.092001
0.474273 0.013184 0.110195
0.530379 0.016568 0.125511
0.575339 0.020198 0.143089
0.611703 0.019700 0.153078
0.636137 0.023468 0.163820
0.654319 0.023051 0.169680
0.654319 0.023051 0.169680
0.654319 0.023051 0.169680
0.654319 0.023051 0.169680
0.654319 0.023051 0.169680
0.654319 0.023051 0.169680
0.654319 0.023051 0.169680
0.654319 0.023051 0.169680
0.654319 0.023051 0.169680
0.654319 0.023051 0.169680
0.654319 0.023051 0.169680
0.654319 0.023051 0.169680
0.654319 0.023051 0.169680
0.654319 0.023051 0.169680
0.654319 0.023051 0.169680
0.654319 0.023051 0.169680
0.654319 0.023051 0.169680
0.654319 0.023051 0.169680
0.002670 0.078260 0.009782
0.003848 0.072565 0.010313
0.004049 0.065895 0.009868
0.000142 0.061652 0.007690
0.003666 0.056573 0.007468
0.097235 0.149455 0.020504
0.151789 0.140569 0.017402
0.232931 0.130734 0.026551
0.323064 0.121001 0.054425
0.404006 0.113467 0.086516
0.475957 0.103479 0.111991
0.532857 0.090840 0.130632
0.568675 0.040686 0.140741
0.597236 0.019699 0.148195
0.624801 0.020398 0.157961
0.643566 0.022968 0.164042
0.654319 0.023051 0.169680
0.654319 0.023051 0.169680
0.654319 0.023051 0.169680
0.654319 0.023051 0.169680
0.654319 0.023051 0.169680
0.654319 0.023051 0.169680
0.654319 0.023051 0.169680
0.654319 0.023051 0.169680
0.654319 0.023051 0.169680
0.654319 0.023051 0.169680
0.654319 0.023051 0.169680
0.654319 0.023051 0.169680
0.654319 0.023051 0.169680
0.654319 0.023051 0.169680
0.654319 0.023051 0.169680
0.654319 0.023051 0.169680
0.654319 0.023051 0.169680
0.009687 0.101759 0.015999
0.006567 0.093161 0.017062
0.003637 0.090231 0.014132
0.000123 0.083978 0.012711
0.003254 0.080574 0.013465
0.029259 0.078991 0.013379
0.144503 0.202385 0.026602
0.215286 0.191466 0.025676
0.302489 0.179811 0.045429
0.388907 0.169823 0.075789
0.463787 0.161085 0.112848
0.530070 0.149562 0.135395
0.582079 0.142026 0.157720
0.616690 0.131560 0.172231
0.640759 0.103345 0.177285
0.637505 0.023107 0.162089
0.654319 0.023051 0.169680
0.654319 0.023051 0.169680
0.654319 0.023051 0.169680
0.654319 0.023051 0.169680
0.654319 0.023051 0.169680
0.654319 0.023051 0.169680
0.654319 0.023051 0.169680
0.654319 0.023051 0.169680
0.654319 0.023051 0.169680
0.654319 0.023051 0.169680
0.654319 0.023051 0.169680
0.654319 0.023051 0.169680
0.654319 0.023051 0.169680
0.654319 0.023051 0.169680
0.654319 0.023051 0.169680
0.654319 0.023051 0.169680
0.654319 0.023051 0.169680
0.013967 0.126318 0.023949
0.016514 0.120262 0.022750
0.014762 0.112311 0.016891
0.013201 0.108011 0.017422
0.006557 0.104828 0.016976
0.028654 0.098665 0.016445
0.130742 0.284309 0.060609
0.206811 0.267282 0.051563
0.289323 0.257422 0.057250
0.377894 0.244062 0.082195
0.460800 0.228158 0.109402
0.530011 0.218557 0.140070
0.588472 0.208200 0.168563
0.626799 0.197316 0.184050
0.653789 0.182352 0.198871
0.671206 0.162621 0.203394
0.682571 0.132371 0.200859
0.659000 0.034941 0.173277
0.654319 0.023051 0.169680
0.654319 0.023051 0.169680
0.654319 0.023051 0.169680
0.654319 0.023051 0.169680
0.654319 0.023051 0.169680
0.654319 0.023051 0.169680
0.654319 0.023051 0.169680
0.654319 0.023051 0.169680
0.654319 0.023051 0.169680
0.654319 0.023051 0.169680
0.654319 0.023051 0.169680
0.654319 0.023051 0.169680
0.654319 0.023051 0.169680
0.654319 0.023051 0.169680
0.654319 0.023051 0.169680
0.020784 0.156152 0.032343
0.020007 0.148841 0.029192
0.019232 0.141530 0.026040
0.017481 0.132234 0.027102
0.015920 0.128943 0.022441
0.028242 0.122667 0.022441
0.050925 0.120499 0.016942
0.197733 0.359751 0.096090
0.282792 0.345852 0.090195
0.367648 0.335598 0.100320
0.454852 0.323271 0.123536
0.532470 0.313474 0.158863
0.595432 0.299686 0.184648
0.642556 0.286596 0.205551
0.674440 0.266194 0.218419
0.691855 0.245790 0.226402
0.703996 0.222514 0.228751
0.707740 0.188101 0.224793
0.693503 0.148444 0.209340
0.676740 0.092180 0.191797
0.654319 0.023051 0.169680
0.654319 0.023051 0.169680
0.654319 0.023051 0.169680
0.654319 0.023051 0.169680
0.654319 0.023051 0.169680
0.654319 0.023051 0.169680
0.654319 0.023051 0.169680
0.654319 0.023051 0.169680
0.654319 0.023051 0.169680
0.654319 0.023051 0.169680
0.654319 0.023051 0.169680
0.654319 0.023051 0.169680
0.654319 0.023051 0.169680
0.016446 0.197564 0.044646
0.017432 0.187209 0.043976
0.016466 0.175574 0.037895
0.013344 0.167647 0.035496
0.019999 0.159836 0.032567
0.022545 0.153781 0.031366
0.048357 0.148208 0.026621
0.193940 0.444769 0.139417
0.288180 0.437312 0.144796
0.372454 0.427433 0.137395
0.455741 0.423203 0.154888
0.540397 0.416260 0.182762
0.610587 0.408979 0.207484
0.670809 0.397259 0.229808
0.712074 0.377973 0.246583
0.730275 0.354557 0.250883
0.741641 0.322962 0.255270
0.743040 0.287262 0.255528
0.722752 0.236414 0.236477
0.705979 0.190809 0.224038
0.692527 0.147468 0.208364
0.677335 0.084173 0.188644
0.654319 0.023051 0.169680
0.654319 0.023051 0.169680
0.654319 0.023051 0.169680
0.654319 0.023051 0.169680
0.654319 0.023051 0.169680
0.654319 0.023051 0.169680
0.654319 0.023051 0.169680
0.654319 0.023051 0.169680
0.654319 0.023051 0.169680
0.654319 0.023051 0.169680
0.654319 0.023051 0.169680
0.000000 0.249576 0.059875
0.000379 0.237244 0.053793
0.003127 0.224854 0.050418
0.013304 0.212300 0.045535
0.016637 0.202224 0.045843
0.009801 0.195052 0.040739
0.043436 0.186634 0.038699
0.068272 0.179750 0.034707
0.294746 0.525433 0.187816
0.386248 0.519370 0.193196
0.466022 0.513593 0.185039
0.547739 0.515050 0.211628
0.626133 0.515590 0.234535
0.692608 0.508390 0.260012
0.741685 0.497589 0.281136
0.774545 0.479507 0.288058
0.792555 0.450759 0.294621
0.797084 0.411992 0.293903
0.776415 0.350813 0.277646
0.744216 0.281569 0.256059
0.720216 0.230466 0.239492
0.706572 0.182464 0.222618
0.693121 0.138788 0.208671
0.666994 0.059417 0.180473
0.654319 0.023051 0.169680
0.654319 0.023051 0.169680
0.654319 0.023051 0.169680
0.654319 0.023051 0.169680
0.654319 0.023051 0.169680
0.654319 0.023051 0.169680
0.654319 0.023051 0.169680
0.654319 0.023051 0.169680
0.654319 0.023051 0.169680
0.000000 0.312561 0.079902
0.000000 0.297240 0.073598
0.000000 0.280247 0.066317
0.000000 0.268916 0.064671
0.000168 0.254573 0.059343
0.000000 0.244917 0.058676
0.026383 0.235325 0.055437
0.058648 0.228949 0.046477
0.088961 0.219609 0.040753
0.393600 0.604813 0.230801
0.483532 0.605448 0.240087
0.563103 0.605333 0.237566
0.638951 0.611255 0.265133
0.706987 0.608692 0.288348
0.762709 0.601074 0.309917
0.798105 0.587595 0.320746
0.822559 0.568366 0.329931
0.842330 0.537918 0.332055
0.847061 0.493151 0.327430
0.809789 0.414028 0.301492
0.769779 0.336970 0.272093
0.737582 0.267726 0.250507
0.715533 0.219249 0.232435
0.700914 0.169934 0.216313
0.687462 0.126257 0.202366
0.656665 0.023666 0.168925
0.654319 0.023051 0.169680
0.654319 0.023051 0.169680
0.654319 0.023051 0.169680
0.654319 0.023051 0.169680
0.654319 0.023051 0.169680
0.654319 0.023051 0.169680
0.654319 0.023051 0.169680
0.000252 0.378499 0.106320
0.000463 0.361842 0.097309
0.000281 0.346859 0.089272
0.000000 0.333212 0.083946
0.000000 0.318230 0.075910
0.000000 0.305896 0.069829
0.000000 0.295567 0.072622
0.049408 0.285115 0.072759
0.078352 0.277145 0.063574
0.409367 0.680748 0.261038
0.494800 0.682795 0.283414
0.575932 0.685635 0.287285
0.648658 0.689679 0.281304
0.719622 0.690718 0.303988
0.774169 0.689131 0.323297
0.817187 0.680148 0.333817
0.849260 0.664743 0.346152
0.869021 0.644954 0.353382
0.885662 0.616903 0.359946
0.867730 0.553994 0.345417
0.838472 0.477356 0.319927
0.801403 0.391898 0.291812
0.760024 0.314865 0.265876
0.731339 0.252209 0.243980
0.711053 0.201360 0.224929
0.697209 0.159022 0.213691
0.682006 0.106386 0.199079
0.656665 0.023666 0.168925
0.654319 0.023051 0.169680
0.654319 0.023051 0.169680
0.654319 0.023051 0.169680
0.654319 0.023051 0.169680
0.654319 0.023051 0.169680
0.000385 0.447786 0.134691
0.000000 0.430153 0.124704
0.000000 0.415169 0.116667
0.000232 0.400154 0.114801
0.000000 0.387180 0.106012
0.000000 0.373871 0.098953
0.000463 0.362851 0.092117
0.027060 0.352586 0.092340
0.067148 0.343363 0.086086
0.112904 0.335002 0.086222
0.499241 0.746680 0.294036
0.583887 0.753756 0.309712
0.657590 0.757768 0.309899
0.722303 0.759998 0.300011
0.780563 0.757321 0.323758
0.825725 0.754953 0.337430
0.862098 0.742114 0.350965
0.886349 0.729219 0.362324
0.904159 0.707813 0.365870
0.903997 0.667144 0.370121
0.883327 0.604956 0.359054
0.858951 0.533537 0.336715
0.826763 0.452962 0.313483
0.786372 0.366248 0.283418
0.747923 0.292818 0.256949
0.722169 0.233091 0.237985
0.705787 0.186148 0.222840
0.693121 0.138788 0.208671
0.668755 0.056710 0.181226
0.654319 0.023051 0.169680
0.654319 0.023051 0.169680
0.654319 0.023051 0.169680
0.654319 0.023051 0.169680
0.000000 0.516427 0.169984
0.000336 0.500745 0.161949
0.000547 0.484424 0.151207
0.000000 0.470809 0.139710
0.000000 0.456802 0.132652
0.000000 0.443157 0.127324
0.000000 0.430489 0.122973
0.000000 0.421839 0.117113
0.059852 0.413151 0.114234
0.113229 0.408613 0.117523
0.148232 0.400506 0.110293
0.580717 0.802821 0.313805
0.653635 0.807829 0.328059
0.721278 0.812317 0.324562
0.781299 0.813653 0.314452
0.828808 0.811228 0.330832
0.863609 0.806094 0.343082
0.892160 0.795767 0.355641
0.914460 0.780919 0.365047
0.928553 0.758586 0.374539
0.917840 0.711499 0.370977
0.901077 0.652546 0.367278
0.877869 0.585084 0.355764
0.850372 0.506075 0.329297
0.813303 0.419943 0.304645
0.769779 0.336970 0.272093
0.734652 0.264460 0.249308
0.714758 0.211601 0.231012
0.700329 0.167284 0.214360
0.687462 0.126257 0.202366
0.686295 0.120620 0.200191
0.686103 0.115960 0.198991
0.684150 0.113671 0.198769
0.000843 0.590012 0.197824
0.000076 0.572042 0.189566
0.000000 0.556082 0.180555
0.000000 0.541739 0.175227
0.000508 0.527732 0.168169
0.000000 0.513751 0.164570
0.000000 0.503428 0.157734
0.000537 0.495083 0.156312
0.058021 0.489127 0.156141
0.115899 0.481496 0.154991
0.169275 0.477296 0.156552
0.217568 0.474211 0.157133
0.652428 0.846509 0.337652
0.715964 0.851072 0.344539
0.774222 0.855451 0.331945
0.819194 0.853800 0.316731
0.860641 0.852186 0.327695
0.890753 0.846157 0.339723
0.916565 0.836889 0.354011
0.936126 0.823772 0.361688
0.934977 0.793119 0.368336
0.924849 0.747338 0.373649
0.911598 0.695309 0.367910
0.893666 0.630384 0.363766
0.868316 0.556981 0.345641
0.835542 0.474090 0.318726
0.794959 0.382379 0.289191
0.755342 0.302977 0.262277
0.724897 0.242355 0.243090
0.708515 0.196085 0.224484
0.706572 0.182464 0.222618
0.706572 0.182464 0.222618
0.705012 0.178837 0.219688
0.000391 0.655304 0.231163
0.000000 0.640352 0.216961
0.000028 0.626010 0.211632
0.000000 0.612364 0.206306
0.000000 0.602377 0.197739
0.000000 0.590043 0.191657
0.000000 0.579048 0.188282
0.000000 0.574051 0.188812
0.058930 0.566060 0.185934
0.129511 0.561810 0.185453
0.180544 0.556659 0.189497
0.238219 0.554691 0.193984
0.293549 0.552108 0.199225
0.354546 0.551732 0.203937
0.768133 0.885887 0.353960
0.815450 0.885859 0.332802
0.852990 0.884372 0.319093
0.883685 0.881666 0.329614
0.912428 0.876000 0.343371
0.935895 0.867460 0.351493
0.941774 0.849985 0.357523
0.940625 0.818997 0.365903
0.932641 0.779829 0.374367
0.920950 0.731428 0.371558
0.905950 0.670105 0.366884
0.882159 0.599319 0.356879
0.854662 0.519638 0.333871
0.816031 0.430216 0.304558
0.777199 0.347465 0.275692
0.741680 0.276629 0.253882
0.731339 0.252209 0.243980
0.728410 0.248944 0.242782
0.726850 0.244981 0.241582
0.000000 0.712949 0.263082
0.000935 0.700255 0.255270
0.000000 0.690629 0.248434
0.000000 0.682315 0.240843
0.000000 0.671992 0.234007
0.000000 0.664657 0.227395
0.000783 0.655310 0.221535
0.000000 0.649673 0.219359
0.077043 0.642273 0.217148
0.143910 0.637769 0.219152
0.206670 0.635357 0.221156
0.264347 0.632718 0.229107
0.320261 0.632785 0.236301
0.386534 0.634945 0.248380
0.446746 0.637917 0.255042
0.806429 0.912357 0.357078
0.846709 0.910819 0.336450
0.877214 0.908494 0.319811
0.903216 0.905230 0.328379
0.927267 0.899678 0.336722
0.947020 0.890883 0.347328
0.943909 0.869274 0.355399
0.941975 0.842978 0.358809
0.937314 0.805738 0.365765
0.928160 0.760597 0.373785
0.915696 0.704212 0.371286
0.896787 0.638310 0.366163
0.870458 0.563594 0.348792
0.840617 0.484306 0.321347
0.799832 0.398930 0.293989
0.776615 0.344478 0.275468
0.769779 0.336970 0.272093
0.770957 0.331613 0.270895
0.060898 0.761511 0.296558
0.045657 0.753527 0.291985
0.031783 0.745853 0.282219
0.022601 0.738067 0.277867
0.000907 0.731895 0.272317
0.000132 0.724920 0.267434
0.000725 0.717920 0.259091
0.043350 0.713301 0.256743
0.123708 0.709165 0.255730
0.192528 0.706615 0.259687
0.247857 0.705040 0.259738
0.300449 0.703516 0.266710
0.356948 0.705897 0.277590
0.412469 0.708311 0.282301
0.474635 0.713236 0.290919
0.534455 0.717881 0.298558
0.836522 0.930672 0.363743
0.868787 0.928999 0.330553
0.895184 0.928095 0.317379
0.918841 0.924552 0.324969
0.941524 0.919360 0.335044
0.946225 0.907579 0.340543
0.946828 0.885887 0.347859
0.946848 0.861545 0.353223
0.941008 0.829662 0.361378
0.933416 0.788149 0.372328
0.923489 0.736368 0.373734
0.906725 0.677752 0.368306
0.883327 0.604956 0.359054
0.859545 0.524858 0.337023
0.827931 0.459271 0.312199
0.826763 0.452962 0.313483
0.823643 0.445372 0.309356
0.138277 0.805726 0.328527
0.131441 0.798890 0.321691
0.124605 0.792390 0.313125
0.123438 0.787089 0.309219
0.107803 0.781787 0.300430
0.094907 0.774081 0.296833
0.092762 0.767804 0.291950
0.126196 0.766392 0.288626
0.173119 0.764005 0.289207
0.229818 0.762068 0.287527
0.278696 0.760963 0.293523
0.328156 0.763851 0.294550
0.379963 0.766346 0.300015
0.436462 0.770409 0.302243
0.499996 0.774300 0.312590
0.554340 0.782072 0.318501
0.616506 0.787333 0.325388
0.862707 0.944744 0.368230
0.888913 0.943883 0.329628
0.911987 0.940714 0.319691
0.931930 0.937254 0.328035
0.947967 0.929551 0.334204
0.948953 0.918524 0.336997
0.947403 0.901550 0.342806
0.944291 0.880275 0.349145
0.945489 0.849567 0.358500
0.937112 0.812072 0.367941
0.929136 0.761573 0.374761
0.915696 0.704212 0.371286
0.896787 0.638310 0.366163
0.871427 0.575566 0.353144
0.872412 0.565548 0.350746
0.870269 0.559270 0.345863
0.223287 0.841760 0.365465
0.211367 0.836377 0.355922
0.190649 0.832525 0.344426
0.189481 0.826889 0.342250
0.185967 0.821980 0.333906
0.169939 0.817680 0.329554
0.154304 0.812378 0.320765
0.184416 0.808702 0.320679
0.222540 0.808521 0.315847
0.262620 0.809621 0.316430
0.312865 0.809162 0.315504
0.356266 0.811182 0.319770
0.408073 0.814013 0.323504
0.460855 0.818157 0.326484
0.513247 0.823640 0.332173
0.573066 0.828622 0.338083
0.630148 0.835334 0.342261
0.688600 0.841014 0.348172
0.881856 0.956634 0.376710
0.902393 0.955919 0.326527
0.924097 0.952440 0.321781
0.943066 0.947666 0.330880
0.948350 0.939544 0.333140
0.946990 0.928574 0.333227
0.947785 0.912551 0.336551
0.947997 0.891860 0.348305
0.946063 0.865229 0.353446
0.941985 0.830975 0.360626
0.935177 0.785777 0.371351
0.921927 0.732405 0.372535
0.907510 0.674067 0.368081
0.903805 0.663155 0.365461
0.903221 0.660168 0.365238
0.284841 0.873659 0.399559
0.276241 0.870203 0.388508
0.274099 0.863589 0.385357
0.265499 0.859461 0.377765
0.252796 0.857088 0.371907
0.244198 0.852959 0.364315
0.235599 0.848831 0.356727
0.244792 0.845960 0.355973
0.273140 0.846336 0.348210
0.312635 0.844785 0.346839
0.351345 0.846582 0.347422
0.390052 0.849052 0.344543
0.437752 0.853639 0.350007
0.488583 0.855831 0.351035
0.536281 0.860755 0.354770
0.590434 0.864873 0.354289
0.645170 0.870635 0.360953
0.697560 0.877125 0.361449
0.748975 0.882303 0.362699
0.900813 0.964536 0.380531
0.915682 0.963295 0.322227
0.934256 0.961875 0.323648
0.947162 0.956906 0.332524
0.946387 0.949258 0.331101
0.947767 0.936221 0.334649
0.949537 0.921847 0.335487
0.948379 0.902526 0.343782
0.946053 0.877905 0.348169
0.942559 0.846301 0.357301
0.937314 0.805738 0.365765
0.926600 0.756298 0.374316
0.924263 0.744687 0.371695
0.922310 0.742398 0.371473
0.346786 0.903212 0.436138
0.344641 0.897606 0.427792
0.337020 0.894454 0.421180
0.330767 0.890269 0.416297
0.318455 0.886558 0.407730
0.312203 0.882374 0.402848
0.305952 0.878860 0.394504
0.307713 0.877497 0.388335
0.333325 0.878260 0.385766
0.363043 0.877266 0.381464
0.393347 0.878587 0.380848
0.430686 0.881082 0.381430
0.468025 0.884248 0.378551
0.510057 0.888310 0.375894
0.558542 0.889886 0.377676
0.607218 0.896795 0.377195
0.657654 0.900661 0.379199
0.703984 0.906618 0.381203
0.754814 0.909144 0.380500
0.795870 0.913573 0.369945
0.911756 0.969952 0.383906
0.927602 0.971031 0.319657
0.947545 0.967571 0.328001
0.947353 0.961902 0.331992
0.947555 0.955567 0.329817
0.947565 0.943228 0.333363
0.947967 0.929551 0.334204
0.947785 0.912551 0.336551
0.946044 0.890244 0.344621
0.945871 0.859896 0.355706
0.940425 0.825667 0.366348
0.937112 0.812072 0.367941
0.939267 0.807691 0.367718
0.408157 0.918783 0.469117
0.407180 0.918478 0.464680
0.390760 0.917196 0.454383
0.382354 0.917393 0.449723
0.377078 0.914520 0.444086
0.370827 0.910671 0.437473
0.365551 0.907461 0.433566
0.366336 0.905122 0.426421
0.383934 0.903734 0.421676
0.409545 0.904498 0.419105
0.436525 0.904898 0.414804
0.466436 0.908566 0.411704
0.500453 0.909805 0.410332
0.535448 0.912357 0.408207
0.579825 0.916697 0.406528
0.624202 0.921037 0.404848
0.667601 0.924737 0.400461
0.713348 0.928044 0.400512
0.758117 0.931718 0.392664
0.796827 0.934860 0.386324
0.833583 0.936384 0.376301
0.921139 0.972076 0.382620
0.935616 0.972845 0.323563
0.949107 0.971870 0.327470
0.946568 0.966594 0.327024
0.945400 0.960285 0.328308
0.948340 0.951211 0.333054
0.947767 0.936557 0.332918
0.947192 0.921568 0.334511
0.947403 0.901550 0.342806
0.945470 0.874246 0.351406
0.945871 0.859896 0.355706
0.943918 0.857943 0.353753
0.429851 0.922938 0.485051
0.428874 0.922297 0.482343
0.432591 0.922551 0.479859
0.430638 0.921270 0.474445
0.423600 0.920769 0.469784
0.421647 0.918816 0.467831
0.421647 0.919152 0.466102
0.422624 0.920801 0.463618
0.439435 0.922761 0.460824
0.450581 0.923859 0.451641
0.478144 0.926574 0.451024
0.500625 0.930406 0.449429
0.530928 0.932399 0.445352
0.565923 0.935287 0.441497
0.600915 0.938510 0.435910
0.637863 0.943015 0.435739
0.681656 0.945377 0.428645
0.722710 0.948798 0.423282
0.762789 0.951242 0.416940
0.798177 0.953128 0.408648
0.833956 0.953339 0.399379
0.860936 0.955422 0.386426
0.923877 0.972026 0.375699
0.941284 0.974380 0.326493
0.950083 0.972846 0.328446
0.949107 0.971534 0.329199
0.948330 0.963551 0.329508
0.947555 0.955567 0.329817
0.947565 0.943228 0.333363
0.946990 0.928238 0.334957
0.946808 0.910566 0.340765
0.946818 0.898562 0.342581
0.945842 0.896578 0.346797
0.452332 0.924417 0.495570
0.448617 0.925171 0.492863
0.445294 0.924587 0.487449
0.445294 0.924924 0.485718
0.440603 0.924701 0.482036
0.437282 0.923781 0.478352
0.435329 0.922165 0.474667
0.439044 0.922419 0.472184
0.453117 0.925102 0.472852
0.475013 0.925611 0.472765
0.493779 0.929860 0.470195
0.522713 0.932215 0.467848
0.550862 0.937581 0.469184
0.584487 0.940493 0.468789
0.618695 0.946057 0.470348
0.654667 0.950594 0.464009
0.699436 0.953260 0.461352
0.733452 0.955843 0.453059
0.768055 0.960742 0.448449
0.801096 0.962684 0.437448
0.834138 0.964626 0.426450
0.858772 0.966093 0.414249
0.883799 0.967566 0.392421
0.929353 0.972933 0.356664
0.949107 0.971870 0.327470
