lut/fujifilm/F-Log/F-Log_LUT_E_Ver.1.27/GFX100S/GFX100S_FLog_FGamut_to_ETERNA-BB_BT.709_33grid_V.1.01.cube
#title:FLog_FGamut_to_ETERNA-BB_BT.709
#FUJIFILM Corporation
#Gamma:F-Log to ETERNA BLEACH BYPASS
#Gamut:F-Gamut to ITU-R BT.709
#Version:1.01
LUT_3D_SIZE 5
0.000000 0.000000 0.000000
0.497731 0.016648 0.116500
0.654319 0.023051 0.169680
0.654319 0.023051 0.169680
0.654319 0.023051 0.169680
0.013967 0.126318 0.023949
0.289323 0.257422 0.057250
0.682571 0.132371 0.200859
0.654319 0.023051 0.169680
0.654319 0.023051 0.169680
0.000843 0.590012 0.197824
0.058021 0.489127 0.156141
0.860641 0.852186 0.327695
0.868316 0.556981 0.345641
0.705012 0.178837 0.219688
0.408157 0.918783 0.469117
0.383934 0.903734 0.421676
0.667601 0.924737 0.400461
0.946568 0.966594 0.327024
0.943918 0.857943 0.353753
0.525240 0.936051 0.535696
0.527394 0.935703 0.514706
0.629246 0.948442 0.498927
0.850164 0.966238 0.444644
0.950083 0.972846 0.328446
0.026932 0.006982 0.261761
0.463905 0.016038 0.139836
0.654319 0.023051 0.169680
0.654319 0.023051 0.169680
0.654319 0.023051 0.169680
0.038729 0.366517 0.392616
0.101563 0.101563 0.101563
0.685279 0.163960 0.210984
0.654319 0.023051 0.169680
0.654319 0.023051 0.169680
0.000000 0.613428 0.371196
0.074392 0.526227 0.281950
0.536575 0.521828 0.300243
0.881766 0.600994 0.357856
0.710077 0.199712 0.227414
0.372348 0.922318 0.639063
0.364937 0.909230 0.588829
0.665025 0.932522 0.572718
0.931327 0.940126 0.417625
0.944885 0.870922 0.352914
0.512314 0.939823 0.652973
0.530305 0.940123 0.629945
0.642908 0.951265 0.628453
0.847015 0.968108 0.571774
0.950083 0.972846 0.328446
0.096076 0.013517 0.629269
0.397341 0.032124 0.608501
0.654319 0.023051 0.169680
0.654319 0.023051 0.169680
0.654319 0.023051 0.169680
0.156446 0.293820 0.638087
0.101121 0.114859 0.342645
0.477690 0.103510 0.278614
0.654319 0.023051 0.169680
0.654319 0.023051 0.169680
0.000000 0.795842 0.742110
0.053777 0.576592 0.556407
0.576172 0.576172 0.576172
0.860915 0.507356 0.423546
0.715533 0.219249 0.232435
0.162946 0.912157 0.760882
0.236468 0.903204 0.742653
0.634492 0.932210 0.782910
0.943983 0.943702 0.717235
0.941008 0.829662 0.361378
0.423147 0.933298 0.774808
0.451105 0.938036 0.754179
0.613754 0.953038 0.764321
0.847367 0.974119 0.771188
0.954353 0.976137 0.505895
0.103697 0.013309 0.653188
0.103697 0.013309 0.653188
0.736845 0.119982 0.730500
0.654319 0.023051 0.169680
0.654319 0.023051 0.169680
0.136458 0.112236 0.657520
0.146024 0.130688 0.657348
0.494060 0.096250 0.632844
0.692174 0.061473 0.420801
0.654319 0.023051 0.169680
0.171186 0.652011 0.733886
0.167260 0.669759 0.738462
0.525111 0.579693 0.760491
0.911455 0.544599 0.818793
0.766467 0.298506 0.401741
0.142429 0.890547 0.806047
0.156696 0.897554 0.809645
0.465199 0.899910 0.845003
0.934570 0.934570 0.934570
0.984119 0.857659 0.806585
0.236046 0.924420 0.822973
0.229402 0.921908 0.819067
0.455586 0.941138 0.837824
0.821928 0.976146 0.904570
0.980870 0.990989 0.856714
0.103697 0.013309 0.653188
0.103697 0.013309 0.653188
0.625621 0.090089 0.764956
0.718311 0.097249 0.613480
0.684371 0.049386 0.375004
0.106043 0.013588 0.654165
0.106043 0.013588 0.654165
0.296648 0.022911 0.697321
0.744267 0.123756 0.768707
0.714021 0.089735 0.577758
0.184890 0.406120 0.679117
0.186068 0.400761 0.677918
0.182957 0.381504 0.673876
0.857341 0.478687 0.897488
0.821335 0.311045 0.758644
0.059383 0.841774 0.786723
0.026945 0.822843 0.780812
0.045922 0.808754 0.777882
0.832960 0.869500 0.945059
0.989787 0.830292 0.958335
0.244453 0.924896 0.824172
0.244453 0.924896 0.824172
0.244453 0.924896 0.824172
0.688405 0.963791 0.915778
1.000000 1.000000 1.000000
