lut/fujifilm/F-Log/F-Log_LUT_E_Ver.1.27/GFX100S/GFX100S_FLog_FGamut_to_ETERNA-BB_BT.709_33grid_V.1.01.cube
#title:FLog_FGamut_to_ETERNA-BB_BT.709
#FUJIFILM Corporation
#Gamma:F-Log to ETERNA BLEACH BYPASS
#Gamut:F-Gamut to ITU-R BT.709
#Version:1.01
LUT_3D_SIZE 9
0.000000 0.000000 0.000000
0.125118 0.006166 0.017013
0.497731 0.016648 0.116500
0.654319 0.023051 0.169680
0.654319 0.023051 0.169680
0.654319 0.023051 0.169680
0.654319 0.023051 0.169680
0.654319 0.023051 0.169680
0.654319 0.023051 0.169680
0.006424 0.032180 0.005910
0.063688 0.056228 0.006012
0.348371 0.014400 0.074372
0.592153 0.020479 0.148949
0.654319 0.023051 0.169680
0.654319 0.023051 0.169680
0.654319 0.023051 0.169680
0.654319 0.023051 0.169680
0.654319 0.023051 0.169680
0.013967 0.126318 0.023949
0.006557 0.104828 0.016976
0.289323 0.257422 0.057250
0.588472 0.208200 0.168563
0.682571 0.132371 0.200859
0.654319 0.023051 0.169680
0.654319 0.023051 0.169680
0.654319 0.023051 0.169680
0.654319 0.023051 0.169680
0.000000 0.312561 0.079902
0.000168 0.254573 0.059343
0.088961 0.219609 0.040753
0.638951 0.611255 0.265133
0.822559 0.568366 0.329931
0.769779 0.336970 0.272093
0.687462 0.126257 0.202366
0.654319 0.023051 0.169680
0.654319 0.023051 0.169680
0.000843 0.590012 0.197824
0.000508 0.527732 0.168169
0.058021 0.489127 0.156141
0.652428 0.846509 0.337652
0.860641 0.852186 0.327695
0.934977 0.793119 0.368336
0.868316 0.556981 0.345641
0.724897 0.242355 0.243090
0.705012 0.178837 0.219688
0.138277 0.805726 0.328527
0.107803 0.781787 0.300430
0.173119 0.764005 0.289207
0.379963 0.766346 0.300015
0.616506 0.787333 0.325388
0.931930 0.937254 0.328035
0.944291 0.880275 0.349145
0.915696 0.704212 0.371286
0.870269 0.559270 0.345863
0.408157 0.918783 0.469117
0.377078 0.914520 0.444086
0.383934 0.903734 0.421676
0.500453 0.909805 0.410332
0.667601 0.924737 0.400461
0.833583 0.936384 0.376301
0.946568 0.966594 0.327024
0.947192 0.921568 0.334511
0.943918 0.857943 0.353753
0.481064 0.930082 0.510973
0.477158 0.927520 0.500145
0.483219 0.929061 0.493446
0.546755 0.936313 0.486488
0.660334 0.950448 0.475589
0.804026 0.962925 0.454223
0.909995 0.970979 0.391805
0.950083 0.972846 0.328446
0.945400 0.960285 0.328308
0.525240 0.936051 0.535696
0.527394 0.933686 0.525090
0.527394 0.935703 0.514706
0.566104 0.938844 0.508366
0.629246 0.948442 0.498927
0.734229 0.957777 0.483898
0.850164 0.966238 0.444644
0.940307 0.973403 0.325516
0.950083 0.972846 0.328446
0.003121 0.000000 0.043929
0.113972 0.007085 0.015812
0.484241 0.017288 0.114325
0.645913 0.023247 0.165019
0.654319 0.023051 0.169680
0.654319 0.023051 0.169680
0.654319 0.023051 0.169680
0.654319 0.023051 0.169680
0.654319 0.023051 0.169680
0.003819 0.091436 0.093118
0.016602 0.016602 0.016602
0.327844 0.013530 0.072726
0.585115 0.019977 0.144289
0.654319 0.023051 0.169680
0.654319 0.023051 0.169680
0.654319 0.023051 0.169680
0.654319 0.023051 0.169680
0.654319 0.023051 0.169680
0.006920 0.127065 0.072848
0.006355 0.104777 0.052031
0.095128 0.094492 0.026347
0.578103 0.217774 0.163593
0.685681 0.151292 0.206633
0.654319 0.023051 0.169680
0.654319 0.023051 0.169680
0.654319 0.023051 0.169680
0.654319 0.023051 0.169680
0.000000 0.318806 0.132928
0.000000 0.264173 0.104696
0.087381 0.228562 0.093027
0.222886 0.211566 0.064996
0.827825 0.582570 0.337210
0.781881 0.359020 0.281019
0.693313 0.144120 0.206411
0.654319 0.023051 0.169680
0.654319 0.023051 0.169680
0.000000 0.596283 0.254311
0.000487 0.541320 0.218178
0.066015 0.506210 0.201406
0.280892 0.488375 0.209371
0.518624 0.495696 0.216324
0.937705 0.803391 0.368250
0.876310 0.581121 0.354567
0.733093 0.259825 0.251571
0.706955 0.191785 0.225014
0.122422 0.812616 0.411727
0.090970 0.788709 0.377460
0.170169 0.771639 0.351864
0.382098 0.775553 0.349805
0.618641 0.797549 0.369984
0.825676 0.814632 0.330077
0.945852 0.884574 0.348614
0.918222 0.720819 0.373375
0.872403 0.576542 0.354120
0.399539 0.921185 0.547878
0.372176 0.916839 0.522093
0.374924 0.908482 0.497953
0.500242 0.913356 0.486832
0.670129 0.927565 0.473499
0.834549 0.938609 0.430836
0.932907 0.938567 0.327281
0.947383 0.926227 0.335711
0.947039 0.865869 0.356152
0.488677 0.933474 0.576336
0.478709 0.930715 0.565285
0.490830 0.932454 0.558809
0.555734 0.938671 0.553581
0.662277 0.950961 0.544945
0.802254 0.963520 0.524331
0.909008 0.972259 0.439196
0.950083 0.972846 0.328446
0.947353 0.961902 0.331992
0.535982 0.937383 0.594890
0.537351 0.938702 0.584507
0.543805 0.938906 0.575102
0.571762 0.941964 0.563125
0.632950 0.948937 0.555191
0.734612 0.956679 0.539942
0.846833 0.967239 0.491059
0.932868 0.973136 0.389235
0.950083 0.972846 0.328446
0.026932 0.006982 0.261761
0.105145 0.010685 0.183189
0.463905 0.016038 0.139836
0.637505 0.023443 0.160360
0.654319 0.023051 0.169680
0.654319 0.023051 0.169680
0.654319 0.023051 0.169680
0.654319 0.023051 0.169680
0.654319 0.023051 0.169680
0.052263 0.096999 0.314324
0.020258 0.050899 0.198763
0.305534 0.016520 0.184366
0.573780 0.016235 0.141891
0.654319 0.023051 0.169680
0.654319 0.023051 0.169680
0.654319 0.023051 0.169680
0.654319 0.023051 0.169680
0.654319 0.023051 0.169680
0.038729 0.366517 0.392616
0.016711 0.297489 0.300390
0.101563 0.101563 0.101563
0.240774 0.091446 0.096918
0.685279 0.163960 0.210984
0.654319 0.023051 0.169680
0.654319 0.023051 0.169680
0.654319 0.023051 0.169680
0.654319 0.023051 0.169680
0.000000 0.663553 0.507833
0.000000 0.276411 0.171259
0.091661 0.243711 0.149430
0.232049 0.227229 0.148778
0.465501 0.211000 0.142591
0.794959 0.382379 0.289191
0.697209 0.159022 0.213691
0.654319 0.023051 0.169680
0.654319 0.023051 0.169680
0.000000 0.613428 0.371196
0.000000 0.562188 0.319489
0.074392 0.526227 0.281950
0.283602 0.509883 0.271410
0.536575 0.521828 0.300243
0.761208 0.530132 0.293660
0.881766 0.600994 0.357856
0.743633 0.279254 0.252375
0.710077 0.199712 0.227414
0.068048 0.817666 0.519769
0.000426 0.798246 0.480176
0.150006 0.783933 0.452812
0.378162 0.787494 0.444278
0.619205 0.808074 0.451368
0.834254 0.824620 0.427481
0.937897 0.808724 0.365988
0.921535 0.734414 0.371780
0.878644 0.593067 0.355457
0.372348 0.922318 0.639063
0.338925 0.918448 0.609593
0.364937 0.909230 0.588829
0.488102 0.918149 0.579660
0.665025 0.932522 0.572718
0.833553 0.941476 0.530055
0.931327 0.940126 0.417625
0.946990 0.928574 0.333227
0.944885 0.870922 0.352914
0.463054 0.932280 0.641118
0.458756 0.931728 0.629535
0.474591 0.933048 0.624036
0.557869 0.942838 0.629328
0.665389 0.954088 0.632051
0.803020 0.965359 0.615652
0.910166 0.972424 0.529538
0.949488 0.974470 0.364477
0.948330 0.963551 0.329508
0.512314 0.939823 0.652973
0.517792 0.939385 0.640860
0.530305 0.940123 0.629945
0.581719 0.944964 0.632925
0.642908 0.951265 0.628453
0.737139 0.959509 0.612981
0.847015 0.968108 0.571774
0.930512 0.972763 0.448738
0.950083 0.972846 0.328446
0.068723 0.013637 0.520509
0.078900 0.013854 0.449867
0.446650 0.026700 0.387172
0.628707 0.022960 0.168789
0.654319 0.023051 0.169680
0.654319 0.023051 0.169680
0.654319 0.023051 0.169680
0.654319 0.023051 0.169680
0.654319 0.023051 0.169680
0.092714 0.076407 0.536988
0.062078 0.025912 0.440461
0.282230 0.019689 0.409071
0.579217 0.029195 0.300750
0.654319 0.023051 0.169680
0.654319 0.023051 0.169680
0.654319 0.023051 0.169680
0.654319 0.023051 0.169680
0.654319 0.023051 0.169680
0.119460 0.350436 0.563504
0.101922 0.294926 0.501277
0.101936 0.108100 0.178286
0.235278 0.103455 0.169426
0.468920 0.089535 0.176551
0.616394 0.020258 0.155031
0.654319 0.023051 0.169680
0.654319 0.023051 0.169680
0.654319 0.023051 0.169680
0.032195 0.651951 0.636161
0.029304 0.610754 0.590313
0.098275 0.260052 0.262097
0.242188 0.242188 0.242188
0.480129 0.231171 0.248781
0.656891 0.213278 0.202829
0.700914 0.169934 0.216313
0.654319 0.023051 0.169680
0.654319 0.023051 0.169680
0.000377 0.815581 0.690863
0.000000 0.802310 0.668007
0.081189 0.554527 0.418227
0.296851 0.538050 0.400012
0.552954 0.549951 0.412293
0.788733 0.558008 0.403449
0.836912 0.473393 0.318726
0.752806 0.298037 0.260102
0.712411 0.210986 0.231765
0.000000 0.821707 0.628121
0.000000 0.804421 0.597145
0.093087 0.793693 0.568976
0.366988 0.799217 0.567414
0.621521 0.819158 0.576679
0.834618 0.835430 0.542188
0.941008 0.816891 0.427137
0.923872 0.746361 0.372672
0.884887 0.609256 0.358523
0.305471 0.923030 0.716575
0.294335 0.916314 0.694696
0.317803 0.912143 0.680320
0.468924 0.919751 0.681672
0.659922 0.934121 0.689242
0.837047 0.944849 0.666280
0.935606 0.941831 0.543246
0.947010 0.901543 0.352433
0.945076 0.876256 0.350652
0.424920 0.931694 0.709890
0.427659 0.931979 0.701239
0.443494 0.933972 0.692278
0.533225 0.941612 0.700277
0.667917 0.954227 0.718934
0.803393 0.966519 0.720062
0.911314 0.976863 0.657866
0.951423 0.976232 0.487391
0.944615 0.964305 0.326800
0.481609 0.939073 0.720238
0.488455 0.937938 0.708124
0.504292 0.940602 0.695704
0.559812 0.944023 0.695223
0.645827 0.952419 0.700515
0.741620 0.962273 0.698355
0.848364 0.971589 0.670238
0.935184 0.976155 0.556079
0.948703 0.973449 0.388926
0.096076 0.013517 0.629269
0.084740 0.014145 0.604375
0.397341 0.032124 0.608501
0.659505 0.066403 0.506792
0.654319 0.023051 0.169680
0.654319 0.023051 0.169680
0.654319 0.023051 0.169680
0.654319 0.023051 0.169680
0.654319 0.023051 0.169680
0.097444 0.013493 0.625808
0.085525 0.013485 0.588579
0.222180 0.020419 0.588508
0.583448 0.061344 0.569571
0.680465 0.048505 0.355523
0.654319 0.023051 0.169680
0.654319 0.023051 0.169680
0.654319 0.023051 0.169680
0.654319 0.023051 0.169680
0.156446 0.293820 0.638087
0.137318 0.262292 0.610743
0.101121 0.114859 0.342645
0.238963 0.112497 0.301660
0.477690 0.103510 0.278614
0.618931 0.022509 0.171051
0.654319 0.023051 0.169680
0.654319 0.023051 0.169680
0.654319 0.023051 0.169680
0.138183 0.613482 0.693316
0.125306 0.586812 0.667395
0.099596 0.285428 0.427793
0.252306 0.267710 0.401183
0.492785 0.263986 0.397839
0.676393 0.243613 0.346696
0.696816 0.160695 0.214667
0.654319 0.023051 0.169680
0.654319 0.023051 0.169680
0.000000 0.795842 0.742110
0.000004 0.787199 0.726621
0.053777 0.576592 0.556407
0.298564 0.564776 0.549155
0.576172 0.576172 0.576172
0.810389 0.580938 0.562667
0.860915 0.507356 0.423546
0.733093 0.259825 0.251571
0.715533 0.219249 0.232435
0.044293 0.887134 0.772621
0.000701 0.881126 0.763696
0.000789 0.794942 0.667564
0.337250 0.802371 0.680562
0.608787 0.825237 0.707269
0.840255 0.841049 0.704063
0.957207 0.820956 0.577875
0.922350 0.684975 0.427192
0.889177 0.623156 0.361368
0.162946 0.912157 0.760882
0.163542 0.905830 0.749079
0.236468 0.903204 0.742653
0.419453 0.914078 0.754968
0.634492 0.932210 0.782910
0.832920 0.945742 0.792434
0.943983 0.943702 0.717235
0.959294 0.903287 0.551094
0.941008 0.829662 0.361378
0.357268 0.928791 0.765214
0.357660 0.928125 0.759047
0.391286 0.931374 0.756921
0.490398 0.940468 0.767098
0.639165 0.955430 0.788153
0.802397 0.970394 0.814090
0.913833 0.980604 0.786195
0.963122 0.980703 0.656410
0.953989 0.952219 0.458676
0.423147 0.933298 0.774808
0.437031 0.933337 0.763894
0.451105 0.938036 0.754179
0.519725 0.942157 0.758582
0.613754 0.953038 0.764321
0.740432 0.963840 0.779070
0.847367 0.974119 0.771188
0.935940 0.979914 0.697496
0.954353 0.976137 0.505895
0.103697 0.013309 0.653188
0.103697 0.013309 0.653188
0.263416 0.023364 0.670781
0.653588 0.091564 0.701153
0.698799 0.075220 0.486832
0.654319 0.023051 0.169680
0.654319 0.023051 0.169680
0.654319 0.023051 0.169680
0.654319 0.023051 0.169680
0.103697 0.013309 0.653188
0.103697 0.013309 0.653188
0.123640 0.013545 0.642495
0.544910 0.063345 0.694610
0.712633 0.099652 0.650265
0.675008 0.038378 0.302051
0.654319 0.023051 0.169680
0.654319 0.023051 0.169680
0.654319 0.023051 0.169680
0.158085 0.200077 0.662468
0.153979 0.202841 0.659007
0.141284 0.191490 0.639391
0.239709 0.119523 0.486254
0.498369 0.118406 0.473195
0.644685 0.046276 0.375176
0.654319 0.023051 0.169680
0.654319 0.023051 0.169680
0.654319 0.023051 0.169680
0.188499 0.529000 0.705106
0.177161 0.525930 0.699246
0.170527 0.513767 0.685043
0.245815 0.285610 0.557336
0.511895 0.289610 0.575563
0.707612 0.276258 0.550734
0.719449 0.189979 0.347176
0.656665 0.023666 0.168925
0.654319 0.023051 0.169680
0.121435 0.755085 0.761950
0.103646 0.752819 0.760304
0.078237 0.748076 0.748586
0.261981 0.573771 0.650191
0.569881 0.592778 0.704191
0.817186 0.601508 0.738747
0.888027 0.541084 0.632777
0.808037 0.385912 0.399461
0.719047 0.224492 0.239046
0.093774 0.862656 0.794586
0.065817 0.862286 0.792718
0.023786 0.859905 0.786723
0.243795 0.794046 0.737258
0.575343 0.821849 0.795300
0.838867 0.838867 0.838867
0.972621 0.817953 0.784211
0.961383 0.726440 0.633851
0.897985 0.592142 0.455122
0.212197 0.922294 0.819374
0.201445 0.922211 0.813739
0.192455 0.920092 0.805395
0.315840 0.900349 0.789032
0.577793 0.924736 0.833043
0.811014 0.941441 0.872035
0.942201 0.942522 0.856476
0.978222 0.906870 0.757121
0.966963 0.843398 0.582364
0.197931 0.920327 0.789821
0.226866 0.922346 0.789203
0.280433 0.923142 0.790230
0.408087 0.934920 0.805957
0.586763 0.951534 0.834294
0.771108 0.969681 0.865559
0.910490 0.983526 0.882707
0.976189 0.986492 0.815047
0.963725 0.954978 0.684492
0.288054 0.925958 0.798574
0.326763 0.928091 0.797426
0.360389 0.931340 0.795300
0.444450 0.937446 0.800370
0.560377 0.947491 0.812945
0.705428 0.962200 0.836485
0.852825 0.977188 0.861001
0.939433 0.984296 0.828530
0.964873 0.983278 0.689957
0.103697 0.013309 0.653188
0.103697 0.013309 0.653188
0.103697 0.013309 0.653188
0.588290 0.078953 0.748886
0.736845 0.119982 0.730500
0.686516 0.053311 0.392000
0.654319 0.023051 0.169680
0.654319 0.023051 0.169680
0.654319 0.023051 0.169680
0.103697 0.013309 0.653188
0.103697 0.013309 0.653188
0.103697 0.013309 0.653188
0.438760 0.045683 0.721304
0.703221 0.112701 0.753391
0.715773 0.094999 0.597461
0.665444 0.030007 0.250309
0.654319 0.023051 0.169680
0.654319 0.023051 0.169680
0.136458 0.112236 0.657520
0.143879 0.123402 0.657657
0.146024 0.130688 0.657348
0.208813 0.103021 0.609427
0.494060 0.096250 0.632844
0.673551 0.084933 0.605841
0.692174 0.061473 0.420801
0.654319 0.023051 0.169680
0.654319 0.023051 0.169680
0.185112 0.376451 0.677113
0.188415 0.401041 0.678895
0.187428 0.411395 0.679563
0.201236 0.273489 0.633872
0.498778 0.290402 0.682989
0.731032 0.294464 0.721089
0.761221 0.223328 0.588445
0.668374 0.031929 0.258429
0.654319 0.023051 0.169680
0.171186 0.652011 0.733886
0.176652 0.660553 0.735532
0.167260 0.669759 0.738462
0.175965 0.556303 0.691621
0.525111 0.579693 0.760491
0.809938 0.598507 0.841735
0.911455 0.544599 0.818793
0.833208 0.412070 0.575676
0.766467 0.298506 0.401741
0.053935 0.811242 0.778328
0.069963 0.816213 0.779219
0.043174 0.821144 0.781257
0.038674 0.824574 0.783965
0.497352 0.798224 0.821688
0.807196 0.826817 0.898322
0.959312 0.810050 0.911204
0.969740 0.750973 0.811129
0.949493 0.672612 0.693785
0.142429 0.890547 0.806047
0.158849 0.893174 0.809422
0.156696 0.897554 0.809645
0.166471 0.897668 0.809114
0.465199 0.899910 0.845003
0.758623 0.927894 0.907879
0.934570 0.934570 0.934570
0.984454 0.908177 0.896809
0.984119 0.857659 0.806585
0.243476 0.923919 0.823195
0.236046 0.924420 0.822973
0.235070 0.923444 0.821997
0.257944 0.925264 0.821156
0.483734 0.943478 0.854734
0.710694 0.965314 0.900871
0.889952 0.984242 0.932890
0.984385 0.985478 0.918703
0.983246 0.955930 0.859680
0.236046 0.924420 0.822973
0.235070 0.923444 0.821997
0.229402 0.921908 0.819067
0.297045 0.926732 0.813840
0.455586 0.941138 0.837824
0.638953 0.958309 0.868113
0.821928 0.976146 0.904570
0.938438 0.988842 0.919098
0.980870 0.990989 0.856714
0.103697 0.013309 0.653188
0.103697 0.013309 0.653188
0.103697 0.013309 0.653188
0.371711 0.035541 0.709535
0.719631 0.121282 0.786098
0.729828 0.106901 0.670637
0.676176 0.040990 0.319801
0.654319 0.023051 0.169680
0.654319 0.023051 0.169680
0.103697 0.013309 0.653188
0.103697 0.013309 0.653188
0.103697 0.013309 0.653188
0.198511 0.016809 0.677738
0.651615 0.099165 0.769977
0.741337 0.123851 0.750203
0.706611 0.078664 0.517140
0.670518 0.035518 0.277157
0.661538 0.029798 0.227366
0.106043 0.013588 0.654165
0.112103 0.013113 0.657848
0.124397 0.041838 0.657590
0.122262 0.023557 0.654523
0.443651 0.043941 0.700316
0.681726 0.103220 0.730089
0.728268 0.104281 0.662515
0.683979 0.052069 0.370789
0.674223 0.040382 0.310925
0.161973 0.227990 0.662743
0.167037 0.249872 0.665278
0.170349 0.262796 0.667144
0.172686 0.274743 0.668035
0.422557 0.251394 0.715407
0.710312 0.276162 0.784004
0.779766 0.224984 0.754003
0.699976 0.070198 0.483902
0.680465 0.048841 0.353792
0.190662 0.513623 0.701509
0.186737 0.531706 0.704351
0.181834 0.548142 0.709679
0.183777 0.561426 0.713276
0.406879 0.522028 0.750746
0.764996 0.562805 0.869321
0.900713 0.517725 0.891113
0.857228 0.410263 0.744695
0.798875 0.315134 0.599477
0.124978 0.728016 0.754976
0.115193 0.739233 0.757153
0.111861 0.748635 0.760304
0.106184 0.757760 0.762481
0.326145 0.735785 0.786997
0.734497 0.787435 0.906288
0.941342 0.781038 0.962090
0.975610 0.727354 0.908789
0.948506 0.658433 0.820778
0.076779 0.845712 0.789345
0.090461 0.850069 0.790989
0.083615 0.853220 0.792718
0.082437 0.858243 0.795648
0.202288 0.851212 0.800187
0.658159 0.895827 0.899605
0.901932 0.915589 0.963714
0.988168 0.896332 0.956620
0.985469 0.860468 0.908512
0.212590 0.920284 0.820129
0.198515 0.917937 0.817730
0.207899 0.919726 0.818176
0.212590 0.920284 0.820129
0.224127 0.917691 0.820351
0.588907 0.948064 0.889359
0.843039 0.970929 0.953160
0.972656 0.972656 0.972656
0.990273 0.952640 0.943856
0.244453 0.924896 0.824172
0.244453 0.924896 0.824172
0.244453 0.924896 0.824172
0.244453 0.924896 0.824172
0.244453 0.924896 0.824172
0.499762 0.945427 0.871199
0.759560 0.971506 0.929276
0.924746 0.988422 0.957167
0.989651 0.995649 0.946749
0.103697 0.013309 0.653188
0.103697 0.013309 0.653188
0.103697 0.013309 0.653188
0.118164 0.013310 0.658071
0.625621 0.090089 0.764956
0.747386 0.130338 0.778028
0.718311 0.097249 0.613480
0.698809 0.068594 0.460962
0.684371 0.049386 0.375004
0.103697 0.013309 0.653188
0.103697 0.013309 0.653188
0.103697 0.013309 0.653188
0.103697 0.013309 0.653188
0.493294 0.057108 0.733604
0.735266 0.127591 0.789696
0.733724 0.114745 0.714259
0.710317 0.084199 0.547450
0.699000 0.070230 0.477734
0.106043 0.013588 0.654165
0.106043 0.013588 0.654165
0.106043 0.013588 0.654165
0.106043 0.013588 0.654165
0.296648 0.022911 0.697321
0.688946 0.111647 0.779125
0.744267 0.123756 0.768707
0.721824 0.100477 0.630476
0.714021 0.089735 0.577758
0.145037 0.140370 0.661477
0.147182 0.147993 0.659437
0.148933 0.157288 0.658375
0.149316 0.166609 0.660773
0.247644 0.177706 0.679824
0.629208 0.239329 0.775198
0.744648 0.129380 0.790142
0.730996 0.110185 0.684925
0.716358 0.096640 0.604606
0.184890 0.406120 0.679117
0.182957 0.381168 0.675606
0.186068 0.400761 0.677918
0.184881 0.417451 0.680761
0.182957 0.381504 0.673876
0.633685 0.488501 0.816792
0.857341 0.478687 0.897488
0.852557 0.369231 0.831168
0.821335 0.311045 0.758644
0.165096 0.684799 0.743790
0.168246 0.660076 0.734331
0.174517 0.642608 0.730734
0.172746 0.656311 0.733355
0.162960 0.667527 0.735532
0.582095 0.688291 0.839953
0.879406 0.735450 0.948093
0.970172 0.674064 0.957586
0.950871 0.618910 0.906720
0.059383 0.841774 0.786723
0.067798 0.831254 0.784547
0.026945 0.822843 0.780812
0.063319 0.813030 0.778774
0.045922 0.808754 0.777882
0.448646 0.823964 0.834023
0.832960 0.869500 0.945059
0.973329 0.869630 0.978843
0.989787 0.830292 0.958335
0.222949 0.923049 0.821551
0.210244 0.920005 0.819152
0.192847 0.916066 0.816532
0.184249 0.910593 0.815863
0.177605 0.907745 0.813688
0.360992 0.903262 0.835495
0.738086 0.935330 0.923454
0.940218 0.951711 0.977128
0.992428 0.941201 0.979973
0.244453 0.924896 0.824172
0.244453 0.924896 0.824172
0.244453 0.924896 0.824172
0.244453 0.924896 0.824172
0.244453 0.924896 0.824172
0.420200 0.937907 0.853040
0.688405 0.963791 0.915778
0.889359 0.986201 0.967191
1.000000 1.000000 1.000000
