lut/fujifilm/F-log2/F-Log2_LUT_E_Ver.1.05/GFX100II/GFX100II_FLog2_FGamut_to_ETERNA_BT.709_33grid_V.1.00.cube
#title:FLog2_FGamut_to_ETERNA_BT.709
#FUJIFILM Corporation
#Gamma:F-Log2 to ETERNA
#Gamut:F-Gamut to ITU-R BT.709
#Version:1.00
LUT_3D_SIZE 33
0.006836 0.006836 0.006836
0.006836 0.006836 0.006836
0.006836 0.006836 0.006836
0.006836 0.006836 0.006836
0.026387 0.006393 0.009234
0.056689 0.007379 0.010348
0.082300 0.007133 0.012968
0.111628 0.006806 0.014836
0.134107 0.009965 0.016704
0.162850 0.006315 0.020079
0.193736 0.009950 0.023144
0.224040 0.010599 0.025989
0.263141 0.010050 0.029055
0.301850 0.010167 0.038290
0.358740 0.010203 0.051653
0.434397 0.013816 0.065906
0.519244 0.012878 0.088058
0.613475 0.014064 0.108926
0.711028 0.016841 0.130016
0.811903 0.020538 0.154790
0.916301 0.019494 0.177609
0.992934 0.023411 0.196302
0.992934 0.023411 0.196302
0.992934 0.023411 0.196302
0.992934 0.023411 0.196302
0.992934 0.023411 0.196302
0.992934 0.023411 0.196302
0.992934 0.023411 0.196302
0.992934 0.023411 0.196302
0.992934 0.023411 0.196302
0.992934 0.023411 0.196302
0.992934 0.023411 0.196302
0.992934 0.023411 0.196302
0.006836 0.006836 0.006836
0.006836 0.006836 0.006836
0.006836 0.006836 0.006836
0.006836 0.006836 0.006836
0.026387 0.006393 0.009234
0.056689 0.007379 0.010348
0.078586 0.007215 0.013723
0.111628 0.006806 0.014836
0.134107 0.009965 0.016704
0.162850 0.006315 0.020079
0.193736 0.009950 0.023144
0.224040 0.010599 0.025989
0.265487 0.010329 0.030031
0.317686 0.009807 0.041441
0.381614 0.011015 0.056004
0.462354 0.013513 0.071234
0.554238 0.013748 0.094586
0.650422 0.017223 0.115676
0.752083 0.017238 0.140227
0.856672 0.020852 0.164246
0.960285 0.023492 0.187289
0.992934 0.023411 0.196302
0.992934 0.023411 0.196302
0.992934 0.023411 0.196302
0.992934 0.023411 0.196302
0.992934 0.023411 0.196302
0.992934 0.023411 0.196302
0.992934 0.023411 0.196302
0.992934 0.023411 0.196302
0.992934 0.023411 0.196302
0.992934 0.023411 0.196302
0.992934 0.023411 0.196302
0.992934 0.023411 0.196302
0.006836 0.006836 0.006836
0.006836 0.006836 0.006836
0.006836 0.006836 0.006836
0.006836 0.006836 0.006836
0.026387 0.006393 0.009234
0.056689 0.007379 0.010348
0.078586 0.007215 0.013723
0.111628 0.006806 0.014836
0.134107 0.009965 0.016704
0.162850 0.006315 0.020079
0.193736 0.009950 0.023144
0.233816 0.010378 0.027188
0.277607 0.010387 0.032206
0.333522 0.009783 0.042864
0.407225 0.010099 0.062086
0.489919 0.013877 0.082732
0.586887 0.013669 0.103598
0.685415 0.017423 0.125663
0.794506 0.016935 0.150437
0.902811 0.020469 0.173703
0.992934 0.023411 0.196302
0.992934 0.023411 0.196302
0.992934 0.023411 0.196302
0.992934 0.023411 0.196302
0.992934 0.023411 0.196302
0.992934 0.023411 0.196302
0.992934 0.023411 0.196302
0.992934 0.023411 0.196302
0.992934 0.023411 0.196302
0.992934 0.023411 0.196302
0.992934 0.023411 0.196302
0.992934 0.023411 0.196302
0.992934 0.023411 0.196302
0.006836 0.006836 0.006836
0.006836 0.006836 0.006836
0.006836 0.006836 0.006836
0.006836 0.006836 0.006836
0.026387 0.006393 0.009234
0.056689 0.007379 0.010348
0.076824 0.010258 0.011238
0.105566 0.006608 0.014613
0.134107 0.009965 0.016704
0.166756 0.010893 0.020524
0.201166 0.009449 0.023366
0.241245 0.010213 0.025680
0.289728 0.010110 0.036113
0.350334 0.010063 0.048723
0.426967 0.014317 0.065684
0.519244 0.012878 0.088058
0.617189 0.013309 0.111633
0.725495 0.016842 0.134899
0.836144 0.020318 0.160870
0.945235 0.020168 0.183914
0.992934 0.023411 0.196302
0.992934 0.023411 0.196302
0.992934 0.023411 0.196302
0.992934 0.023411 0.196302
0.992934 0.023411 0.196302
0.992934 0.023411 0.196302
0.992934 0.023411 0.196302
0.992934 0.023411 0.196302
0.992934 0.023411 0.196302
0.992934 0.023411 0.196302
0.992934 0.023411 0.196302
0.992934 0.023411 0.196302
0.992934 0.023411 0.196302
0.000373 0.019980 0.007503
0.000373 0.019980 0.007503
0.000000 0.023663 0.007727
0.000000 0.023663 0.007727
0.020508 0.023197 0.006663
0.053549 0.023122 0.006046
0.082674 0.029130 0.010090
0.115130 0.026069 0.009249
0.143087 0.026103 0.012848
0.176521 0.023347 0.016445
0.211324 0.019894 0.020042
0.258048 0.023169 0.026262
0.306733 0.016730 0.034520
0.370862 0.009925 0.055559
0.454924 0.013342 0.074473
0.548177 0.013551 0.094363
0.650422 0.016551 0.119136
0.761858 0.016679 0.143156
0.873877 0.019459 0.169129
0.984527 0.023271 0.193372
0.992934 0.023411 0.196302
0.992934 0.023411 0.196302
0.992934 0.023411 0.196302
0.992934 0.023411 0.196302
0.992934 0.023411 0.196302
0.992934 0.023411 0.196302
0.992934 0.023411 0.196302
0.992934 0.023411 0.196302
0.992934 0.023411 0.196302
0.992934 0.023411 0.196302
0.992934 0.023411 0.196302
0.992934 0.023411 0.196302
0.992934 0.023411 0.196302
0.000152 0.050993 0.002586
0.000152 0.050993 0.002586
0.000152 0.050993 0.002586
0.000152 0.050993 0.002586
0.013442 0.057360 0.003477
0.043744 0.058682 0.002859
0.086952 0.056376 0.004195
0.117448 0.062022 0.006509
0.150488 0.061276 0.009351
0.184315 0.057183 0.010242
0.225560 0.063583 0.014730
0.269555 0.056586 0.021035
0.326837 0.055956 0.028231
0.399574 0.043629 0.046562
0.483647 0.034707 0.069023
0.580826 0.013471 0.103375
0.689131 0.016669 0.128372
0.802912 0.017076 0.153367
0.894405 0.019993 0.172504
0.982182 0.022993 0.192396
0.992934 0.023411 0.196302
0.992934 0.023411 0.196302
0.992934 0.023411 0.196302
0.992934 0.023411 0.196302
0.992934 0.023411 0.196302
0.992934 0.023411 0.196302
0.992934 0.023411 0.196302
0.992934 0.023411 0.196302
0.992934 0.023411 0.196302
0.992934 0.023411 0.196302
0.992934 0.023411 0.196302
0.992934 0.023411 0.196302
0.992934 0.023411 0.196302
0.000000 0.076002 0.003390
0.000000 0.080999 0.002859
0.000000 0.080999 0.002859
0.000000 0.080999 0.002859
0.000123 0.084987 0.007519
0.046262 0.086620 0.006594
0.080472 0.092519 0.006422
0.121334 0.089935 0.006781
0.155936 0.093824 0.007363
0.190346 0.093054 0.006747
0.232376 0.096442 0.007550
0.282039 0.090979 0.016785
0.343620 0.093254 0.023450
0.420063 0.093183 0.037480
0.514102 0.089373 0.058879
0.617533 0.074003 0.089461
0.709630 0.054221 0.121107
0.797436 0.020537 0.149907
0.890691 0.020411 0.171528
0.978467 0.023074 0.193148
0.992934 0.023411 0.196302
0.992934 0.023411 0.196302
0.992934 0.023411 0.196302
0.992934 0.023411 0.196302
0.992934 0.023411 0.196302
0.992934 0.023411 0.196302
0.992934 0.023411 0.196302
0.992934 0.023411 0.196302
0.992934 0.023411 0.196302
0.992934 0.023411 0.196302
0.992934 0.023411 0.196302
0.992934 0.023411 0.196302
0.992934 0.023411 0.196302
0.000000 0.104332 0.002687
0.000104 0.108993 0.003886
0.000687 0.111980 0.004110
0.000687 0.111980 0.004110
0.000000 0.114687 0.003355
0.033135 0.119915 0.006645
0.074582 0.120317 0.007227
0.116612 0.124042 0.006301
0.152977 0.126232 0.002446
0.192079 0.126355 0.002051
0.240171 0.129270 0.006540
0.291000 0.130788 0.011027
0.359427 0.129913 0.015961
0.441538 0.131377 0.032921
0.525800 0.127787 0.053121
0.619448 0.124978 0.078957
0.710558 0.116894 0.104348
0.802643 0.110122 0.128984
0.894356 0.081353 0.156501
0.972407 0.023213 0.191195
0.992934 0.023411 0.196302
0.992934 0.023411 0.196302
0.992934 0.023411 0.196302
0.992934 0.023411 0.196302
0.992934 0.023411 0.196302
0.992934 0.023411 0.196302
0.992934 0.023411 0.196302
0.992934 0.023411 0.196302
0.992934 0.023411 0.196302
0.992934 0.023411 0.196302
0.992934 0.023411 0.196302
0.992934 0.023411 0.196302
0.992934 0.023411 0.196302
0.000467 0.141984 0.004382
0.000467 0.141984 0.004382
0.000074 0.143995 0.003630
0.000000 0.147679 0.003852
0.000000 0.149993 0.007536
0.000064 0.154318 0.010466
0.058325 0.156345 0.009984
0.108570 0.157566 0.000405
0.149626 0.159978 0.000234
0.190680 0.162391 0.000062
0.242878 0.164221 0.000000
0.298401 0.167306 0.000609
0.366436 0.168103 0.006519
0.442485 0.170043 0.019796
0.526355 0.169472 0.034050
0.618431 0.173695 0.062063
0.709733 0.170944 0.085192
0.803771 0.165453 0.115241
0.894881 0.157705 0.138903
0.979356 0.134769 0.163933
0.996781 0.102026 0.175465
0.995260 0.049041 0.186723
0.992934 0.023411 0.196302
0.992934 0.023411 0.196302
0.992934 0.023411 0.196302
0.992934 0.023411 0.196302
0.992934 0.023411 0.196302
0.992934 0.023411 0.196302
0.992934 0.023411 0.196302
0.992934 0.023411 0.196302
0.992934 0.023411 0.196302
0.992934 0.023411 0.196302
0.992934 0.023411 0.196302
0.000000 0.178020 0.002395
0.000046 0.179669 0.000000
0.000000 0.181006 0.002616
0.000000 0.185667 0.003817
0.000000 0.187678 0.003063
0.000000 0.191665 0.007723
0.025444 0.197089 0.006352
0.092112 0.199592 0.007071
0.141573 0.203152 0.004637
0.192794 0.204006 0.002956
0.241279 0.206590 0.000000
0.298169 0.209315 0.000000
0.367574 0.210423 0.000000
0.445385 0.211000 0.006894
0.529840 0.213079 0.023101
0.618986 0.214708 0.046452
0.711455 0.217594 0.071758
0.800995 0.217549 0.094134
0.892296 0.214461 0.118993
0.977737 0.204506 0.143183
0.999652 0.178656 0.158843
0.998696 0.152665 0.166692
0.999692 0.129298 0.173031
0.998936 0.096637 0.180433
0.996993 0.082680 0.180297
0.995250 0.061045 0.184906
0.993115 0.040747 0.192222
0.992934 0.023411 0.196302
0.992934 0.023411 0.196302
0.992934 0.023411 0.196302
0.992934 0.023411 0.196302
0.992934 0.023411 0.196302
0.992934 0.023411 0.196302
0.000000 0.223351 0.000000
0.000006 0.226338 0.000000
0.000000 0.230022 0.000000
0.000197 0.230662 0.002496
0.000389 0.235995 0.000234
0.000000 0.241690 0.000000
0.000000 0.244004 0.003386
0.040458 0.247753 0.005921
0.120613 0.249281 0.010548
0.180242 0.249938 0.013527
0.234203 0.251749 0.000000
0.296178 0.253359 0.000231
0.365190 0.256477 0.000196
0.445346 0.259012 0.000000
0.531563 0.261745 0.000000
0.619924 0.267059 0.022859
0.712785 0.267934 0.048919
0.802909 0.270540 0.073246
0.891078 0.270520 0.099081
0.974759 0.262936 0.124250
0.999211 0.242698 0.138624
1.000000 0.218660 0.148426
0.999834 0.196328 0.153035
0.999271 0.167990 0.163368
0.998887 0.158332 0.162700
0.999089 0.150990 0.165715
1.000000 0.139964 0.168509
1.000000 0.127625 0.172055
0.999309 0.119641 0.172364
0.998926 0.109648 0.173426
0.998352 0.093649 0.180210
0.995240 0.072712 0.184821
0.992723 0.043429 0.188007
0.000000 0.279678 0.000000
0.000000 0.286348 0.000113
0.000733 0.292321 0.000558
0.000000 0.298015 0.000027
0.000531 0.298991 0.001003
0.000000 0.304686 0.000473
0.000000 0.304686 0.000473
0.000330 0.305999 0.000000
0.069735 0.307106 0.000438
0.154974 0.307518 0.006039
0.222033 0.309356 0.000591
0.290461 0.309152 0.002062
0.364557 0.311826 0.000000
0.446666 0.316315 0.000929
0.531514 0.319745 0.000585
0.624375 0.325662 0.000687
0.712153 0.330004 0.013657
0.801884 0.333949 0.040692
0.889660 0.334595 0.072696
0.972556 0.330359 0.099816
0.998961 0.312074 0.116145
0.999766 0.283375 0.124746
0.998809 0.256712 0.136055
0.999614 0.227677 0.146388
1.000000 0.218660 0.148426
0.999432 0.210677 0.148733
0.999633 0.202998 0.153480
0.999834 0.196328 0.153035
1.000000 0.181642 0.159066
1.000000 0.174635 0.160352
1.000000 0.164643 0.161415
1.000000 0.152639 0.163231
1.000000 0.140300 0.166778
0.000000 0.363022 0.000044
0.000080 0.371004 0.000000
0.000000 0.376698 0.000000
0.000070 0.382671 0.000000
0.000070 0.382671 0.000000
0.000000 0.379685 0.000000
0.000000 0.377675 0.000180
0.000000 0.377675 0.000180
0.000000 0.377675 0.000180
0.105063 0.377315 0.000282
0.195386 0.377955 0.000000
0.277306 0.377784 0.000126
0.358438 0.381296 0.000536
0.443869 0.388050 0.000000
0.533802 0.390363 0.000000
0.624316 0.395664 0.000172
0.711117 0.401384 0.000050
0.799287 0.406406 0.000000
0.886088 0.407756 0.022304
0.964482 0.405606 0.059055
0.998510 0.390808 0.080264
0.999123 0.355097 0.099782
0.999928 0.325390 0.113574
0.999564 0.290381 0.123460
0.999383 0.272710 0.129270
0.999585 0.265367 0.132285
0.998809 0.256712 0.136055
0.999403 0.247695 0.138093
0.998627 0.239376 0.140133
1.000000 0.231335 0.143149
0.999422 0.222680 0.146918
0.999623 0.215674 0.148203
0.999825 0.208667 0.149489
0.000000 0.472687 0.000469
0.000769 0.483657 0.000384
0.000769 0.483657 0.000384
0.000577 0.478660 0.000914
0.000385 0.473999 0.000000
0.000000 0.470677 0.001223
0.000585 0.466993 0.001000
0.000000 0.466017 0.000024
0.000002 0.464006 0.000778
0.000000 0.463029 0.000000
0.130797 0.464072 0.000039
0.243995 0.466199 0.000585
0.342725 0.467651 0.000000
0.435979 0.471558 0.000567
0.530994 0.473428 0.000000
0.620141 0.479427 0.000000
0.708311 0.484449 0.000000
0.793159 0.487880 0.000000
0.874291 0.491392 0.000000
0.951910 0.488316 0.000234
0.998644 0.474882 0.032497
0.998864 0.440173 0.056449
0.999869 0.403123 0.073258
1.000000 0.362079 0.095035
0.999335 0.335415 0.106343
0.999536 0.328071 0.109360
1.000000 0.318719 0.113129
0.999746 0.308390 0.115921
0.999363 0.297725 0.120446
0.999564 0.290381 0.123460
1.000000 0.281030 0.127231
0.998989 0.274720 0.128514
0.999585 0.265367 0.132285
0.000000 0.589359 0.000000
0.000096 0.585339 0.001118
0.000000 0.582689 0.000000
0.000000 0.579366 0.000673
0.000106 0.574008 0.000000
0.000000 0.569011 0.000003
0.000000 0.566025 0.000000
0.000000 0.563038 0.000000
0.000000 0.561029 0.000313
0.000508 0.560331 0.000313
0.000000 0.557343 0.000090
0.191324 0.559716 0.000000
0.317035 0.560562 0.000000
0.425541 0.561794 0.000186
0.520557 0.563329 0.000066
0.614204 0.565561 0.000000
0.696313 0.570387 0.000000
0.780185 0.572503 0.000012
0.858386 0.572750 0.000000
0.935614 0.571683 0.000000
0.993883 0.562043 0.000000
0.995865 0.529331 0.000000
1.000000 0.491857 0.026688
0.999447 0.444168 0.051481
0.999477 0.404797 0.074235
0.998701 0.396142 0.078004
0.999295 0.386452 0.083503
0.999889 0.376091 0.092465
0.999114 0.367436 0.096234
0.999708 0.358084 0.100004
0.999324 0.347754 0.102796
0.999526 0.340075 0.107543
1.000000 0.331058 0.109581
0.000000 0.687357 0.000121
0.000209 0.683673 0.000000
0.000000 0.680686 0.000000
0.000000 0.677700 0.000000
0.000000 0.673680 0.000962
0.000000 0.669019 0.000000
0.000000 0.664022 0.000292
0.000000 0.662013 0.001047
0.000229 0.660338 0.000070
0.000000 0.657352 0.000000
0.000038 0.655343 0.000602
0.013919 0.653365 0.000070
0.259674 0.653187 0.000000
0.391446 0.653893 0.000871
0.504451 0.651358 0.000219
0.597121 0.652613 0.000000
0.686076 0.653615 0.000508
0.767602 0.655454 0.000000
0.843852 0.653411 0.000000
0.918340 0.653404 0.000624
0.983254 0.647283 0.000000
0.988952 0.614489 0.000000
0.991327 0.579766 0.000000
0.996057 0.533992 0.000472
0.999419 0.482866 0.032188
0.999035 0.473208 0.031520
0.999628 0.462848 0.040480
1.000000 0.453159 0.045982
0.999055 0.445169 0.055918
0.999065 0.432829 0.059464
0.999659 0.422469 0.068426
1.000000 0.413116 0.072196
0.999869 0.403123 0.073258
0.000000 0.773689 0.000720
0.000000 0.772014 0.000000
0.000000 0.769028 0.000000
0.000140 0.765344 0.000000
0.000000 0.762021 0.000805
0.000000 0.757361 0.000000
0.000000 0.754374 0.000000
0.000000 0.750354 0.000891
0.000000 0.748680 0.000000
0.000745 0.744660 0.001421
0.000160 0.741673 0.001200
0.000553 0.739999 0.000223
0.196846 0.736596 0.000000
0.354229 0.735713 0.011269
0.479546 0.733864 0.034757
0.580040 0.732609 0.034637
0.671150 0.731582 0.023688
0.754245 0.730422 0.000179
0.826387 0.730471 0.000000
0.900684 0.725804 0.000000
0.968920 0.720939 0.000000
0.979108 0.695709 0.000332
0.983829 0.661937 0.000000
0.989144 0.619149 0.000000
0.995051 0.568016 0.000000
0.994477 0.553027 0.000832
0.995464 0.542672 0.000165
0.996451 0.532318 0.000000
0.996067 0.522661 0.000000
0.999398 0.511241 0.006058
0.999994 0.500544 0.016750
0.999217 0.490881 0.025712
1.000000 0.480189 0.026773
0.000072 0.846678 0.000426
0.000072 0.846678 0.000426
0.000000 0.843692 0.000203
0.000000 0.841682 0.000958
0.000000 0.838696 0.000734
0.000000 0.835708 0.000512
0.000475 0.833001 0.001265
0.000283 0.828340 0.000066
0.000091 0.823344 0.000597
0.000485 0.821334 0.001352
0.000000 0.818340 0.010758
0.000485 0.814612 0.035961
0.000000 0.811911 0.069062
0.307821 0.809650 0.077797
0.445652 0.808202 0.092102
0.554552 0.806079 0.100102
0.648399 0.802985 0.092612
0.731495 0.801152 0.072567
0.810493 0.796801 0.016266
0.880098 0.794600 0.000000
0.946965 0.790432 0.000000
0.967120 0.769978 0.000570
0.971448 0.737881 0.000297
0.975584 0.701123 0.000000
0.984614 0.658253 0.000000
0.987181 0.628528 0.000000
0.989144 0.619149 0.000000
0.988760 0.609492 0.000000
0.987986 0.601509 0.000000
0.991709 0.589760 0.000000
0.991327 0.579766 0.000000
0.991920 0.571086 0.000215
0.994276 0.560035 0.000000
0.000000 0.911868 0.103875
0.000000 0.910530 0.101167
0.000000 0.908559 0.086124
0.000000 0.906212 0.088610
0.000000 0.903898 0.084926
0.000014 0.900550 0.082973
0.000000 0.898236 0.079288
0.000000 0.891902 0.077114
0.000024 0.889891 0.077868
0.000000 0.886225 0.090734
0.000415 0.883512 0.101116
0.000415 0.881160 0.113229
0.000000 0.877159 0.127827
0.230335 0.875628 0.138328
0.397885 0.873186 0.148332
0.519297 0.870456 0.152340
0.619205 0.866551 0.150267
0.704255 0.865326 0.139093
0.786374 0.861172 0.124992
0.857358 0.855680 0.061324
0.921306 0.848342 0.000000
0.956118 0.833894 0.000141
0.961031 0.804783 0.000090
0.966727 0.771989 0.000000
0.972233 0.734198 0.000074
0.977346 0.698415 0.000000
0.977940 0.689736 0.000000
0.980879 0.681670 0.000000
0.981473 0.672990 0.000000
0.983436 0.663612 0.000059
0.983052 0.653954 0.000000
0.985992 0.645889 0.000000
0.985611 0.635895 0.000008
0.000000 0.959413 0.174617
0.000147 0.957738 0.173640
0.000000 0.956762 0.172664
0.000000 0.955424 0.169957
0.000000 0.953750 0.168981
0.000000 0.950098 0.162591
0.000000 0.947447 0.160638
0.000000 0.945107 0.153493
0.000000 0.941449 0.156732
0.000000 0.940777 0.160192
0.000000 0.937086 0.169598
0.000000 0.936408 0.182688
0.000000 0.934061 0.185172
0.035160 0.932250 0.195914
0.332530 0.929907 0.199013
0.471147 0.926454 0.204441
0.579069 0.923691 0.209735
0.669986 0.917332 0.201048
0.752498 0.912176 0.182507
0.823281 0.907305 0.150433
0.891920 0.897837 0.104824
0.947080 0.888431 0.000019
0.956290 0.862224 0.000000
0.957094 0.835206 0.000000
0.962792 0.802075 0.000844
0.967713 0.761634 0.000000
0.969283 0.753930 0.000434
0.971640 0.742878 0.000000
0.971448 0.737881 0.000297
0.973411 0.728839 0.000000
0.973612 0.721833 0.000161
0.975575 0.712455 0.000468
0.977145 0.705087 0.000023
0.000127 0.970990 0.225383
0.000127 0.970990 0.225383
0.000000 0.970351 0.222676
0.000520 0.969989 0.220945
0.000520 0.969989 0.220945
0.000520 0.969989 0.220945
0.000520 0.969989 0.220945
0.000000 0.969684 0.216507
0.000000 0.968682 0.212069
0.000520 0.970325 0.219215
0.000127 0.972335 0.218460
0.000000 0.974002 0.229066
0.000000 0.972658 0.235987
0.000711 0.970616 0.242910
0.221830 0.968971 0.253942
0.400918 0.965616 0.255515
0.522723 0.961548 0.256817
0.625370 0.956920 0.251282
0.709834 0.953382 0.236425
0.785310 0.946381 0.220148
0.853162 0.939251 0.181683
0.917110 0.929898 0.130660
0.949787 0.915652 0.032640
0.953724 0.890270 0.007388
0.956682 0.860215 0.000192
0.956319 0.827223 0.000000
0.961614 0.807770 0.000312
0.961816 0.801099 0.000000
0.963385 0.793731 0.000000
0.962217 0.787758 0.000000
0.965157 0.779693 0.000000
0.966727 0.771989 0.000000
0.966535 0.766992 0.000348
0.000318 0.970274 0.254270
0.000318 0.970274 0.254270
0.000318 0.970274 0.254270
0.000000 0.969969 0.249832
0.000711 0.969272 0.249832
0.000000 0.969969 0.249832
0.000000 0.970641 0.246371
0.000000 0.970641 0.246371
0.000000 0.969640 0.241934
0.000000 0.969969 0.249832
0.000000 0.971611 0.256977
0.000510 0.972583 0.267582
0.000000 0.974586 0.276458
0.000000 0.977902 0.284577
0.016336 0.979520 0.293144
0.330709 0.982117 0.303301
0.467172 0.985398 0.296840
0.571964 0.988393 0.289266
0.659750 0.984429 0.285015
0.743238 0.980587 0.265722
0.814998 0.974004 0.248468
0.879137 0.966621 0.212488
0.938393 0.958053 0.152590
0.947212 0.938897 0.125297
0.953100 0.913116 0.114109
0.955283 0.883815 0.062229
0.958443 0.857843 0.000000
0.958645 0.850837 0.000501
0.957084 0.846874 0.000000
0.961000 0.839784 0.000000
0.958856 0.832499 0.000141
0.957688 0.826525 0.000000
0.957889 0.819855 0.000000
0.000510 0.970230 0.279695
0.000510 0.970230 0.279695
0.000000 0.969253 0.278718
0.000000 0.969253 0.278718
0.000000 0.969589 0.276989
0.000000 0.969589 0.276989
0.000000 0.967914 0.276012
0.000000 0.970261 0.273528
0.000000 0.970261 0.273528
0.000000 0.968586 0.272551
0.000000 0.970592 0.281426
0.000000 0.971561 0.292032
0.000308 0.972868 0.300907
0.000499 0.975175 0.314218
0.000000 0.977844 0.329261
0.234123 0.980220 0.343667
0.404211 0.983054 0.354117
0.511347 0.985991 0.349250
0.608710 0.989150 0.343184
0.695318 0.992897 0.328019
0.771568 0.996567 0.297590
0.838436 0.997778 0.270176
0.898860 0.989468 0.240140
0.943649 0.979555 0.182282
0.947383 0.957482 0.174778
0.951903 0.933070 0.160130
0.954670 0.903059 0.127508
0.953895 0.897764 0.113973
0.955859 0.892084 0.095246
0.955082 0.887125 0.079981
0.957045 0.879764 0.069906
0.956472 0.873511 0.026508
0.958826 0.867500 0.000000
0.000000 0.969209 0.304145
0.000000 0.969209 0.304145
0.000000 0.969209 0.304145
0.000000 0.969209 0.304145
0.000000 0.969209 0.304145
0.000000 0.969209 0.304145
0.000000 0.969209 0.304145
0.000000 0.969209 0.304145
0.000000 0.969545 0.302414
0.000117 0.968543 0.297977
0.000000 0.970889 0.295493
0.000308 0.971187 0.309559
0.000000 0.972519 0.321894
0.000108 0.973488 0.332500
0.000300 0.975125 0.349273
0.063834 0.977672 0.366544
0.330307 0.979998 0.383792
0.452102 0.984237 0.402312
0.547117 0.986780 0.397000
0.633334 0.990521 0.391465
0.713883 0.993736 0.377809
0.787395 0.998128 0.350840
0.859347 0.999902 0.315751
0.920355 0.999286 0.261711
0.940891 0.995547 0.227102
0.947555 0.977412 0.217336
0.948360 0.953082 0.203442
0.950524 0.940731 0.184269
0.950725 0.935404 0.176903
0.950926 0.930077 0.169535
0.952497 0.924726 0.158707
0.954067 0.918030 0.154801
0.954269 0.913376 0.143972
0.000000 0.969209 0.304145
0.000000 0.969209 0.304145
0.000000 0.969209 0.304145
0.000000 0.969209 0.304145
0.000000 0.969209 0.304145
0.000000 0.969209 0.304145
0.000000 0.969209 0.304145
0.000000 0.969209 0.304145
0.000000 0.969209 0.304145
0.000000 0.969209 0.304145
0.000701 0.969849 0.306851
0.000000 0.969532 0.321673
0.000499 0.971478 0.333254
0.000000 0.972475 0.347320
0.000000 0.973438 0.367554
0.000681 0.977724 0.386282
0.225708 0.978977 0.406410
0.389341 0.981607 0.426266
0.502730 0.984361 0.448778
0.584256 0.986536 0.446482
0.662067 0.990137 0.438016
0.735186 0.993851 0.424137
0.807329 0.997261 0.405820
0.875565 0.999790 0.368023
0.936180 0.999838 0.320151
0.944597 0.999401 0.266062
0.942059 0.996143 0.255235
0.947353 0.979041 0.243738
0.948925 0.974026 0.231179
0.946387 0.969759 0.225543
0.947565 0.965072 0.220882
0.948743 0.960386 0.216223
0.947967 0.955429 0.200957
0.000000 0.969209 0.304145
0.000000 0.969209 0.304145
0.000000 0.969209 0.304145
0.000000 0.969209 0.304145
0.000000 0.969209 0.304145
0.000000 0.969209 0.304145
0.000000 0.969209 0.304145
0.000000 0.969209 0.304145
0.000000 0.969209 0.304145
0.000000 0.969209 0.304145
0.000000 0.969209 0.304145
0.000308 0.969171 0.319941
0.000000 0.971510 0.327086
0.000000 0.971834 0.344613
0.000000 0.973470 0.361386
0.000000 0.974433 0.381621
0.144182 0.977810 0.403516
0.340858 0.980031 0.424484
0.461284 0.983622 0.449926
0.548477 0.984979 0.462672
0.622573 0.986645 0.465343
0.693930 0.990380 0.464554
0.760596 0.993890 0.460082
0.826679 0.996768 0.443274
0.893153 0.999651 0.416835
0.946731 0.998862 0.366036
0.946740 0.999294 0.303825
0.945180 1.000000 0.278397
0.944204 0.999396 0.275692
0.943227 0.999091 0.271254
0.942644 0.997112 0.265840
0.943035 0.995438 0.264863
0.942844 0.992459 0.255011
0.000000 0.969209 0.304145
0.000000 0.969209 0.304145
0.000000 0.969209 0.304145
0.000000 0.969209 0.304145
0.000000 0.969209 0.304145
0.000000 0.969209 0.304145
0.000000 0.969209 0.304145
0.000000 0.969209 0.304145
0.000000 0.969209 0.304145
0.000000 0.969209 0.304145
0.000000 0.969209 0.304145
0.000308 0.970179 0.314749
0.000000 0.970172 0.324378
0.000108 0.972144 0.339421
0.000000 0.972467 0.356949
0.000489 0.975080 0.374699
0.000000 0.976741 0.394933
0.292373 0.979464 0.417512
0.425312 0.982446 0.438961
0.525604 0.983493 0.461780
0.600675 0.986137 0.465428
0.673403 0.988837 0.466371
0.740068 0.992348 0.461899
0.805758 0.996227 0.449527
0.871840 0.999104 0.432718
