lut/fujifilm/F-log2/F-Log2_LUT_E_Ver.1.05/GFX100II/GFX100II_FLog2_FGamut_to_FLog2_BT.709_33grid_V.1.00.cube
#title:FLog2_FGamut_to_FLog2_BT.709
#FUJIFILM Corporation
#Gamma:F-Log2 to F-Log2
#Gamut:F-Gamut to ITU-R BT.709
#Version:1.00
LUT_3D_SIZE 9
0.000000 0.000000 0.000000
0.183907 0.000000 0.000000
0.340982 0.000000 0.000000
0.498044 0.000000 0.000000
0.655102 0.000000 0.000000
0.812157 0.000000 0.000000
0.969211 0.000000 0.000000
1.000000 0.000000 0.000000
1.000000 0.000000 0.000000
0.000000 0.137335 0.000000
0.134270 0.125144 0.000000
0.314096 0.102613 0.000000
0.479877 0.061326 0.000000
0.641549 0.002154 0.000000
0.801442 0.000000 0.000000
0.960407 0.000000 0.000000
1.000000 0.000000 0.000000
1.000000 0.000000 0.000000
0.000000 0.269609 0.000000
0.014635 0.262667 0.000000
0.263328 0.250625 0.000000
0.447667 0.230861 0.000000
0.618061 0.200918 0.000000
0.783073 0.155802 0.000000
0.945406 0.080846 0.000000
1.000000 0.000000 0.000000
1.000000 0.000000 0.000000
0.000000 0.401857 0.000000
0.000000 0.397111 0.000000
0.159936 0.389010 0.000000
0.392369 0.376103 0.000000
0.579539 0.357539 0.000000
0.753538 0.332124 0.000000
0.921537 0.297959 0.000000
1.000000 0.251624 0.000000
1.000000 0.186298 0.000000
0.000000 0.534096 0.000000
0.000000 0.530540 0.000000
0.000000 0.524509 0.000000
0.300219 0.515006 0.000000
0.521403 0.501580 0.000000
0.710518 0.483689 0.000000
0.887367 0.460624 0.000000
1.000000 0.431387 0.000000
1.000000 0.394874 0.000000
0.000000 0.666331 0.000000
0.000000 0.663513 0.000000
0.000000 0.658751 0.000000
0.112139 0.651288 0.000000
0.434662 0.640829 0.000000
0.650435 0.627057 0.000000
0.840970 0.609596 0.000000
1.000000 0.587977 0.000000
1.000000 0.561866 0.000000
0.000000 0.798564 0.000000
0.000000 0.796246 0.000000
0.000000 0.792336 0.000000
0.000000 0.786227 0.000000
0.294799 0.777704 0.000000
0.566905 0.766552 0.000000
0.779465 0.752533 0.000000
0.971083 0.735372 0.000000
1.000000 0.714952 0.000000
0.000000 0.930795 0.000000
0.000000 0.928836 0.000000
0.000000 0.925536 0.000000
0.000000 0.920388 0.000000
0.000000 0.913227 0.000000
0.445899 0.903891 0.000000
0.698069 0.892214 0.000000
0.908493 0.878010 0.000000
1.000000 0.861247 0.000000
0.000000 1.000000 0.000000
0.000000 1.000000 0.000000
0.000000 1.000000 0.000000
0.000000 1.000000 0.000000
0.000000 1.000000 0.000000
0.237726 1.000000 0.000000
0.587592 1.000000 0.000000
0.828622 1.000000 0.000000
1.000000 1.000000 0.000000
0.000000 0.000000 0.138020
0.178291 0.000000 0.136298
0.337732 0.000000 0.133370
0.495811 0.000000 0.128734
0.653424 0.000000 0.122135
0.810826 0.000000 0.113246
0.968116 0.000000 0.101599
1.000000 0.000000 0.086467
1.000000 0.000000 0.067519
0.000000 0.136541 0.128350
0.125008 0.125008 0.125008
0.310583 0.101649 0.123451
0.477558 0.060224 0.118555
0.639833 0.001051 0.111564
0.800092 0.000000 0.102099
0.959301 0.000000 0.089603
1.000000 0.000000 0.073390
1.000000 0.000000 0.054346
0.000000 0.269149 0.110857
0.005017 0.262196 0.108856
0.259199 0.250133 0.105441
0.445178 0.230333 0.099998
0.616277 0.200325 0.092169
0.781689 0.155079 0.081448
0.944280 0.079744 0.067703
1.000000 0.000000 0.051250
1.000000 0.000000 0.032206
0.000000 0.401541 0.079430
0.000000 0.396791 0.077034
0.153662 0.388684 0.073011
0.389532 0.375765 0.066767
0.577630 0.357185 0.058143
0.752095 0.331743 0.047014
0.920378 0.297538 0.033270
1.000000 0.251134 0.016817
1.000000 0.185668 0.000000
0.000000 0.533859 0.031824
0.000000 0.530300 0.029429
0.000000 0.524267 0.025406
0.296556 0.514759 0.019161
0.519273 0.501326 0.010538
0.708980 0.483426 0.000000
0.886160 0.460348 0.000000
1.000000 0.431092 0.000000
1.000000 0.394552 0.000000
0.000000 0.666143 0.000000
0.000000 0.663324 0.000000
0.000000 0.658561 0.000000
0.104020 0.651094 0.000000
0.432099 0.640632 0.000000
0.648745 0.626855 0.000000
0.839689 0.609389 0.000000
1.000000 0.587762 0.000000
1.000000 0.561641 0.000000
0.000000 0.798408 0.000000
0.000000 0.796090 0.000000
0.000000 0.792180 0.000000
0.000000 0.786069 0.000000
0.291073 0.777544 0.000000
0.564951 0.766390 0.000000
0.778073 0.752368 0.000000
0.969990 0.735202 0.000000
1.000000 0.714777 0.000000
0.000000 0.930664 0.000000
0.000000 0.928705 0.000000
0.000000 0.925404 0.000000
0.000000 0.920255 0.000000
0.000000 0.913093 0.000000
0.443401 0.903755 0.000000
0.696502 0.892076 0.000000
0.907317 0.877870 0.000000
1.000000 0.861104 0.000000
0.000000 1.000000 0.000000
0.000000 1.000000 0.000000
0.000000 1.000000 0.000000
0.000000 1.000000 0.000000
0.000000 1.000000 0.000000
0.233204 1.000000 0.000000
0.585710 1.000000 0.000000
0.827321 1.000000 0.000000
1.000000 1.000000 0.000000
0.000000 0.000000 0.269508
0.168530 0.000000 0.268506
0.332204 0.000000 0.266815
0.492035 0.000000 0.264171
0.650595 0.000000 0.260482
0.808585 0.000000 0.255651
0.966272 0.000000 0.249572
1.000000 0.000000 0.242120
1.000000 0.000000 0.233238
0.000000 0.135200 0.263955
0.114429 0.122866 0.262934
0.304597 0.100016 0.261211
0.473634 0.058372 0.258517
0.636941 0.000000 0.254755
0.797818 0.000000 0.249827
0.957438 0.000000 0.243621
1.000000 0.000000 0.236007
1.000000 0.000000 0.226921
0.000000 0.268373 0.254381
0.000000 0.261402 0.253326
0.250015 0.250015 0.250015
0.440965 0.229445 0.248759
0.613266 0.199326 0.244867
0.779357 0.153857 0.239762
0.942385 0.077891 0.233326
1.000000 0.000000 0.225414
1.000000 0.000000 0.215953
0.000000 0.401008 0.238827
0.000000 0.396252 0.237712
0.142670 0.388134 0.235829
0.384720 0.375197 0.232881
0.574407 0.356588 0.228757
0.749663 0.331103 0.223339
0.918429 0.296830 0.216490
1.000000 0.250310 0.208045
1.000000 0.184605 0.197901
0.000000 0.533459 0.215759
0.000000 0.529898 0.214544
0.000000 0.523860 0.212489
0.290305 0.514344 0.209266
0.515672 0.500900 0.204747
0.706388 0.482983 0.198790
0.884127 0.459883 0.191226
1.000000 0.430595 0.181843
1.000000 0.394010 0.170480
0.000000 0.665826 0.182498
0.000000 0.663006 0.181104
0.000000 0.658240 0.178742
0.089405 0.650770 0.175028
0.427757 0.640302 0.169796
0.645894 0.626517 0.162854
0.837532 0.609040 0.153957
1.000000 0.587400 0.142777
1.000000 0.561261 0.128993
0.000000 0.798148 0.133217
0.000000 0.795829 0.131451
0.000000 0.791917 0.128446
0.000000 0.785804 0.123684
0.284713 0.777276 0.116896
0.561653 0.766117 0.107730
0.775729 0.752090 0.095677
0.968151 0.734917 0.079936
1.000000 0.714483 0.060892
0.000000 0.930443 0.051579
0.000000 0.928484 0.049184
0.000000 0.925182 0.045160
0.000000 0.920032 0.038916
0.000000 0.912867 0.030293
0.439171 0.903528 0.019163
0.693860 0.891845 0.005419
0.905336 0.877635 0.000000
1.000000 0.860864 0.000000
0.000000 1.000000 0.000000
0.000000 1.000000 0.000000
0.000000 1.000000 0.000000
0.000000 1.000000 0.000000
0.000000 1.000000 0.000000
0.225432 1.000000 0.000000
0.582534 1.000000 0.000000
0.825128 1.000000 0.000000
1.000000 1.000000 0.000000
0.000000 0.000000 0.400991
0.152458 0.000000 0.400302
0.323451 0.000000 0.399140
0.486117 0.000000 0.397331
0.646180 0.000000 0.394820
0.805094 0.000000 0.391556
0.963404 0.000000 0.387487
1.000000 0.000000 0.382562
1.000000 0.000000 0.376783
0.000000 0.133101 0.397183
0.092685 0.120622 0.396487
0.295088 0.097449 0.395315
0.467480 0.055498 0.393489
0.632424 0.000000 0.390953
0.794275 0.000000 0.387657
0.954541 0.000000 0.383549
1.000000 0.000000 0.378574
1.000000 0.000000 0.372735
0.000000 0.267166 0.390702
0.000000 0.260166 0.389994
0.240793 0.248017 0.388803
0.434348 0.228059 0.386947
0.608565 0.197767 0.384369
0.775723 0.151947 0.381018
0.939436 0.075017 0.376839
1.000000 0.000000 0.371777
1.000000 0.000000 0.365834
0.000000 0.400181 0.380407
0.000000 0.395414 0.379681
0.124291 0.387279 0.378458
0.375023 0.375023 0.375023
0.569369 0.355661 0.373906
0.745872 0.330108 0.370463
0.915394 0.295728 0.366168
1.000000 0.249025 0.360962
1.000000 0.182947 0.354845
0.000000 0.532838 0.365714
0.000000 0.529272 0.364959
0.000000 0.523227 0.363689
0.280356 0.513700 0.361708
0.510034 0.500237 0.358956
0.702346 0.482296 0.355374
0.880962 0.459160 0.350903
1.000000 0.429824 0.345477
1.000000 0.393168 0.339094
0.000000 0.665333 0.345852
0.000000 0.662511 0.345056
0.000000 0.657741 0.343715
0.064558 0.650265 0.341624
0.420934 0.639789 0.338717
0.641444 0.625992 0.334930
0.834173 0.608500 0.330197
1.000000 0.586838 0.324445
1.000000 0.560672 0.317666
0.000000 0.797743 0.319706
0.000000 0.795422 0.318849
0.000000 0.791508 0.317405
0.000000 0.785392 0.315151
0.274581 0.776859 0.312013
0.556495 0.765694 0.307920
0.772076 0.751658 0.302795
0.965289 0.734474 0.296552
1.000000 0.714027 0.289173
0.000000 0.930101 0.285502
0.000000 0.928141 0.284550
0.000000 0.924838 0.282946
0.000000 0.919686 0.280439
0.000000 0.912518 0.276944
0.432526 0.903174 0.272374
0.689739 0.891486 0.266633
0.902253 0.877270 0.259613
1.000000 0.860491 0.251272
0.000000 1.000000 0.240039
0.000000 1.000000 0.238929
0.000000 1.000000 0.237055
0.000000 1.000000 0.234121
0.000000 1.000000 0.230015
0.212901 1.000000 0.224623
0.577570 1.000000 0.217808
0.821714 1.000000 0.209407
1.000000 1.000000 0.199320
0.000000 0.000000 0.532474
0.127949 0.000000 0.531955
0.310988 0.000000 0.531083
0.477824 0.000000 0.529727
0.640030 0.000000 0.527848
0.800247 0.000000 0.525413
0.959428 0.000000 0.522389
1.000000 0.000000 0.518746
1.000000 0.000000 0.514496
0.000000 0.130164 0.529616
0.058508 0.117476 0.529095
0.281478 0.093836 0.528218
0.458847 0.051529 0.526854
0.626132 0.000000 0.524965
0.789356 0.000000 0.522515
0.950523 0.000000 0.519475
1.000000 0.000000 0.515811
1.000000 0.000000 0.511536
0.000000 0.265491 0.524777
0.000000 0.258451 0.524251
0.224340 0.246227 0.523366
0.425042 0.226135 0.521989
0.602009 0.195598 0.520081
0.770674 0.149280 0.517608
0.935346 0.071049 0.514538
1.000000 0.000000 0.510837
1.000000 0.000000 0.506519
0.000000 0.399035 0.517159
0.000000 0.394255 0.516624
0.095366 0.386096 0.515726
0.366412 0.373091 0.514328
0.562335 0.354376 0.512391
0.740604 0.328729 0.509880
0.911186 0.294200 0.506762
1.000000 0.247242 0.503003
1.000000 0.180637 0.498615
0.000000 0.531979 0.506433
0.000000 0.528408 0.505887
0.000000 0.522352 0.504968
0.266070 0.512808 0.503540
0.500031 0.500031 0.500031
0.696723 0.481345 0.498994
0.876571 0.458161 0.495805
1.000000 0.428756 0.491961
1.000000 0.392002 0.487473
0.000000 0.664653 0.492225
0.000000 0.661828 0.491664
0.000000 0.657053 0.490718
0.029933 0.649568 0.489247
0.411328 0.639079 0.487209
0.635246 0.625267 0.484565
0.829511 0.607752 0.481279
1.000000 0.586061 0.477316
1.000000 0.559858 0.472687
0.000000 0.797183 0.474075
0.000000 0.794861 0.473491
0.000000 0.790944 0.472509
0.000000 0.784823 0.470980
0.260012 0.776283 0.468861
0.549290 0.765109 0.466112
0.767002 0.751061 0.462694
0.961321 0.733862 0.458569
1.000000 0.713396 0.453747
0.000000 0.929628 0.451370
0.000000 0.927667 0.450757
0.000000 0.924362 0.449725
0.000000 0.919207 0.448118
0.000000 0.912035 0.445890
0.423180 0.902686 0.442997
0.684005 0.890991 0.439399
0.897977 0.876765 0.435053
1.000000 0.859976 0.429968
0.000000 1.000000 0.423259
0.000000 1.000000 0.422605
0.000000 1.000000 0.421504
0.000000 1.000000 0.419790
0.000000 1.000000 0.417412
0.194514 1.000000 0.414322
0.570641 1.000000 0.410475
0.816974 1.000000 0.405823
1.000000 1.000000 0.400371
0.000000 0.000000 0.663956
0.090493 0.000000 0.663544
0.294184 0.000000 0.662853
0.466900 0.000000 0.661778
0.632000 0.000000 0.660290
0.793943 0.000000 0.658365
0.954269 0.000000 0.655979
1.000000 0.000000 0.653111
1.000000 0.000000 0.649774
0.000000 0.126304 0.661690
0.013823 0.113333 0.661277
0.262982 0.089047 0.660583
0.447457 0.046408 0.659504
0.617910 0.000000 0.658011
0.782957 0.000000 0.656078
0.945311 0.000000 0.653684
1.000000 0.000000 0.650805
1.000000 0.000000 0.647456
0.000000 0.263315 0.657863
0.000000 0.256222 0.657447
0.201462 0.243901 0.656749
0.412725 0.223631 0.655663
0.593436 0.192770 0.654161
0.764106 0.145785 0.652216
0.930040 0.065928 0.649807
1.000000 0.000000 0.646909
1.000000 0.000000 0.643539
0.000000 0.397552 0.651863
0.000000 0.392754 0.651444
0.051363 0.384564 0.650738
0.352110 0.371507 0.649642
0.553120 0.352712 0.648125
0.733744 0.326941 0.646161
0.905723 0.292218 0.643727
1.000000 0.244925 0.640801
1.000000 0.177621 0.637396
0.000000 0.530869 0.643471
0.000000 0.527290 0.643046
0.000000 0.521221 0.642331
0.246557 0.511655 0.641219
0.491767 0.498136 0.639681
0.689393 0.480115 0.637689
0.870869 0.456868 0.635221
1.000000 0.427374 0.632253
1.000000 0.390493 0.628799
0.000000 0.663774 0.632457
0.000000 0.660945 0.632024
0.000000 0.656163 0.631296
0.000000 0.648668 0.630164
0.398594 0.638163 0.628597
0.625038 0.625038 0.625038
0.823451 0.606786 0.624054
1.000000 0.585057 0.621029
1.000000 0.558805 0.617509
0.000000 0.796460 0.618563
0.000000 0.794136 0.618120
0.000000 0.790215 0.617374
0.000000 0.784088 0.616215
0.240071 0.775539 0.614611
0.539844 0.764353 0.612533
0.760399 0.750290 0.609958
0.956174 0.733071 0.606859
1.000000 0.712581 0.603252
0.000000 0.929017 0.601480
0.000000 0.927055 0.601023
0.000000 0.923747 0.600255
0.000000 0.918588 0.599062
0.000000 0.911411 0.597409
0.410809 0.902055 0.595268
0.676528 0.890351 0.592614
0.892425 0.876114 0.589420
1.000000 0.859311 0.585700
0.000000 1.000000 0.580822
0.000000 1.000000 0.580348
0.000000 1.000000 0.579552
0.000000 1.000000 0.578313
0.000000 1.000000 0.576598
0.168472 1.000000 0.574376
0.561568 1.000000 0.571621
0.810811 1.000000 0.568303
1.000000 1.000000 0.564438
0.000000 0.000000 0.795437
0.035607 0.000000 0.795098
0.272140 0.000000 0.794529
0.453046 0.000000 0.793645
0.621933 0.000000 0.792421
0.786083 0.000000 0.790840
0.947856 0.000000 0.788881
1.000000 0.000000 0.786530
1.000000 0.000000 0.783800
0.000000 0.121423 0.793572
0.000000 0.108075 0.793233
0.238414 0.082921 0.792662
0.432980 0.040084 0.791775
0.607597 0.000000 0.790549
0.774976 0.000000 0.788963
0.938830 0.000000 0.787000
1.000000 0.000000 0.784643
1.000000 0.000000 0.781905
0.000000 0.260606 0.790427
0.000000 0.253446 0.790086
0.169880 0.241002 0.789513
0.396997 0.220505 0.788622
0.582668 0.189231 0.787391
0.755909 0.141385 0.785798
0.923441 0.059603 0.783826
1.000000 0.000000 0.781459
1.000000 0.000000 0.778708
0.000000 0.395712 0.785509
0.000000 0.390893 0.785165
0.000000 0.382664 0.784588
0.333648 0.369542 0.783692
0.541517 0.350646 0.782451
0.725176 0.324721 0.780848
0.898926 0.289753 0.778862
1.000000 0.242036 0.776478
1.000000 0.173840 0.773709
0.000000 0.529495 0.778653
0.000000 0.525906 0.778306
0.000000 0.519820 0.777724
0.220428 0.510228 0.776819
0.478640 0.496669 0.775566
0.680226 0.478592 0.773947
0.863770 0.455267 0.771943
1.000000 0.425662 0.769535
1.000000 0.388621 0.766739
0.000000 0.662687 0.769701
0.000000 0.659853 0.769350
0.000000 0.655062 0.768760
0.000000 0.647553 0.767843
0.382299 0.637030 0.766575
0.617000 0.623169 0.764935
0.815900 0.605590 0.762905
0.999964 0.583815 0.760467
1.000000 0.557502 0.757634
0.000000 0.795567 0.758482
0.000000 0.793240 0.758125
0.000000 0.789314 0.757525
0.000000 0.783179 0.756594
0.213272 0.774620 0.755306
0.527940 0.763419 0.753639
0.750046 0.750046 0.750046
0.949775 0.732094 0.749098
1.000000 0.711574 0.746218
0.000000 0.928263 0.744806
0.000000 0.926298 0.744442
0.000000 0.922988 0.743831
0.000000 0.917824 0.742881
0.000000 0.910641 0.741567
0.395006 0.901275 0.739867
0.667172 0.889560 0.737762
0.885516 0.875309 0.735234
1.000000 0.858489 0.732296
0.000000 1.000000 0.728453
0.000000 1.000000 0.728080
0.000000 1.000000 0.727454
0.000000 1.000000 0.726481
0.000000 1.000000 0.725135
0.131262 1.000000 0.723393
0.550150 1.000000 0.721237
0.803131 1.000000 0.718646
1.000000 1.000000 0.715634
0.000000 0.000000 0.926919
0.000000 0.000000 0.926632
0.243443 0.000000 0.926151
0.435881 0.000000 0.925403
0.609651 0.000000 0.924370
0.776561 0.000000 0.923034
0.940116 0.000000 0.921381
1.000000 0.000000 0.919398
1.000000 0.000000 0.917097
0.000000 0.115401 0.925342
0.000000 0.101560 0.925055
0.205777 0.075363 0.924573
0.414991 0.032513 0.923824
0.595004 0.000000 0.922788
0.765304 0.000000 0.921450
0.931007 0.000000 0.919794
1.000000 0.000000 0.917807
1.000000 0.000000 0.915502
0.000000 0.257330 0.922686
0.000000 0.250088 0.922398
0.124784 0.237491 0.921914
0.377330 0.216714 0.921162
0.569498 0.184923 0.920123
0.745969 0.135983 0.918781
0.915472 0.052033 0.917120
1.000000 0.000000 0.915127
1.000000 0.000000 0.912814
0.000000 0.393500 0.918537
0.000000 0.388653 0.918248
0.000000 0.380378 0.917762
0.310196 0.367176 0.917006
0.527281 0.348158 0.915962
0.714776 0.322045 0.914613
0.890715 0.286777 0.912943
1.000000 0.238539 0.910940
1.000000 0.169228 0.908616
0.000000 0.527845 0.912767
0.000000 0.524245 0.912476
0.000000 0.518139 0.911986
0.185230 0.508514 0.911226
0.462430 0.494907 0.910175
0.669076 0.476762 0.908816
0.855188 0.453342 0.907134
1.000000 0.423603 0.905117
1.000000 0.386368 0.902776
0.000000 0.661383 0.905256
0.000000 0.658543 0.904962
0.000000 0.653743 0.904467
0.000000 0.646217 0.903700
0.361860 0.635670 0.902639
0.604613 0.621777 0.901267
0.806760 0.604156 0.899571
0.992673 0.582325 0.897535
1.000000 0.555937 0.895172
0.000000 0.794496 0.895879
0.000000 0.792165 0.895581
0.000000 0.788234 0.895081
0.000000 0.782089 0.894305
0.176944 0.773517 0.893232
0.513316 0.762299 0.891844
0.742165 0.748194 0.890128
0.942052 0.730922 0.888068
1.000000 0.710365 0.885677
0.000000 0.927358 0.884506
0.000000 0.925392 0.884204
0.000000 0.922078 0.883697
0.000000 0.916909 0.882910
0.000000 0.909717 0.881821
0.375237 0.900341 0.880414
0.655786 0.888612 0.878673
0.875053 0.875053 0.875053
1.000000 0.857503 0.874158
0.000000 1.000000 0.870991
0.000000 1.000000 0.870684
0.000000 1.000000 0.870169
0.000000 1.000000 0.869368
0.000000 1.000000 0.868261
0.073847 1.000000 0.866829
0.536150 1.000000 0.865058
0.793831 1.000000 0.862933
1.000000 1.000000 0.860465
0.000000 0.000000 1.000000
0.000000 0.000000 1.000000
0.206110 0.000000 1.000000
0.415167 0.000000 1.000000
0.595126 0.000000 1.000000
0.765397 0.000000 1.000000
0.931082 0.000000 1.000000
1.000000 0.000000 1.000000
1.000000 0.000000 1.000000
0.000000 0.108174 1.000000
0.000000 0.093693 1.000000
0.161733 0.066614 1.000000
0.393194 0.023765 1.000000
0.580095 0.000000 1.000000
0.753959 0.000000 1.000000
0.921875 0.000000 1.000000
1.000000 0.000000 1.000000
1.000000 0.000000 1.000000
0.000000 0.253498 1.000000
0.000000 0.246157 1.000000
0.054983 0.233378 1.000000
0.353290 0.212262 1.000000
0.553873 0.179844 1.000000
0.734302 0.129547 1.000000
0.906167 0.043285 1.000000
1.000000 0.000000 1.000000
1.000000 0.000000 1.000000
0.000000 0.390927 1.000000
0.000000 0.386050 1.000000
0.000000 0.377719 1.000000
0.280866 0.364425 1.000000
0.510320 0.345261 1.000000
0.702550 0.318925 1.000000
0.881122 0.283303 1.000000
1.000000 0.234441 1.000000
1.000000 0.163776 1.000000
0.000000 0.525932 1.000000
0.000000 0.522318 1.000000
0.000000 0.516189 1.000000
0.136400 0.506526 1.000000
0.442955 0.492863 1.000000
0.655940 0.474639 1.000000
0.845151 0.451108 1.000000
1.000000 0.421212 1.000000
1.000000 0.383750 1.000000
0.000000 0.659873 1.000000
0.000000 0.657026 1.000000
0.000000 0.652214 1.000000
0.000000 0.644669 1.000000
0.336767 0.634095 1.000000
0.589958 0.620165 1.000000
0.796055 0.602494 1.000000
0.984172 0.580597 1.000000
1.000000 0.554124 1.000000
0.000000 0.793256 1.000000
0.000000 0.790922 1.000000
0.000000 0.786984 1.000000
0.000000 0.780828 1.000000
0.125867 0.772241 1.000000
0.495867 0.761002 1.000000
0.730432 0.746871 1.000000
0.933039 0.729565 1.000000
1.000000 0.708966 1.000000
0.000000 0.926312 1.000000
0.000000 0.924343 1.000000
0.000000 0.921025 1.000000
0.000000 0.915849 1.000000
0.000000 0.908648 1.000000
0.351059 0.899260 1.000000
0.642361 0.887516 1.000000
0.867409 0.873228 1.000000
1.000000 0.856363 1.000000
0.000000 1.000000 1.000000
0.000000 1.000000 1.000000
0.000000 1.000000 1.000000
0.000000 1.000000 1.000000
0.000000 1.000000 1.000000
0.000000 1.000000 1.000000
0.519487 1.000000 1.000000
0.782934 1.000000 1.000000
1.000000 1.000000 1.000000
