lut/fujifilm/F-log2/F-Log2_LUT_E_Ver.1.05/GFX100II/GFX100II_FLog2_FGamut_to_ETERNA-BB_BT.709_33gird_V.1.00.cube
#title:FLog2_FGamut_to_ETERNA-BB_BT.709
#FUJIFILM Corporation
#Gamma:F-Log2 to ETERNA BLEACH BYPASS
#Gamut:F-Gamut to ITU-R BT.709
#Version:1.00
LUT_3D_SIZE 5
0.000000 0.000000 0.000000
0.051998 0.006484 0.010126
0.366946 0.013317 0.074063
0.652557 0.026430 0.165464
0.652557 0.026430 0.165464
0.000000 0.082628 0.029262
0.096097 0.103439 0.046273
0.547870 0.140496 0.135395
0.677899 0.110494 0.188695
0.651581 0.026127 0.161028
0.000283 0.750036 0.403265
0.041165 0.728486 0.381301
0.764275 0.803481 0.454312
0.898530 0.660618 0.358095
0.860693 0.555173 0.332106
0.250745 0.912994 0.671926
0.250745 0.912994 0.671926
0.630767 0.951352 0.745508
0.961149 0.986624 0.733887
0.962356 0.964413 0.639501
0.250745 0.912994 0.671926
0.250745 0.912994 0.671926
0.474381 0.934918 0.709188
0.891543 0.979416 0.799371
0.967602 0.987500 0.721019
0.003705 0.006209 0.026848
0.067240 0.006738 0.054500
0.450615 0.017064 0.100875
0.652557 0.026430 0.165464
0.652557 0.026430 0.165464
0.000000 0.108175 0.102883
0.116211 0.116211 0.116211
0.572303 0.144264 0.146137
0.661326 0.058890 0.172351
0.651581 0.026127 0.161028
0.000645 0.760175 0.521433
0.034905 0.721854 0.449012
0.760581 0.777540 0.469083
0.878243 0.608089 0.347696
0.845681 0.507533 0.316960
0.225718 0.911186 0.695486
0.239599 0.911897 0.681109
0.642496 0.952748 0.750391
0.967018 0.986867 0.708684
0.957674 0.957565 0.609946
0.230800 0.911078 0.691270
0.241946 0.912512 0.680355
0.481418 0.935420 0.713847
0.893889 0.980032 0.798617
0.967602 0.987500 0.721019
0.029047 0.059688 0.207552
0.124445 0.067856 0.223671
0.627000 0.143259 0.427602
0.703652 0.154760 0.287262
0.680626 0.120429 0.190340
0.108222 0.240776 0.506589
0.181140 0.242760 0.536419
0.715417 0.286327 0.606915
0.725682 0.220860 0.334583
0.684524 0.134996 0.199352
0.000186 0.800503 0.743309
0.000000 0.771245 0.707981
0.807617 0.807617 0.807617
0.942667 0.673264 0.588398
0.881786 0.560520 0.446282
0.000000 0.907809 0.765476
0.001075 0.905812 0.746973
0.616876 0.951218 0.816903
0.974428 0.988528 0.817754
0.964117 0.948934 0.706012
0.000290 0.906807 0.761039
0.035091 0.907387 0.743872
0.434293 0.933723 0.769086
0.898177 0.982841 0.858565
0.974630 0.988243 0.784431
0.139339 0.182239 0.615028
0.195798 0.226249 0.651519
0.821419 0.420520 0.880030
0.862303 0.406028 0.821726
0.841815 0.367899 0.771972
0.203789 0.479992 0.703188
0.199892 0.464418 0.699366
0.776917 0.566509 0.887516
0.890201 0.468671 0.862879
0.844543 0.376155 0.782269
0.101684 0.760181 0.770379
0.122039 0.734737 0.762345
0.614484 0.760851 0.869661
0.978137 0.738919 0.936837
0.961776 0.677716 0.875140
0.158830 0.914826 0.817903
0.149055 0.915048 0.816703
0.364879 0.929496 0.844422
0.970703 0.970703 0.970703
0.991259 0.944301 0.932804
0.158830 0.914826 0.817903
0.158830 0.914826 0.817903
0.136934 0.914653 0.816257
0.876462 0.982529 0.942828
0.990043 0.995992 0.935391
0.194686 0.381220 0.687410
0.193116 0.388587 0.687855
0.828541 0.550324 0.903981
0.908938 0.498177 0.910235
0.908938 0.498177 0.910235
0.203990 0.473321 0.702741
0.202248 0.453367 0.698699
0.764201 0.575132 0.885031
0.912642 0.508753 0.914586
0.908938 0.498177 0.910235
0.103062 0.748489 0.767004
0.137694 0.719057 0.759192
0.602966 0.741118 0.864418
0.982052 0.725445 0.970247
0.975045 0.689943 0.965845
0.155507 0.913571 0.815950
0.136934 0.914653 0.816257
0.302924 0.907240 0.830254
0.953900 0.955732 0.980504
0.992629 0.933521 0.984718
0.158830 0.914826 0.817903
0.158830 0.914826 0.817903
0.158830 0.914826 0.817903
0.841469 0.978296 0.953605
1.000000 1.000000 1.000000
