lut/fujifilm/F-log2/F-Log2_LUT_E_Ver.1.05/GFX100II/GFX100II_FLog2_FGamut_to_ETERNA-BB_BT.709_33gird_V.1.00.cube
#title:FLog2_FGamut_to_ETERNA-BB_BT.709
#FUJIFILM Corporation
#Gamma:F-Log2 to ETERNA BLEACH BYPASS
#Gamut:F-Gamut to ITU-R BT.709
#Version:1.00
LUT_3D_SIZE 33
0.000000 0.000000 0.000000
0.000000 0.000000 0.000000
0.000000 0.000000 0.000000
0.000000 0.000000 0.000000
0.010752 0.000419 0.003906
0.023458 0.003464 0.006305
0.035578 0.003858 0.006751
0.037924 0.004136 0.007727
0.051998 0.006484 0.010126
0.067834 0.006797 0.009817
0.088362 0.007330 0.013192
0.109281 0.006526 0.013859
0.133523 0.006978 0.016479
0.164410 0.009941 0.023008
0.216610 0.009755 0.032687
0.287181 0.013139 0.052887
0.366946 0.013317 0.074063
0.445924 0.016841 0.097191
0.518259 0.017182 0.119875
0.578077 0.019140 0.141359
0.624408 0.023080 0.153745
0.652557 0.026430 0.165464
0.652557 0.026430 0.165464
0.652557 0.026430 0.165464
0.652557 0.026430 0.165464
0.652557 0.026430 0.165464
0.652557 0.026430 0.165464
0.652557 0.026430 0.165464
0.652557 0.026430 0.165464
0.652557 0.026430 0.165464
0.652557 0.026430 0.165464
0.652557 0.026430 0.165464
0.652557 0.026430 0.165464
0.000000 0.000000 0.000000
0.000000 0.000000 0.000000
0.000000 0.000000 0.000000
0.000000 0.000000 0.000000
0.010752 0.000419 0.003906
0.023458 0.003464 0.006305
0.029517 0.003661 0.006527
0.037924 0.004136 0.007727
0.051998 0.006484 0.010126
0.067834 0.006797 0.009817
0.088362 0.007330 0.013192
0.109281 0.006526 0.013859
0.133523 0.006978 0.016479
0.177900 0.009637 0.023453
0.240066 0.013555 0.037262
0.314746 0.013503 0.064382
0.398224 0.013262 0.086536
0.474858 0.017180 0.105227
0.544061 0.020589 0.128886
0.602512 0.023580 0.148642
0.639458 0.026068 0.158852
0.652557 0.026430 0.165464
0.652557 0.026430 0.165464
0.652557 0.026430 0.165464
0.652557 0.026430 0.165464
0.652557 0.026430 0.165464
0.652557 0.026430 0.165464
0.652557 0.026430 0.165464
0.652557 0.026430 0.165464
0.652557 0.026430 0.165464
0.652557 0.026430 0.165464
0.652557 0.026430 0.165464
0.652557 0.026430 0.165464
0.000000 0.000000 0.000000
0.000000 0.000000 0.000000
0.000000 0.000000 0.000000
0.000000 0.000000 0.000000
0.010752 0.000419 0.003906
0.023458 0.003464 0.006305
0.029517 0.003661 0.006527
0.037924 0.004136 0.007727
0.051998 0.006484 0.010126
0.067834 0.006797 0.009817
0.088362 0.007330 0.013192
0.111628 0.006806 0.014836
0.144859 0.010384 0.020610
0.194713 0.010591 0.025851
0.262939 0.013360 0.046804
0.341918 0.016884 0.069934
0.424813 0.013657 0.091864
0.501446 0.016903 0.114016
0.570648 0.019976 0.139406
0.618347 0.023220 0.151792
0.652557 0.026430 0.165464
0.652557 0.026430 0.165464
0.652557 0.026430 0.165464
0.652557 0.026430 0.165464
0.652557 0.026430 0.165464
0.652557 0.026430 0.165464
0.652557 0.026430 0.165464
0.652557 0.026430 0.165464
0.652557 0.026430 0.165464
0.652557 0.026430 0.165464
0.652557 0.026430 0.165464
0.652557 0.026430 0.165464
0.652557 0.026430 0.165464
0.000000 0.000000 0.000000
0.000000 0.000000 0.000000
0.000000 0.000000 0.000000
0.000000 0.000000 0.000000
0.010752 0.000419 0.003906
0.023458 0.003464 0.006305
0.030102 0.006647 0.006751
0.043007 0.003358 0.006972
0.053759 0.003776 0.010878
0.067834 0.006797 0.009817
0.093446 0.006214 0.014168
0.119057 0.005969 0.016789
0.156005 0.009802 0.020079
0.211525 0.010534 0.033441
0.281120 0.013279 0.050934
0.366946 0.013317 0.074063
0.450615 0.017064 0.100875
0.529403 0.016600 0.119345
0.588830 0.019896 0.143535
0.636529 0.023139 0.155923
0.652557 0.026430 0.165464
0.652557 0.026430 0.165464
0.652557 0.026430 0.165464
0.652557 0.026430 0.165464
0.652557 0.026430 0.165464
0.652557 0.026430 0.165464
0.652557 0.026430 0.165464
0.652557 0.026430 0.165464
0.652557 0.026430 0.165464
0.652557 0.026430 0.165464
0.652557 0.026430 0.165464
0.652557 0.026430 0.165464
0.652557 0.026430 0.165464
0.000000 0.010995 0.003375
0.000000 0.010995 0.003375
0.000575 0.013981 0.003597
0.000575 0.013981 0.003597
0.014065 0.013341 0.005774
0.026186 0.013736 0.006220
0.040844 0.019406 0.007109
0.057072 0.017035 0.011015
0.070563 0.017068 0.009731
0.088744 0.016987 0.013859
0.109664 0.016519 0.012797
0.141919 0.019458 0.015863
0.181998 0.019213 0.023366
0.240652 0.016878 0.035755
0.307709 0.013337 0.057991
0.394509 0.014016 0.083828
0.477203 0.017123 0.107933
0.549144 0.020147 0.126402
0.608573 0.023777 0.148863
0.647866 0.026544 0.160051
0.652557 0.026430 0.165464
0.652557 0.026430 0.165464
0.652557 0.026430 0.165464
0.652557 0.026430 0.165464
0.652557 0.026430 0.165464
0.652557 0.026430 0.165464
0.652557 0.026430 0.165464
0.652557 0.026430 0.165464
0.652557 0.026430 0.165464
0.652557 0.026430 0.165464
0.652557 0.026430 0.165464
0.652557 0.026430 0.165464
0.652557 0.026430 0.165464
0.003886 0.025896 0.010657
0.003886 0.025896 0.010657
0.003886 0.025896 0.010657
0.003886 0.025896 0.010657
0.010530 0.029080 0.011102
0.029297 0.032322 0.013723
0.047087 0.034922 0.013637
0.058814 0.037999 0.009868
0.080712 0.038507 0.009782
0.100262 0.037729 0.013910
0.127041 0.044129 0.013516
0.154021 0.043186 0.016136
0.207389 0.048972 0.026262
0.273078 0.047139 0.043309
0.349520 0.046060 0.062531
0.429484 0.037550 0.093645
0.506328 0.022793 0.113706
0.574363 0.019894 0.138652
0.616003 0.022941 0.150816
0.647866 0.026208 0.161782
0.651581 0.026127 0.161028
0.651581 0.026127 0.161028
0.651581 0.026127 0.161028
0.651581 0.026127 0.161028
0.651581 0.026127 0.161028
0.652557 0.026430 0.165464
0.652557 0.026430 0.165464
0.652557 0.026430 0.165464
0.652557 0.026430 0.165464
0.652557 0.026430 0.165464
0.652557 0.026430 0.165464
0.652557 0.026430 0.165464
0.652557 0.026430 0.165464
0.000000 0.040994 0.013278
0.000000 0.040994 0.013278
0.000000 0.040994 0.013278
0.000000 0.040994 0.013278
0.010904 0.049397 0.016875
0.034361 0.054204 0.016257
0.054496 0.057085 0.017149
0.065248 0.058848 0.014132
0.088121 0.060670 0.013294
0.108256 0.064222 0.010722
0.132105 0.066348 0.014321
0.168861 0.065519 0.016410
0.224967 0.069911 0.026534
0.294171 0.074666 0.043274
0.377840 0.078412 0.070085
0.465225 0.080733 0.103066
0.535012 0.086794 0.128679
0.590926 0.084172 0.149719
0.625939 0.061037 0.159880
0.647866 0.026208 0.161782
0.651581 0.026127 0.161028
0.651581 0.026127 0.161028
0.651581 0.026127 0.161028
0.651581 0.026127 0.161028
0.651581 0.026127 0.161028
0.651581 0.026127 0.161028
0.651581 0.026127 0.161028
0.651581 0.026127 0.161028
0.651581 0.026127 0.161028
0.651581 0.026127 0.161028
0.651581 0.026127 0.161028
0.652557 0.026430 0.165464
0.652557 0.026430 0.165464
0.000000 0.056985 0.016121
0.000000 0.061646 0.017320
0.000000 0.061646 0.017320
0.000000 0.061646 0.017320
0.009717 0.065413 0.023179
0.037473 0.072454 0.025493
0.053499 0.076754 0.029844
0.072659 0.078321 0.031488
0.091817 0.081233 0.026211
0.111366 0.082471 0.019956
0.141278 0.086139 0.016856
0.182331 0.088551 0.016683
0.243522 0.091491 0.029515
0.319761 0.096747 0.050914
0.393657 0.100714 0.076528
0.470873 0.105603 0.105825
0.541244 0.113978 0.135122
0.602816 0.124558 0.159003
0.645039 0.129584 0.176582
0.676711 0.127183 0.191539
0.675754 0.103544 0.187273
0.669129 0.078371 0.180079
0.656847 0.040330 0.168309
0.651581 0.026127 0.161028
0.651581 0.026127 0.161028
0.651581 0.026127 0.161028
0.651581 0.026127 0.161028
0.651581 0.026127 0.161028
0.651581 0.026127 0.161028
0.651581 0.026127 0.161028
0.651581 0.026127 0.161028
0.651581 0.026127 0.161028
0.651581 0.026127 0.161028
0.000000 0.082628 0.029262
0.000000 0.082628 0.029262
0.000000 0.084638 0.028507
0.000000 0.086312 0.029484
0.002851 0.089882 0.035121
0.032369 0.093543 0.041648
0.057196 0.096646 0.046223
0.077724 0.098524 0.042676
0.096097 0.103439 0.046273
0.117599 0.106294 0.043703
0.153963 0.108149 0.041578
0.199125 0.110821 0.029293
0.256992 0.114858 0.028058
0.324041 0.123322 0.048481
0.399698 0.123910 0.078309
0.475152 0.131169 0.108582
0.547870 0.140496 0.135395
0.610610 0.156042 0.164914
0.654584 0.169018 0.188351
0.687424 0.171918 0.207215
0.692517 0.159472 0.206548
0.688621 0.144235 0.200996
0.684524 0.134996 0.199352
0.679650 0.119117 0.191093
0.677899 0.110494 0.188695
0.672633 0.095617 0.184875
0.668737 0.080380 0.179324
0.665817 0.066119 0.174751
0.657430 0.043653 0.166801
0.651581 0.026127 0.161028
0.651581 0.026127 0.161028
0.651581 0.026127 0.161028
0.651581 0.026127 0.161028
0.000000 0.107934 0.044132
0.000000 0.107934 0.044132
0.000486 0.110586 0.046086
0.000094 0.112259 0.047062
0.000000 0.114269 0.046310
0.035280 0.118463 0.051329
0.059320 0.124577 0.059586
0.083169 0.127039 0.061452
0.104280 0.130224 0.066780
0.127347 0.135697 0.072333
0.159018 0.137665 0.064793
0.208479 0.140890 0.064090
0.265369 0.144622 0.058417
0.332035 0.148470 0.052214
0.404954 0.151125 0.078581
0.483732 0.159641 0.110808
0.557222 0.175606 0.144235
0.620355 0.189477 0.172777
0.668236 0.206361 0.200121
0.699900 0.214619 0.220183
0.707339 0.202451 0.220492
0.702073 0.187575 0.216672
0.695438 0.173731 0.211121
0.691934 0.156821 0.204595
0.689981 0.154532 0.204371
0.690182 0.148197 0.202195
0.688037 0.141583 0.199042
0.685500 0.136307 0.198598
0.684332 0.130671 0.196422
0.681603 0.121070 0.193046
0.677114 0.114177 0.188919
0.675754 0.103544 0.187273
0.669904 0.086016 0.181500
0.000457 0.142562 0.061401
0.000000 0.146245 0.061625
0.000649 0.147894 0.059141
0.000256 0.148897 0.063579
0.000000 0.152917 0.062071
0.027226 0.159285 0.067843
0.050684 0.163085 0.072419
0.080201 0.167081 0.077215
0.105420 0.167837 0.084273
0.132199 0.173565 0.087339
0.165433 0.177144 0.093114
0.209809 0.181485 0.091434
0.273737 0.184038 0.099075
0.344309 0.191120 0.100239
0.417821 0.193160 0.085383
0.495813 0.205359 0.117833
0.570674 0.219955 0.154719
0.638297 0.240384 0.189122
0.685201 0.256626 0.213758
0.720186 0.266476 0.234044
0.726648 0.252659 0.236835
0.716501 0.232900 0.228133
0.710650 0.214702 0.225821
0.704217 0.194860 0.216363
0.701288 0.191595 0.215164
0.702073 0.187575 0.216672
0.699928 0.180961 0.213520
0.695438 0.173731 0.211121
0.695638 0.167734 0.207215
0.694470 0.162097 0.205040
0.690957 0.155508 0.205347
0.688420 0.150569 0.203172
0.687644 0.143258 0.200019
0.000992 0.199516 0.083691
0.000000 0.205209 0.083161
0.000000 0.211880 0.083606
0.000000 0.216205 0.086536
0.000000 0.220865 0.087734
0.000187 0.225526 0.088934
0.029121 0.226201 0.095238
0.065484 0.227047 0.098306
0.103216 0.227194 0.101371
0.136450 0.230437 0.108875
0.174766 0.232899 0.115625
0.224811 0.237431 0.123796
0.287954 0.245013 0.124738
0.365562 0.250580 0.140945
0.441018 0.261535 0.152183
0.519020 0.271140 0.137997
0.595441 0.290036 0.174351
0.662672 0.311802 0.211460
0.715828 0.332566 0.239250
0.757850 0.344598 0.255543
0.761967 0.330166 0.259091
0.747529 0.295836 0.251003
0.732891 0.268176 0.243364
0.720991 0.240130 0.230531
0.716501 0.232900 0.228133
0.712010 0.226008 0.224004
0.709474 0.221068 0.221829
0.710650 0.214702 0.225821
0.707922 0.205102 0.222445
0.706754 0.199801 0.218539
0.704217 0.194860 0.216363
0.702073 0.187575 0.216672
0.699928 0.180961 0.213520
0.000000 0.288846 0.107231
0.000000 0.297831 0.111359
0.000000 0.306175 0.112781
0.000000 0.314824 0.118640
0.000110 0.312814 0.119395
0.000000 0.308154 0.118195
0.000000 0.307482 0.121656
0.043318 0.310173 0.122461
0.091219 0.308426 0.125749
0.138334 0.309355 0.134452
0.178603 0.313771 0.143156
0.238031 0.319755 0.153504
0.309187 0.326127 0.173926
0.384643 0.338427 0.178241
0.469088 0.351502 0.197824
0.550987 0.369624 0.223797
0.627610 0.389240 0.221637
0.704031 0.412169 0.237226
0.758557 0.432571 0.263286
0.800769 0.447247 0.291160
0.813877 0.436278 0.296129
0.791043 0.391149 0.280008
0.772508 0.348587 0.265086
0.751044 0.302088 0.252426
0.742848 0.284282 0.245675
0.737380 0.276077 0.242300
0.732891 0.268176 0.243364
0.728793 0.259609 0.238257
0.725672 0.251683 0.235859
0.721182 0.244789 0.231730
0.720407 0.237142 0.230308
0.714548 0.230611 0.227910
0.712010 0.226008 0.224004
0.000605 0.412740 0.160374
0.000000 0.427083 0.165702
0.000000 0.427083 0.165702
0.000012 0.420748 0.163528
0.000000 0.416088 0.162327
0.000000 0.411764 0.159398
0.000000 0.408777 0.159176
0.000414 0.407744 0.160906
0.072163 0.407786 0.169523
0.133162 0.407410 0.174233
0.191221 0.413755 0.186312
0.259448 0.418205 0.198613
0.337248 0.428096 0.217749
0.416609 0.441615 0.239816
0.498316 0.457428 0.252476
0.592919 0.479602 0.275655
0.675594 0.505371 0.303050
0.745764 0.525457 0.306836
0.794238 0.540381 0.299879
0.837820 0.555032 0.324293
0.860895 0.548503 0.331660
0.846466 0.503849 0.316739
0.822072 0.454084 0.302879
0.796117 0.401028 0.284359
0.780119 0.363407 0.271613
0.774068 0.352551 0.266285
0.766065 0.339069 0.262464
0.760014 0.327541 0.260598
0.755141 0.311663 0.252340
0.751044 0.302088 0.252426
0.746553 0.294860 0.250027
0.743825 0.285259 0.246652
0.736012 0.276774 0.242300
0.000479 0.549626 0.235398
0.000679 0.543292 0.233222
0.000000 0.540000 0.228562
0.000296 0.534644 0.227363
0.000106 0.529982 0.226164
0.000000 0.522671 0.223012
0.000115 0.518988 0.222789
0.000115 0.518652 0.224520
0.050945 0.520507 0.227277
0.148700 0.519639 0.232348
0.217318 0.523087 0.240210
0.294143 0.532674 0.254910
0.373313 0.541867 0.274047
0.458342 0.556920 0.299043
0.542979 0.573982 0.323286
0.631914 0.594957 0.341803
0.714003 0.619421 0.360324
0.782221 0.635537 0.372539
0.834803 0.648033 0.367312
0.868428 0.655651 0.342691
0.894039 0.653725 0.353964
0.883126 0.613644 0.349118
0.866352 0.567702 0.338410
0.844313 0.508230 0.316960
0.824610 0.459359 0.303325
0.818951 0.446494 0.298750
0.811732 0.429665 0.292975
0.805682 0.418136 0.291110
0.801000 0.406247 0.287511
0.792996 0.393102 0.281961
0.789100 0.377864 0.276411
0.780703 0.366729 0.270105
0.774653 0.355537 0.266508
0.000000 0.660858 0.316539
0.000180 0.657510 0.314586
0.000000 0.653521 0.309926
0.000000 0.649197 0.306997
0.000000 0.646883 0.303313
0.000000 0.640884 0.299406
0.000592 0.635863 0.296477
0.000592 0.635527 0.298208
0.020143 0.635420 0.298875
0.144485 0.636291 0.302352
0.239691 0.640134 0.315542
0.324338 0.648554 0.324296
0.410938 0.657584 0.341926
0.496753 0.669289 0.364969
0.579436 0.685743 0.380336
0.661143 0.701220 0.394727
0.743433 0.720357 0.405878
0.809113 0.732878 0.408996
0.859350 0.743414 0.411445
0.898060 0.747564 0.399914
0.921919 0.746088 0.362066
0.911386 0.715328 0.359616
0.900473 0.674911 0.356500
0.881947 0.619338 0.348585
0.861278 0.557487 0.335790
0.859335 0.544875 0.328730
0.854260 0.534323 0.327839
0.852709 0.519702 0.321536
0.844313 0.508230 0.316960
0.841393 0.493296 0.315847
0.834366 0.481465 0.309543
0.829100 0.466589 0.305722
0.822072 0.454084 0.302879
0.000283 0.750036 0.403265
0.000000 0.747722 0.399581
0.000877 0.743035 0.394922
0.000000 0.742395 0.392215
0.000000 0.737734 0.391016
0.000000 0.732073 0.385379
0.000000 0.727748 0.382449
0.000000 0.728084 0.380719
0.041165 0.728486 0.381301
0.174891 0.730811 0.386954
0.263646 0.737475 0.393977
0.352399 0.744139 0.401000
0.431960 0.753675 0.408777
0.519145 0.766362 0.423167
0.603006 0.777794 0.435604
0.687452 0.792214 0.448266
0.764275 0.803481 0.454312
0.823703 0.812489 0.449085
0.870427 0.818789 0.439731
0.906205 0.819337 0.428730
0.937294 0.819662 0.414048
0.937122 0.797044 0.385332
0.925815 0.762670 0.360695
0.912948 0.718955 0.362546
0.898530 0.660618 0.358095
0.887988 0.641861 0.353828
0.885653 0.630587 0.349476
0.881947 0.619338 0.348585
0.879612 0.607391 0.347696
0.873953 0.594189 0.344852
0.865949 0.580036 0.344492
0.866352 0.567702 0.338410
0.860693 0.555173 0.332106
0.000000 0.814269 0.476852
0.000415 0.810921 0.474898
0.000809 0.809583 0.472191
0.000224 0.807269 0.468508
0.000000 0.805290 0.463095
0.000034 0.803616 0.462118
0.000819 0.800268 0.460165
0.000000 0.798651 0.456480
0.000000 0.799627 0.457456
0.156440 0.804109 0.460539
0.272567 0.809165 0.464016
0.360929 0.817167 0.473746
0.447920 0.826203 0.481747
0.530805 0.836995 0.491476
0.617796 0.845694 0.501207
0.697360 0.855230 0.508985
0.768516 0.865633 0.508641
0.827752 0.869646 0.503946
0.872915 0.873663 0.484739
0.910062 0.875194 0.465085
0.938221 0.873598 0.442280
0.946445 0.860099 0.430254
0.944905 0.835154 0.417114
0.934967 0.802098 0.382093
0.924253 0.759043 0.357765
0.916068 0.727890 0.359755
0.913340 0.717282 0.361570
0.911981 0.706984 0.358196
0.906907 0.696095 0.359034
0.904177 0.686495 0.355661
0.900473 0.675247 0.354770
0.899114 0.664277 0.354856
0.894432 0.651715 0.354719
0.000166 0.861476 0.549324
0.000166 0.861476 0.549324
0.000000 0.859162 0.545640
0.000000 0.856175 0.545418
0.000367 0.856486 0.540226
0.000000 0.853836 0.538273
0.000000 0.851858 0.532860
0.000000 0.846531 0.525493
0.023250 0.848993 0.527360
0.187277 0.852975 0.530665
0.284831 0.858777 0.536180
0.380621 0.866614 0.544401
0.461945 0.874115 0.549473
0.543853 0.883594 0.559957
0.623417 0.893131 0.567734
0.700049 0.899736 0.572581
0.770621 0.907154 0.572016
0.829858 0.911165 0.567320
0.875020 0.914174 0.553305
0.907869 0.914146 0.527261
0.933098 0.911300 0.492874
0.953051 0.903230 0.464965
0.950916 0.887637 0.448054
0.948398 0.861716 0.433937
0.941975 0.832224 0.414184
0.935561 0.798795 0.354716
0.931071 0.790893 0.355777
0.931664 0.782212 0.356086
0.926590 0.770989 0.358656
0.924445 0.763703 0.358965
0.924064 0.753710 0.360028
0.920942 0.745111 0.361089
0.920559 0.735118 0.362153
0.092797 0.897302 0.610178
0.106288 0.896999 0.610625
0.084783 0.895152 0.608004
0.093582 0.894290 0.606496
0.066019 0.892583 0.601923
0.056243 0.892804 0.600722
0.048229 0.890654 0.598548
0.038261 0.886887 0.592688
0.111380 0.887913 0.592651
0.223210 0.890401 0.594931
0.307271 0.896506 0.600000
0.389964 0.902637 0.608531
0.472658 0.909105 0.615332
0.548899 0.917049 0.622887
0.624161 0.924353 0.627735
0.699426 0.931320 0.634313
0.766676 0.936475 0.636984
0.822591 0.938894 0.632067
0.868144 0.939893 0.618804
0.901970 0.939831 0.598928
0.927200 0.937323 0.562813
0.951451 0.934509 0.522258
0.952640 0.922189 0.496919
0.953634 0.904872 0.472110
0.950332 0.884651 0.447832
0.948016 0.853067 0.428078
0.944894 0.845813 0.422218
0.942751 0.839535 0.417336
0.942951 0.834209 0.409968
0.939830 0.826283 0.407570
0.940032 0.820620 0.401934
0.938672 0.812003 0.389906
0.936337 0.804425 0.366519
0.185648 0.908501 0.643074
0.185648 0.908501 0.643074
0.185648 0.908501 0.643074
0.192101 0.907024 0.642320
0.192101 0.907024 0.642320
0.183303 0.908222 0.642098
0.191124 0.906047 0.641343
0.179981 0.906966 0.640145
0.177635 0.906686 0.639168
0.262090 0.911454 0.641530
0.326601 0.917331 0.647665
0.399127 0.925694 0.654242
0.465592 0.934195 0.658866
0.535186 0.938620 0.667706
0.615142 0.945809 0.677968
0.684738 0.950906 0.683348
0.750036 0.953771 0.685798
0.809271 0.957446 0.682832
0.858542 0.956683 0.677469
0.895689 0.957877 0.659546
0.920134 0.956700 0.635766
0.942040 0.953607 0.594235
0.956909 0.947660 0.560155
0.953013 0.936456 0.533839
0.955378 0.919450 0.503841
0.953443 0.900548 0.469181
0.950131 0.890313 0.453468
0.949356 0.883675 0.446856
0.949556 0.877340 0.444679
0.950735 0.872654 0.440020
0.946828 0.868747 0.436113
0.948398 0.861716 0.433937
0.945862 0.857112 0.430031
0.214191 0.910513 0.652086
0.214191 0.910513 0.652086
0.214191 0.910513 0.652086
0.213214 0.909200 0.652840
0.213214 0.909200 0.652840
0.213214 0.909200 0.652840
0.213214 0.909200 0.652840
0.213214 0.909200 0.652840
0.201092 0.909479 0.648934
0.246839 0.912113 0.652446
0.317410 0.917514 0.662262
0.384268 0.923333 0.671102
0.452685 0.933116 0.681140
0.521496 0.940552 0.693664
0.596368 0.948522 0.704680
0.667917 0.954899 0.715473
0.735751 0.962032 0.723559
0.794594 0.967044 0.723301
0.838971 0.972057 0.718160
0.880811 0.972130 0.710844
0.909944 0.971175 0.690745
0.938497 0.967905 0.666965
0.955318 0.965928 0.624457
0.956697 0.958605 0.598585
0.957886 0.946957 0.569785
0.956142 0.933051 0.534593
0.953424 0.917496 0.501887
0.954209 0.915157 0.494742
0.954018 0.911505 0.488352
0.953826 0.907852 0.481961
0.955004 0.903838 0.473839
0.952466 0.899571 0.468204
0.952276 0.895582 0.463543
0.244099 0.911492 0.662828
0.244099 0.911492 0.662828
0.244099 0.911492 0.662828
0.243122 0.910515 0.661851
0.243122 0.910515 0.661851
0.234325 0.912049 0.659898
0.234325 0.912049 0.659898
0.232372 0.910096 0.657945
0.232372 0.910096 0.657945
0.240778 0.910908 0.657414
0.304313 0.915136 0.666032
0.366085 0.921735 0.675625
0.428835 0.929310 0.686196
0.494909 0.938140 0.698718
0.563719 0.945578 0.711243
0.633899 0.952317 0.723766
0.706424 0.958662 0.740727
0.761161 0.964423 0.747390
0.817265 0.969824 0.752324
0.862620 0.975477 0.749891
0.898982 0.979011 0.739113
0.924986 0.981461 0.718262
0.948061 0.980981 0.694481
0.961953 0.975402 0.652503
0.959618 0.967488 0.630848
0.954744 0.955979 0.600094
0.959064 0.942607 0.563394
0.957502 0.939988 0.555272
0.955943 0.937369 0.547153
0.958095 0.934332 0.540007
0.955559 0.930736 0.530909
0.954974 0.929094 0.523766
0.955176 0.923768 0.516399
0.250745 0.912994 0.671926
0.250745 0.912994 0.671926
0.250745 0.912994 0.671926
0.250745 0.912994 0.671926
0.250745 0.912994 0.671926
0.250745 0.912994 0.671926
0.250745 0.912994 0.671926
0.250745 0.913331 0.670195
0.250745 0.913331 0.670195
0.249768 0.912354 0.669218
0.295513 0.915325 0.671000
0.350250 0.920750 0.679394
0.403616 0.926537 0.689520
0.466367 0.934113 0.700090
0.532832 0.940934 0.713367
0.600274 0.948395 0.729352
0.667715 0.955521 0.747066
0.731834 0.962063 0.759367
0.785202 0.968522 0.766030
0.831924 0.972470 0.768790
0.874932 0.977508 0.767109
0.907580 0.981124 0.757087
0.935930 0.982844 0.742402
0.954503 0.986802 0.716136
0.962527 0.982998 0.688980
0.961561 0.975059 0.663864
0.958641 0.965839 0.633332
0.958258 0.958871 0.618820
0.957674 0.957565 0.609946
0.957482 0.954585 0.600094
0.956899 0.953614 0.589489
0.958077 0.948928 0.584827
0.957492 0.947286 0.577684
0.250745 0.912994 0.671926
0.250745 0.912994 0.671926
0.250745 0.912994 0.671926
0.250745 0.912994 0.671926
0.250745 0.912994 0.671926
0.250745 0.912994 0.671926
0.250745 0.912994 0.671926
0.250745 0.912994 0.671926
0.250745 0.912994 0.671926
0.250745 0.912994 0.671926
0.281047 0.914316 0.671310
0.335390 0.920743 0.684141
0.383090 0.924995 0.691335
0.445840 0.932570 0.701906
0.503898 0.938579 0.715715
0.566648 0.945146 0.731476
0.630767 0.951352 0.745508
0.696840 0.959175 0.763222
0.755875 0.965825 0.779739
0.803967 0.968739 0.784227
0.844236 0.974500 0.786008
0.883922 0.977945 0.784105
0.915201 0.982260 0.774083
0.939837 0.984062 0.760153
0.961149 0.986624 0.733887
0.967018 0.986867 0.708684
0.965457 0.984919 0.697102
0.962145 0.976030 0.674468
0.961561 0.975059 0.663864
0.961369 0.971407 0.657473
0.958047 0.971160 0.650328
0.958832 0.968148 0.646644
0.962356 0.964413 0.639501
0.250745 0.912994 0.671926
0.250745 0.912994 0.671926
0.250745 0.912994 0.671926
0.250745 0.912994 0.671926
0.250745 0.912994 0.671926
0.250745 0.912994 0.671926
0.250745 0.912994 0.671926
0.250745 0.912994 0.671926
0.250745 0.912994 0.671926
0.250745 0.912994 0.671926
0.259151 0.914143 0.669664
0.318971 0.918452 0.679035
0.371361 0.923263 0.688183
0.428444 0.928967 0.697555
0.487087 0.937627 0.713316
0.548858 0.943554 0.726371
0.606918 0.949226 0.741911
0.675336 0.957329 0.760602
0.733395 0.962665 0.777871
0.783047 0.968198 0.790481
0.826054 0.971892 0.795722
0.863002 0.976060 0.797280
0.897604 0.979613 0.799593
0.922823 0.983394 0.791077
0.951172 0.985115 0.776394
0.967794 0.986784 0.749907
0.968578 0.987468 0.727187
0.967018 0.986867 0.708684
0.965065 0.985250 0.705000
0.965065 0.985586 0.703270
0.964088 0.985281 0.698833
0.965457 0.984919 0.697102
0.963504 0.983303 0.693417
0.250745 0.912994 0.671926
0.250745 0.912994 0.671926
0.250745 0.912994 0.671926
0.250745 0.912994 0.671926
0.250745 0.912994 0.671926
0.250745 0.912994 0.671926
0.250745 0.912994 0.671926
0.250745 0.912994 0.671926
0.250745 0.912994 0.671926
0.250745 0.912994 0.671926
0.250745 0.912994 0.671926
0.304897 0.916442 0.674907
0.354550 0.921974 0.687516
0.412607 0.928992 0.696133
0.468714 0.933384 0.706259
0.528724 0.941346 0.722020
0.588736 0.949308 0.737781
0.651878 0.954201 0.752566
0.715605 0.961409 0.771035
0.768973 0.966187 0.786351
0.812957 0.970520 0.794301
0.850881 0.975667 0.796837
0.885482 0.979220 0.799148
0.914416 0.981911 0.795071
