lut/fujifilm/F-log2/F-Log2_LUT_E_Ver.1.05/GFX100II/GFX100II_FLog2_FGamut_to_FLog2_BT.709_33grid_V.1.00.cube
#title:FLog2_FGamut_to_FLog2_BT.709
#FUJIFILM Corporation
#Gamma:F-Log2 to F-Log2
#Gamut:F-Gamut to ITU-R BT.709
#Version:1.00
LUT_3D_SIZE 33
0.000000 0.000000 0.000000
0.052854 0.000000 0.000241
0.103864 0.000000 0.000347
0.144633 0.000000 0.000000
0.183907 0.000000 0.000000
0.223178 0.000000 0.000000
0.262447 0.000000 0.000000
0.301715 0.000000 0.000000
0.340982 0.000000 0.000000
0.380248 0.000000 0.000000
0.419514 0.000000 0.000000
0.458779 0.000000 0.000000
0.498044 0.000000 0.000000
0.537309 0.000000 0.000000
0.576573 0.000000 0.000000
0.615837 0.000000 0.000000
0.655102 0.000000 0.000000
0.694366 0.000000 0.000000
0.733629 0.000000 0.000000
0.772893 0.000000 0.000000
0.812157 0.000000 0.000000
0.851421 0.000000 0.000000
0.890684 0.000000 0.000000
0.929948 0.000000 0.000000
0.969211 0.000000 0.000000
1.000000 0.000000 0.000000
1.000000 0.000000 0.000000
1.000000 0.000000 0.000000
1.000000 0.000000 0.000000
1.000000 0.000000 0.000000
1.000000 0.000000 0.000000
1.000000 0.000000 0.000000
1.000000 0.000000 0.000000
0.000000 0.034961 0.000000
0.034637 0.031155 0.000000
0.087092 0.027005 0.000000
0.131701 0.022939 0.000000
0.173234 0.018260 0.000000
0.214126 0.012716 0.000000
0.254613 0.006282 0.000000
0.294827 0.000000 0.000000
0.334849 0.000000 0.000000
0.374732 0.000000 0.000000
0.414509 0.000000 0.000000
0.454205 0.000000 0.000000
0.493838 0.000000 0.000000
0.533420 0.000000 0.000000
0.572960 0.000000 0.000000
0.612467 0.000000 0.000000
0.651945 0.000000 0.000000
0.691400 0.000000 0.000000
0.730834 0.000000 0.000000
0.770251 0.000000 0.000000
0.809654 0.000000 0.000000
0.849044 0.000000 0.000000
0.888422 0.000000 0.000000
0.927791 0.000000 0.000000
0.967151 0.000000 0.000000
1.000000 0.000000 0.000000
1.000000 0.000000 0.000000
1.000000 0.000000 0.000000
1.000000 0.000000 0.000000
1.000000 0.000000 0.000000
1.000000 0.000000 0.000000
1.000000 0.000000 0.000000
1.000000 0.000000 0.000000
0.000000 0.070102 0.000000
0.017279 0.066209 0.000000
0.069172 0.062317 0.000000
0.117588 0.058345 0.000000
0.161842 0.053666 0.000000
0.204591 0.048122 0.000000
0.246430 0.041687 0.000000
0.287675 0.034339 0.000000
0.328509 0.026057 0.000000
0.369046 0.016820 0.000000
0.409363 0.006611 0.000000
0.449511 0.000000 0.000000
0.489527 0.000000 0.000000
0.529439 0.000000 0.000000
0.569265 0.000000 0.000000
0.609022 0.000000 0.000000
0.648721 0.000000 0.000000
0.688372 0.000000 0.000000
0.727982 0.000000 0.000000
0.767558 0.000000 0.000000
0.807103 0.000000 0.000000
0.846622 0.000000 0.000000
0.886118 0.000000 0.000000
0.925594 0.000000 0.000000
0.965054 0.000000 0.000000
1.000000 0.000000 0.000000
1.000000 0.000000 0.000000
1.000000 0.000000 0.000000
1.000000 0.000000 0.000000
1.000000 0.000000 0.000000
1.000000 0.000000 0.000000
1.000000 0.000000 0.000000
1.000000 0.000000 0.000000
0.000000 0.104255 0.000000
0.000000 0.100859 0.000000
0.050516 0.097391 0.000000
0.101998 0.093773 0.000000
0.149612 0.089402 0.000000
0.194515 0.084058 0.000000
0.237869 0.077653 0.000000
0.280241 0.070305 0.000000
0.321948 0.062023 0.000000
0.363183 0.052786 0.000000
0.404069 0.042577 0.000000
0.444691 0.031378 0.000000
0.485108 0.019174 0.000000
0.525363 0.005948 0.000000
0.565486 0.000000 0.000000
0.605502 0.000000 0.000000
0.645430 0.000000 0.000000
0.685283 0.000000 0.000000
0.725073 0.000000 0.000000
0.764810 0.000000 0.000000
0.804502 0.000000 0.000000
0.844153 0.000000 0.000000
0.883770 0.000000 0.000000
0.923357 0.000000 0.000000
0.962918 0.000000 0.000000
1.000000 0.000000 0.000000
1.000000 0.000000 0.000000
1.000000 0.000000 0.000000
1.000000 0.000000 0.000000
1.000000 0.000000 0.000000
1.000000 0.000000 0.000000
1.000000 0.000000 0.000000
1.000000 0.000000 0.000000
0.000000 0.137335 0.000000
0.000000 0.134518 0.000000
0.028652 0.131659 0.000000
0.081603 0.128696 0.000000
0.134270 0.125144 0.000000
0.182141 0.120845 0.000000
0.227483 0.115723 0.000000
0.271294 0.109685 0.000000
0.314096 0.102613 0.000000
0.356193 0.094351 0.000000
0.397777 0.084687 0.000000
0.438976 0.073531 0.000000
0.479877 0.061326 0.000000
0.520544 0.048100 0.000000
0.561023 0.033839 0.000000
0.601349 0.018528 0.000000
0.641549 0.002154 0.000000
0.681643 0.000000 0.000000
0.721648 0.000000 0.000000
0.761577 0.000000 0.000000
0.801442 0.000000 0.000000
0.841251 0.000000 0.000000
0.881010 0.000000 0.000000
0.920728 0.000000 0.000000
0.960407 0.000000 0.000000
1.000000 0.000000 0.000000
1.000000 0.000000 0.000000
1.000000 0.000000 0.000000
1.000000 0.000000 0.000000
1.000000 0.000000 0.000000
1.000000 0.000000 0.000000
1.000000 0.000000 0.000000
1.000000 0.000000 0.000000
0.000000 0.170408 0.000000
0.000000 0.168012 0.000000
0.002713 0.165589 0.000000
0.055667 0.163089 0.000000
0.114298 0.160105 0.000000
0.166538 0.156515 0.000000
0.214614 0.152269 0.000000
0.260326 0.147311 0.000000
0.304537 0.141572 0.000000
0.347726 0.134968 0.000000
0.390184 0.127394 0.000000
0.432097 0.118712 0.000000
0.473595 0.108743 0.000000
0.514767 0.097234 0.000000
0.555680 0.083821 0.000000
0.596383 0.068535 0.000000
0.636912 0.052161 0.000000
0.677297 0.034711 0.000000
0.717561 0.016174 0.000000
0.757722 0.000000 0.000000
0.797795 0.000000 0.000000
0.837792 0.000000 0.000000
0.877724 0.000000 0.000000
0.917597 0.000000 0.000000
0.957420 0.000000 0.000000
0.997198 0.000000 0.000000
1.000000 0.000000 0.000000
1.000000 0.000000 0.000000
1.000000 0.000000 0.000000
1.000000 0.000000 0.000000
1.000000 0.000000 0.000000
1.000000 0.000000 0.000000
1.000000 0.000000 0.000000
0.000000 0.203478 0.000000
0.000000 0.201400 0.000000
0.000000 0.199305 0.000000
0.025534 0.197148 0.000000
0.087767 0.194582 0.000000
0.146875 0.191506 0.000000
0.198803 0.187885 0.000000
0.247047 0.183681 0.000000
0.293074 0.178849 0.000000
0.337638 0.173336 0.000000
0.381178 0.167079 0.000000
0.423967 0.160003 0.000000
0.466190 0.152012 0.000000
0.507972 0.142987 0.000000
0.549406 0.132770 0.000000
0.590558 0.121150 0.000000
0.631480 0.107833 0.000000
0.672211 0.092381 0.000000
0.712782 0.074268 0.000000
0.753217 0.054631 0.000000
0.793536 0.033884 0.000000
0.833755 0.012014 0.000000
0.873888 0.000000 0.000000
0.913946 0.000000 0.000000
0.953936 0.000000 0.000000
0.993869 0.000000 0.000000
1.000000 0.000000 0.000000
1.000000 0.000000 0.000000
1.000000 0.000000 0.000000
1.000000 0.000000 0.000000
1.000000 0.000000 0.000000
1.000000 0.000000 0.000000
1.000000 0.000000 0.000000
0.000000 0.236545 0.000000
0.000000 0.234716 0.000000
0.000000 0.232874 0.000000
0.000000 0.230982 0.000000
0.053477 0.228737 0.000000
0.121745 0.226051 0.000000
0.179376 0.222900 0.000000
0.231066 0.219255 0.000000
0.279451 0.215084 0.000000
0.325749 0.210351 0.000000
0.370626 0.205015 0.000000
0.414482 0.199027 0.000000
0.457579 0.192330 0.000000
0.500090 0.184853 0.000000
0.542143 0.176511 0.000000
0.583827 0.167197 0.000000
0.625212 0.156776 0.000000
0.666348 0.145067 0.000000
0.707278 0.131825 0.000000
0.748032 0.116704 0.000000
0.788638 0.099176 0.000000
0.829116 0.078406 0.000000
0.869482 0.055404 0.000000
0.909753 0.031260 0.000000
0.949938 0.005963 0.000000
0.990049 0.000000 0.000000
1.000000 0.000000 0.000000
1.000000 0.000000 0.000000
1.000000 0.000000 0.000000
1.000000 0.000000 0.000000
1.000000 0.000000 0.000000
1.000000 0.000000 0.000000
1.000000 0.000000 0.000000
0.000000 0.269609 0.000000
0.000000 0.267980 0.000000
0.000000 0.266341 0.000000
0.000000 0.264660 0.000000
0.014635 0.262667 0.000000
0.088372 0.260288 0.000000
0.155259 0.257503 0.000000
0.211825 0.254290 0.000000
0.263328 0.250625 0.000000
0.311831 0.246481 0.000000
0.358366 0.241829 0.000000
0.403521 0.236635 0.000000
0.447667 0.230861 0.000000
0.491046 0.224461 0.000000
0.533829 0.217382 0.000000
0.576137 0.209560 0.000000
0.618061 0.200918 0.000000
0.659669 0.191360 0.000000
0.701014 0.180766 0.000000
0.742138 0.168982 0.000000
0.783073 0.155802 0.000000
0.823848 0.140943 0.000000
0.864483 0.123994 0.000000
0.904998 0.104320 0.000000
0.945406 0.080846 0.000000
0.985721 0.054387 0.000000
1.000000 0.026756 0.000000
1.000000 0.000000 0.000000
1.000000 0.000000 0.000000
1.000000 0.000000 0.000000
1.000000 0.000000 0.000000
1.000000 0.000000 0.000000
1.000000 0.000000 0.000000
0.000000 0.302673 0.000000
0.000000 0.301206 0.000000
0.000000 0.299733 0.000000
0.000000 0.298223 0.000000
0.000000 0.296435 0.000000
0.045208 0.294303 0.000000
0.124535 0.291811 0.000000
0.188476 0.288942 0.000000
0.244237 0.285676 0.000000
0.295590 0.281994 0.000000
0.344194 0.277873 0.000000
0.390936 0.273288 0.000000
0.436342 0.268211 0.000000
0.480750 0.262611 0.000000
0.524392 0.256452 0.000000
0.567428 0.249690 0.000000
0.609978 0.242278 0.000000
0.652130 0.234155 0.000000
0.693953 0.225253 0.000000
0.735500 0.215485 0.000000
0.776814 0.204745 0.000000
0.817927 0.192898 0.000000
0.858868 0.179769 0.000000
0.899660 0.165121 0.000000
0.940320 0.148628 0.000000
0.980867 0.129803 0.000000
1.000000 0.107880 0.000000
1.000000 0.081496 0.000000
1.000000 0.051498 0.000000
1.000000 0.020300 0.000000
1.000000 0.000000 0.000000
1.000000 0.000000 0.000000
1.000000 0.000000 0.000000
0.000000 0.335735 0.000000
0.000000 0.334404 0.000000
0.000000 0.333068 0.000000
0.000000 0.331699 0.000000
0.000000 0.330080 0.000000
0.000000 0.328152 0.000000
0.083053 0.325901 0.000000
0.159614 0.323312 0.000000
0.221491 0.320371 0.000000
0.276622 0.317060 0.000000
0.327850 0.313364 0.000000
0.376543 0.309262 0.000000
0.423468 0.304733 0.000000
0.469099 0.299754 0.000000
0.513749 0.294299 0.000000
0.557633 0.288338 0.000000
0.600907 0.281836 0.000000
0.643685 0.274754 0.000000
0.686056 0.267048 0.000000
0.728085 0.258661 0.000000
0.769827 0.249531 0.000000
0.811325 0.239581 0.000000
0.852611 0.228714 0.000000
0.893716 0.216813 0.000000
0.934661 0.203726 0.000000
0.975468 0.189255 0.000000
1.000000 0.173130 0.000000
1.000000 0.154969 0.000000
1.000000 0.134198 0.000000
1.000000 0.109880 0.000000
1.000000 0.080286 0.000000
1.000000 0.046666 0.000000
1.000000 0.013208 0.000000
0.000000 0.368797 0.000000
0.000000 0.367580 0.000000
0.000000 0.366359 0.000000
0.000000 0.365110 0.000000
0.000000 0.363632 0.000000
0.000000 0.361874 0.000000
0.030478 0.359824 0.000000
0.122562 0.357468 0.000000
0.194014 0.354795 0.000000
0.254362 0.351791 0.000000
0.308987 0.348442 0.000000
0.360110 0.344733 0.000000
0.408879 0.340647 0.000000
0.455968 0.336167 0.000000
0.501804 0.331271 0.000000
0.546675 0.325938 0.000000
0.590784 0.320143 0.000000
0.634281 0.313858 0.000000
0.677276 0.307050 0.000000
0.719854 0.299684 0.000000
0.762081 0.291715 0.000000
0.804012 0.283095 0.000000
0.845687 0.273764 0.000000
0.887143 0.263653 0.000000
0.928408 0.252676 0.000000
0.969505 0.240728 0.000000
1.000000 0.227678 0.000000
1.000000 0.213355 0.000000
1.000000 0.197534 0.000000
1.000000 0.179906 0.000000
1.000000 0.160027 0.000000
1.000000 0.137213 0.000000
1.000000 0.111461 0.000000
0.000000 0.401857 0.000000
0.000000 0.400738 0.000000
0.000000 0.399616 0.000000
0.000000 0.398468 0.000000
0.000000 0.397111 0.000000
0.000000 0.395497 0.000000
0.000000 0.393616 0.000000
0.071108 0.391458 0.000000
0.159936 0.389010 0.000000
0.227960 0.386263 0.000000
0.287128 0.383205 0.000000
0.341335 0.379822 0.000000
0.392369 0.376103 0.000000
0.441207 0.372031 0.000000
0.488442 0.367592 0.000000
0.534464 0.362768 0.000000
0.579539 0.357539 0.000000
0.623858 0.351886 0.000000
0.667564 0.345784 0.000000
0.710763 0.339207 0.000000
0.753538 0.332124 0.000000
0.795956 0.324500 0.000000
0.838068 0.316297 0.000000
0.879916 0.307468 0.000000
0.921537 0.297959 0.000000
0.962957 0.287706 0.000000
1.000000 0.276632 0.000000
1.000000 0.264643 0.000000
1.000000 0.251624 0.000000
1.000000 0.237427 0.000000
1.000000 0.221862 0.000000
1.000000 0.204674 0.000000
1.000000 0.186298 0.000000
0.000000 0.434918 0.000000
0.000000 0.433883 0.000000
0.000000 0.432846 0.000000
0.000000 0.431784 0.000000
0.000000 0.430531 0.000000
0.000000 0.429041 0.000000
0.000000 0.427306 0.000000
0.008963 0.425316 0.000000
0.115381 0.423061 0.000000
0.196032 0.420532 0.000000
0.261584 0.417720 0.000000
0.319812 0.414613 0.000000
0.373671 0.411201 0.000000
0.424628 0.407472 0.000000
0.473526 0.403413 0.000000
0.520894 0.399009 0.000000
0.567085 0.394247 0.000000
0.612348 0.389110 0.000000
0.656864 0.383579 0.000000
0.700766 0.377634 0.000000
0.744159 0.371253 0.000000
0.787123 0.364410 0.000000
0.829722 0.357078 0.000000
0.872008 0.349223 0.000000
0.914024 0.340808 0.000000
0.955804 0.331791 0.000000
0.997377 0.322122 0.000000
1.000000 0.311743 0.000000
1.000000 0.300583 0.000000
1.000000 0.288558 0.000000
1.000000 0.275566 0.000000
1.000000 0.261478 0.000000
1.000000 0.246757 0.000000
0.000000 0.467978 0.000000
0.000000 0.467016 0.000000
0.000000 0.466053 0.000000
0.000000 0.465067 0.000000
0.000000 0.463904 0.000000
0.000000 0.462522 0.000000
0.000000 0.460912 0.000000
0.000000 0.459067 0.000000
0.052354 0.456979 0.000000
0.156023 0.454638 0.000000
0.231291 0.452037 0.000000
0.294971 0.449167 0.000000
0.352434 0.446017 0.000000
0.405996 0.442579 0.000000
0.456887 0.438841 0.000000
0.505839 0.434793 0.000000
0.553326 0.430421 0.000000
0.599674 0.425714 0.000000
0.645111 0.420656 0.000000
0.689809 0.415231 0.000000
0.733897 0.409423 0.000000
0.777473 0.403211 0.000000
0.820616 0.396575 0.000000
0.863390 0.389490 0.000000
0.905844 0.381930 0.000000
0.948022 0.373865 0.000000
0.989957 0.365259 0.000000
1.000000 0.356072 0.000000
1.000000 0.346259 0.000000
1.000000 0.335766 0.000000
1.000000 0.324529 0.000000
1.000000 0.312473 0.000000
1.000000 0.300030 0.000000
0.000000 0.501037 0.000000
0.000000 0.500140 0.000000
0.000000 0.499241 0.000000
0.000000 0.498323 0.000000
0.000000 0.497238 0.000000
0.000000 0.495950 0.000000
0.000000 0.494450 0.000000
0.000000 0.492732 0.000000
0.000000 0.490789 0.000000
0.102039 0.488612 0.000000
0.194438 0.486194 0.000000
0.265967 0.483528 0.000000
0.328179 0.480605 0.000000
0.385005 0.477417 0.000000
0.438313 0.473956 0.000000
0.489145 0.470211 0.000000
0.538146 0.466172 0.000000
0.585743 0.461829 0.000000
0.632233 0.457169 0.000000
0.677833 0.452181 0.000000
0.722702 0.446850 0.000000
0.766964 0.441161 0.000000
0.810714 0.435097 0.000000
0.854028 0.428640 0.000000
0.896969 0.421770 0.000000
0.939585 0.414464 0.000000
0.981919 0.406696 0.000000
1.000000 0.398438 0.000000
1.000000 0.389658 0.000000
1.000000 0.380317 0.000000
1.000000 0.370374 0.000000
1.000000 0.359778 0.000000
1.000000 0.348928 0.000000
0.000000 0.534096 0.000000
0.000000 0.533256 0.000000
0.000000 0.532415 0.000000
0.000000 0.531555 0.000000
0.000000 0.530540 0.000000
0.000000 0.529334 0.000000
0.000000 0.527932 0.000000
0.000000 0.526326 0.000000
0.000000 0.524509 0.000000
0.026530 0.522476 0.000000
0.147428 0.520219 0.000000
0.231451 0.517731 0.000000
0.300219 0.515006 0.000000
0.361247 0.512036 0.000000
0.417537 0.508814 0.000000
0.470623 0.505332 0.000000
0.521403 0.501580 0.000000
0.570448 0.497550 0.000000
0.618145 0.493232 0.000000
0.664768 0.488615 0.000000
0.710518 0.483689 0.000000
0.755548 0.478441 0.000000
0.799974 0.472857 0.000000
0.843889 0.466923 0.000000
0.887367 0.460624 0.000000
0.930468 0.453941 0.000000
0.973239 0.446856 0.000000
1.000000 0.439345 0.000000
1.000000 0.431387 0.000000
1.000000 0.422953 0.000000
1.000000 0.414012 0.000000
1.000000 0.404531 0.000000
1.000000 0.394874 0.000000
0.000000 0.567155 0.000000
0.000000 0.566366 0.000000
0.000000 0.565575 0.000000
0.000000 0.564768 0.000000
0.000000 0.563814 0.000000
0.000000 0.562683 0.000000
0.000000 0.561366 0.000000
0.000000 0.559859 0.000000
0.000000 0.558155 0.000000
0.000000 0.556249 0.000000
0.080577 0.554133 0.000000
0.188999 0.551803 0.000000
0.267511 0.549252 0.000000
0.334152 0.546474 0.000000
0.394205 0.543462 0.000000
0.450035 0.540209 0.000000
0.502928 0.536707 0.000000
0.553661 0.532949 0.000000
0.602746 0.528927 0.000000
0.650535 0.524631 0.000000
0.697280 0.520053 0.000000
0.743171 0.515183 0.000000
0.788352 0.510008 0.000000
0.832934 0.504518 0.000000
0.877006 0.498700 0.000000
0.920639 0.492540 0.000000
0.963893 0.486022 0.000000
1.000000 0.479130 0.000000
1.000000 0.471845 0.000000
1.000000 0.464146 0.000000
1.000000 0.456012 0.000000
1.000000 0.447415 0.000000
1.000000 0.438693 0.000000
0.000000 0.600214 0.000000
0.000000 0.599470 0.000000
0.000000 0.598725 0.000000
0.000000 0.597964 0.000000
0.000000 0.597066 0.000000
0.000000 0.596000 0.000000
0.000000 0.594761 0.000000
0.000000 0.593342 0.000000
0.000000 0.591738 0.000000
0.000000 0.589945 0.000000
0.000000 0.587956 0.000000
0.133319 0.585765 0.000000
0.228313 0.583369 0.000000
0.302889 0.580760 0.000000
0.367838 0.577933 0.000000
0.427073 0.574882 0.000000
0.482506 0.571600 0.000000
0.535227 0.568082 0.000000
0.585919 0.564318 0.000000
0.635041 0.560303 0.000000
0.682913 0.556028 0.000000
0.729773 0.551485 0.000000
0.775796 0.546664 0.000000
0.821118 0.541556 0.000000
0.865847 0.536150 0.000000
0.910069 0.530435 0.000000
0.953851 0.524399 0.000000
0.997252 0.518027 0.000000
1.000000 0.511306 0.000000
1.000000 0.504220 0.000000
1.000000 0.496750 0.000000
1.000000 0.488877 0.000000
1.000000 0.480912 0.000000
0.000000 0.633273 0.000000
0.000000 0.632570 0.000000
0.000000 0.631866 0.000000
0.000000 0.631146 0.000000
0.000000 0.630298 0.000000
0.000000 0.629291 0.000000
0.000000 0.628121 0.000000
0.000000 0.626781 0.000000
0.000000 0.625268 0.000000
0.000000 0.623575 0.000000
0.000000 0.621699 0.000000
0.050314 0.619634 0.000000
0.179289 0.617375 0.000000
0.266146 0.614917 0.000000
0.337758 0.612256 0.000000
0.401328 0.609384 0.000000
0.459869 0.606298 0.000000
0.514955 0.602990 0.000000
0.567522 0.599456 0.000000
0.618177 0.595687 0.000000
0.667332 0.591679 0.000000
0.715283 0.587422 0.000000
0.762248 0.582910 0.000000
0.808394 0.578134 0.000000
0.853851 0.573086 0.000000
0.898720 0.567756 0.000000
0.943083 0.562134 0.000000
0.987007 0.556209 0.000000
1.000000 0.549968 0.000000
1.000000 0.543400 0.000000
1.000000 0.536490 0.000000
1.000000 0.529222 0.000000
1.000000 0.521885 0.000000
0.000000 0.666331 0.000000
0.000000 0.665665 0.000000
0.000000 0.664998 0.000000
0.000000 0.664317 0.000000
0.000000 0.663513 0.000000
0.000000 0.662560 0.000000
0.000000 0.661452 0.000000
0.000000 0.660184 0.000000
0.000000 0.658751 0.000000
0.000000 0.657150 0.000000
0.000000 0.655375 0.000000
0.000000 0.653423 0.000000
0.112139 0.651288 0.000000
0.221635 0.648965 0.000000
0.302944 0.646451 0.000000
0.372237 0.643741 0.000000
0.434662 0.640829 0.000000
0.492603 0.637710 0.000000
0.547383 0.634378 0.000000
0.599814 0.630829 0.000000
0.650435 0.627057 0.000000
0.699620 0.623054 0.000000
0.747643 0.618814 0.000000
0.794708 0.614331 0.000000
0.840970 0.609596 0.000000
0.886553 0.604602 0.000000
0.931554 0.599341 0.000000
0.976052 0.593802 0.000000
1.000000 0.587977 0.000000
1.000000 0.581854 0.000000
1.000000 0.575423 0.000000
1.000000 0.568670 0.000000
1.000000 0.561866 0.000000
0.000000 0.699389 0.000000
0.000000 0.698757 0.000000
0.000000 0.698124 0.000000
0.000000 0.697477 0.000000
0.000000 0.696714 0.000000
0.000000 0.695809 0.000000
0.000000 0.694757 0.000000
0.000000 0.693554 0.000000
0.000000 0.692195 0.000000
0.000000 0.690677 0.000000
0.000000 0.688994 0.000000
0.000000 0.687142 0.000000
0.012511 0.685119 0.000000
0.164581 0.682919 0.000000
0.261729 0.680538 0.000000
0.338982 0.677972 0.000000
0.406409 0.675217 0.000000
0.467866 0.672267 0.000000
0.525287 0.669118 0.000000
0.579795 0.665765 0.000000
0.632103 0.662203 0.000000
0.682692 0.658426 0.000000
0.731906 0.654428 0.000000
0.779997 0.650204 0.000000
0.827154 0.645747 0.000000
0.873525 0.641050 0.000000
0.919227 0.636105 0.000000
0.964354 0.630906 0.000000
1.000000 0.625444 0.000000
1.000000 0.619709 0.000000
1.000000 0.613693 0.000000
1.000000 0.607385 0.000000
1.000000 0.601039 0.000000
0.000000 0.732448 0.000000
0.000000 0.731846 0.000000
0.000000 0.731243 0.000000
0.000000 0.730628 0.000000
0.000000 0.729902 0.000000
0.000000 0.729041 0.000000
0.000000 0.728041 0.000000
0.000000 0.726897 0.000000
0.000000 0.725605 0.000000
0.000000 0.724161 0.000000
0.000000 0.722561 0.000000
0.000000 0.720802 0.000000
0.000000 0.718880 0.000000
0.080594 0.716791 0.000000
0.211020 0.714531 0.000000
0.300297 0.712096 0.000000
0.374443 0.709482 0.000000
0.440335 0.706684 0.000000
0.500964 0.703700 0.000000
0.557928 0.700523 0.000000
0.612193 0.697150 0.000000
0.664388 0.693576 0.000000
0.714950 0.689795 0.000000
0.764190 0.685802 0.000000
0.812343 0.681592 0.000000
0.859587 0.677159 0.000000
0.906061 0.672496 0.000000
0.951876 0.667597 0.000000
0.997123 0.662455 0.000000
1.000000 0.657062 0.000000
1.000000 0.651410 0.000000
1.000000 0.645491 0.000000
1.000000 0.639542 0.000000
0.000000 0.765506 0.000000
0.000000 0.764932 0.000000
0.000000 0.764357 0.000000
0.000000 0.763771 0.000000
0.000000 0.763079 0.000000
0.000000 0.762259 0.000000
0.000000 0.761305 0.000000
0.000000 0.760215 0.000000
0.000000 0.758984 0.000000
0.000000 0.757608 0.000000
0.000000 0.756085 0.000000
0.000000 0.754410 0.000000
0.000000 0.752580 0.000000
0.000000 0.750592 0.000000
0.143610 0.748441 0.000000
0.254021 0.746125 0.000000
0.337771 0.743640 0.000000
0.409455 0.740981 0.000000
0.474061 0.738145 0.000000
0.533972 0.735128 0.000000
0.590532 0.731926 0.000000
0.644578 0.728534 0.000000
0.696672 0.724949 0.000000
0.747207 0.721164 0.000000
0.796472 0.717176 0.000000
0.844683 0.712979 0.000000
0.892009 0.708568 0.000000
0.938580 0.703937 0.000000
0.984503 0.699079 0.000000
1.000000 0.693989 0.000000
1.000000 0.688660 0.000000
1.000000 0.683083 0.000000
1.000000 0.677485 0.000000
0.000000 0.798564 0.000000
0.000000 0.798015 0.000000
0.000000 0.797467 0.000000
0.000000 0.796907 0.000000
0.000000 0.796246 0.000000
0.000000 0.795463 0.000000
0.000000 0.794552 0.000000
0.000000 0.793511 0.000000
0.000000 0.792336 0.000000
0.000000 0.791024 0.000000
0.000000 0.789570 0.000000
0.000000 0.787972 0.000000
0.000000 0.786227 0.000000
0.000000 0.784331 0.000000
0.038032 0.782280 0.000000
0.195832 0.780072 0.000000
0.294799 0.777704 0.000000
0.374425 0.775171 0.000000
0.444108 0.772471 0.000000
0.507621 0.769599 0.000000
0.566905 0.766552 0.000000
0.623104 0.763326 0.000000
0.676953 0.759917 0.000000
0.728953 0.756321 0.000000
0.779465 0.752533 0.000000
0.828752 0.748549 0.000000
0.877018 0.744365 0.000000
0.924420 0.739974 0.000000
0.971083 0.735372 0.000000
1.000000 0.730552 0.000000
1.000000 0.725511 0.000000
1.000000 0.720240 0.000000
1.000000 0.714952 0.000000
0.000000 0.831621 0.000000
0.000000 0.831097 0.000000
0.000000 0.830572 0.000000
0.000000 0.830036 0.000000
0.000000 0.829404 0.000000
0.000000 0.828655 0.000000
0.000000 0.827784 0.000000
0.000000 0.826789 0.000000
0.000000 0.825665 0.000000
0.000000 0.824410 0.000000
0.000000 0.823021 0.000000
0.000000 0.821494 0.000000
0.000000 0.819826 0.000000
0.000000 0.818014 0.000000
0.000000 0.816056 0.000000
0.113943 0.813947 0.000000
0.242656 0.811686 0.000000
0.334026 0.809269 0.000000
0.410448 0.806692 0.000000
0.478470 0.803953 0.000000
0.541041 0.801047 0.000000
0.599773 0.797972 0.000000
0.655648 0.794724 0.000000
0.709318 0.791299 0.000000
0.761233 0.787693 0.000000
0.811722 0.783902 0.000000
0.861031 0.779922 0.000000
0.909348 0.775749 0.000000
0.956823 0.771377 0.000000
1.000000 0.766802 0.000000
1.000000 0.762018 0.000000
1.000000 0.757021 0.000000
1.000000 0.752012 0.000000
0.000000 0.864679 0.000000
0.000000 0.864177 0.000000
0.000000 0.863674 0.000000
0.000000 0.863160 0.000000
0.000000 0.862555 0.000000
0.000000 0.861837 0.000000
0.000000 0.861003 0.000000
0.000000 0.860050 0.000000
0.000000 0.858974 0.000000
0.000000 0.857772 0.000000
0.000000 0.856441 0.000000
0.000000 0.854979 0.000000
0.000000 0.853383 0.000000
0.000000 0.851649 0.000000
0.000000 0.849775 0.000000
0.000000 0.847758 0.000000
0.175021 0.845595 0.000000
0.286219 0.843284 0.000000
0.372118 0.840821 0.000000
0.445972 0.838203 0.000000
0.512592 0.835427 0.000000
0.574345 0.832490 0.000000
0.632585 0.829389 0.000000
0.688169 0.826120 0.000000
0.741674 0.822680 0.000000
