lut/fujifilm/F-log2/F-Log2_LUT_E_Ver.1.05/GFX100II/GFX100II_FLog2_FGamut_to_ETERNA_BT.709_33grid_V.1.00.cube
#title:FLog2_FGamut_to_ETERNA_BT.709
#FUJIFILM Corporation
#Gamma:F-Log2 to ETERNA
#Gamut:F-Gamut to ITU-R BT.709
#Version:1.00
LUT_3D_SIZE 9
0.006836 0.006836 0.006836
0.026387 0.006393 0.009234
0.134107 0.009965 0.016704
0.263141 0.010050 0.029055
0.519244 0.012878 0.088058
0.916301 0.019494 0.177609
0.992934 0.023411 0.196302
0.992934 0.023411 0.196302
0.992934 0.023411 0.196302
0.000373 0.019980 0.007503
0.020508 0.023197 0.006663
0.143087 0.026103 0.012848
0.306733 0.016730 0.034520
0.650422 0.016551 0.119136
0.992934 0.023411 0.196302
0.992934 0.023411 0.196302
0.992934 0.023411 0.196302
0.992934 0.023411 0.196302
0.000467 0.141984 0.004382
0.000000 0.149993 0.007536
0.149626 0.159978 0.000234
0.366436 0.168103 0.006519
0.709733 0.170944 0.085192
0.996781 0.102026 0.175465
0.992934 0.023411 0.196302
0.992934 0.023411 0.196302
0.992934 0.023411 0.196302
0.000000 0.363022 0.000044
0.000070 0.382671 0.000000
0.000000 0.377675 0.000180
0.358438 0.381296 0.000536
0.711117 0.401384 0.000050
0.998510 0.390808 0.080264
0.999383 0.272710 0.129270
0.998627 0.239376 0.140133
0.999825 0.208667 0.149489
0.000000 0.773689 0.000720
0.000000 0.762021 0.000805
0.000000 0.748680 0.000000
0.196846 0.736596 0.000000
0.671150 0.731582 0.023688
0.968920 0.720939 0.000000
0.995051 0.568016 0.000000
0.996067 0.522661 0.000000
1.000000 0.480189 0.026773
0.000127 0.970990 0.225383
0.000520 0.969989 0.220945
0.000000 0.968682 0.212069
0.000000 0.972658 0.235987
0.522723 0.961548 0.256817
0.853162 0.939251 0.181683
0.956682 0.860215 0.000192
0.963385 0.793731 0.000000
0.966535 0.766992 0.000348
0.000000 0.969209 0.304145
0.000000 0.969209 0.304145
0.000000 0.969209 0.304145
0.000499 0.971478 0.333254
0.225708 0.978977 0.406410
0.662067 0.990137 0.438016
0.936180 0.999838 0.320151
0.948925 0.974026 0.231179
0.947967 0.955429 0.200957
0.000000 0.969209 0.304145
0.000000 0.969209 0.304145
0.000000 0.969209 0.304145
0.000308 0.969171 0.319941
0.000098 0.975746 0.380866
0.551799 0.986235 0.464625
0.830000 0.998024 0.445227
0.945763 0.999661 0.295926
0.945763 0.999661 0.295926
0.000000 0.969209 0.304145
0.000000 0.969209 0.304145
0.000000 0.969209 0.304145
0.000000 0.969209 0.304145
0.000300 0.973108 0.359657
0.443495 0.982366 0.443090
0.749451 0.994138 0.462345
0.949861 0.999827 0.344293
0.945763 0.999661 0.295926
0.006836 0.006164 0.010297
0.029708 0.006977 0.014648
0.140953 0.006478 0.016704
0.273893 0.010469 0.032961
0.564991 0.013832 0.100223
0.970060 0.022934 0.190218
0.992934 0.023411 0.196302
0.992934 0.023411 0.196302
0.992934 0.023411 0.196302
0.000172 0.022955 0.026984
0.029297 0.029297 0.029297
0.155601 0.023143 0.020968
0.323746 0.010004 0.041665
0.698906 0.016783 0.127840
0.992934 0.023411 0.196302
0.992934 0.023411 0.196302
0.992934 0.023411 0.196302
0.992934 0.023411 0.196302
0.000457 0.145922 0.044098
0.000256 0.153938 0.037621
0.159591 0.160385 0.023399
0.371329 0.161655 0.009758
0.722840 0.158967 0.095352
0.995451 0.053702 0.187922
0.992934 0.023411 0.196302
0.992934 0.023411 0.196302
0.992934 0.023411 0.196302
0.000000 0.382279 0.046062
0.000070 0.379983 0.013491
0.000000 0.366008 0.000265
0.363531 0.368849 0.000000
0.719342 0.385532 0.000137
0.999114 0.367436 0.096234
0.998809 0.256712 0.136055
1.000000 0.223657 0.147895
0.999643 0.191331 0.153567
0.000000 0.771621 0.046156
0.000000 0.754374 0.000000
0.000362 0.735003 0.000754
0.198617 0.722221 0.000597
0.670383 0.716637 0.000000
0.972454 0.704193 0.000000
0.993702 0.545380 0.000000
0.999600 0.501882 0.019457
1.000000 0.461510 0.037774
0.000318 0.968258 0.264652
0.000127 0.969982 0.230574
0.000000 0.970363 0.203417
0.000000 0.964986 0.231104
0.534854 0.952963 0.243503
0.861971 0.929412 0.166419
0.958061 0.847851 0.000277
0.965157 0.779693 0.000000
0.968700 0.750943 0.000212
0.000000 0.968194 0.318964
0.000000 0.969209 0.304145
0.000000 0.969209 0.304145
0.000499 0.971142 0.334984
0.245650 0.978876 0.397449
0.669889 0.990650 0.423418
0.944787 0.999358 0.291488
0.947565 0.965072 0.220882
0.949347 0.945080 0.190660
0.000000 0.967865 0.311067
0.000000 0.969209 0.304145
0.000000 0.969209 0.304145
0.000308 0.969171 0.319941
0.000098 0.975410 0.382598
0.555514 0.985817 0.465602
0.833715 0.997941 0.444473
0.945763 0.999661 0.295926
0.945763 0.999661 0.295926
0.000000 0.968201 0.309336
0.000000 0.969209 0.304145
0.000000 0.969209 0.304145
0.000000 0.969209 0.304145
0.000000 0.974142 0.357926
0.450531 0.983203 0.446019
0.755905 0.992660 0.461590
0.947517 0.999884 0.341585
0.945763 0.999661 0.295926
0.003686 0.014419 0.104547
0.033011 0.013419 0.109875
0.159507 0.007221 0.126973
0.305353 0.009939 0.133071
0.621880 0.013867 0.113586
0.992934 0.023411 0.196302
0.992934 0.023411 0.196302
0.992934 0.023411 0.196302
0.992934 0.023411 0.196302
0.000000 0.038159 0.122656
0.016754 0.047094 0.124746
0.173552 0.040536 0.149879
0.371033 0.016411 0.167335
0.749736 0.016622 0.140981
0.992934 0.023411 0.196302
0.992934 0.023411 0.196302
0.992934 0.023411 0.196302
0.992934 0.023411 0.196302
0.000418 0.169738 0.161426
0.000026 0.173093 0.153750
0.173828 0.173828 0.173828
0.406877 0.169933 0.173723
0.744927 0.163800 0.098196
0.991756 0.029442 0.194040
0.992934 0.023411 0.196302
0.992934 0.023411 0.196302
0.992934 0.023411 0.196302
0.000000 0.427356 0.218285
0.000000 0.402398 0.182426
0.000232 0.387719 0.178827
0.382459 0.378146 0.176475
0.738289 0.382584 0.119813
0.998540 0.352447 0.097829
0.999211 0.242362 0.140355
0.999825 0.208667 0.149489
1.000000 0.176981 0.157866
0.000000 0.773212 0.303121
0.000695 0.754602 0.250180
0.000000 0.732022 0.205669
0.218340 0.713813 0.189183
0.685031 0.703727 0.156402
0.978333 0.688061 0.000000
0.997044 0.523638 0.000000
0.999810 0.481528 0.029480
0.999447 0.443159 0.056673
0.000300 0.965042 0.401187
0.000499 0.966101 0.360942
0.000000 0.963870 0.316035
0.000127 0.955867 0.303254
0.543653 0.943027 0.288718
0.869602 0.919553 0.180040
0.958463 0.834509 0.000000
0.966535 0.766992 0.000348
0.971839 0.736207 0.000000
0.000300 0.966723 0.392536
0.000000 0.968442 0.368086
0.000499 0.967781 0.352289
0.000691 0.970762 0.362140
0.267155 0.978371 0.412184
0.684748 0.991329 0.415211
0.945965 1.000000 0.257410
0.948943 0.955060 0.208856
0.949748 0.935099 0.172465
0.000000 0.966754 0.386367
0.000000 0.968778 0.366356
0.000000 0.967142 0.349582
0.000108 0.970800 0.346343
0.000681 0.976380 0.393203
0.563920 0.986292 0.466800
0.837431 0.997859 0.443719
0.945763 0.999661 0.295926
0.945763 0.999661 0.295926
0.000691 0.967401 0.379446
0.000108 0.968111 0.360187
0.000000 0.968150 0.344390
0.000000 0.968188 0.328594
0.000000 0.973101 0.369285
0.454247 0.982785 0.446996
0.756882 0.993973 0.460835
0.947517 0.999884 0.341585
0.945763 0.999661 0.295926
0.002680 0.029289 0.201949
0.016170 0.029321 0.200665
0.176482 0.029351 0.225488
0.362798 0.023429 0.272723
0.706892 0.013607 0.337415
0.992934 0.023411 0.196302
0.992934 0.023411 0.196302
0.992934 0.023411 0.196302
0.992934 0.023411 0.196302
0.000000 0.066306 0.233286
0.000486 0.072274 0.243359
0.195984 0.074474 0.293214
0.441747 0.051538 0.349238
0.809910 0.016525 0.403410
0.992934 0.023411 0.196302
0.992934 0.023411 0.196302
0.992934 0.023411 0.196302
0.992934 0.023411 0.196302
0.000551 0.208778 0.345539
0.000350 0.213770 0.354637
0.176699 0.208113 0.375245
0.454910 0.202185 0.387082
0.804881 0.185642 0.402429
1.000000 0.150482 0.259520
0.992934 0.023411 0.196302
0.992934 0.023411 0.196302
0.992934 0.023411 0.196302
0.000679 0.493554 0.489332
0.000518 0.462630 0.443398
0.001131 0.434983 0.421382
0.415039 0.415039 0.415039
0.778500 0.403569 0.403144
0.999669 0.368121 0.288282
0.999585 0.265367 0.132285
1.000000 0.213663 0.148957
0.998877 0.170336 0.160883
0.000234 0.782159 0.537813
0.000000 0.764240 0.494501
0.000283 0.739282 0.458641
0.208515 0.721960 0.447125
0.703758 0.703226 0.418250
0.991391 0.678969 0.294169
0.995474 0.531005 0.000250
0.999419 0.482866 0.032188
0.999648 0.436152 0.057956
0.000280 0.960147 0.546375
0.000000 0.956875 0.512828
0.000000 0.949614 0.474622
0.000000 0.939622 0.475684
0.549109 0.928285 0.470246
0.882287 0.904595 0.395113
0.972900 0.818093 0.268774
0.976694 0.752903 0.123348
0.973219 0.723842 0.000000
0.000088 0.963888 0.501915
0.000000 0.963292 0.473782
0.000681 0.965290 0.450308
0.000000 0.968334 0.447824
0.236056 0.978286 0.485616
0.692359 0.991362 0.497879
0.950446 0.999116 0.363551
0.956172 0.943754 0.299507
0.954440 0.923559 0.236714
0.000481 0.963222 0.495746
0.000290 0.962931 0.472051
0.000000 0.965322 0.444142
0.000000 0.967002 0.435489
0.000000 0.974965 0.464067
0.569971 0.985386 0.532695
0.841135 0.996673 0.508637
0.949470 0.999820 0.353922
0.947908 1.000000 0.330226
0.000000 0.962918 0.491309
0.000290 0.964611 0.463398
0.000098 0.964655 0.437973
0.000000 0.966038 0.415254
0.000000 0.972664 0.441124
0.443877 0.981268 0.499132
0.757263 0.993548 0.513418
0.951614 1.000000 0.389954
0.948302 0.999225 0.325789
0.000074 0.074092 0.363567
0.000276 0.069774 0.351009
0.198119 0.074271 0.391457
0.443651 0.084269 0.492660
0.814725 0.060733 0.625730
0.998936 0.023037 0.559407
0.999720 0.043214 0.436319
1.000000 0.019937 0.391809
0.995653 0.019810 0.327645
0.000000 0.114325 0.431156
0.000600 0.123894 0.482676
0.217985 0.130877 0.570429
0.545244 0.132682 0.687926
0.890925 0.093501 0.745421
0.999682 0.059300 0.593448
0.999902 0.056853 0.451277
0.998965 0.019962 0.395270
0.996045 0.019816 0.318016
0.000040 0.291647 0.648316
0.000414 0.304906 0.690431
0.106393 0.287849 0.697317
0.519314 0.270867 0.729711
0.869295 0.240304 0.757259
0.999163 0.206599 0.624457
0.999996 0.177850 0.453347
0.999662 0.123635 0.382160
0.996830 0.019829 0.298757
0.000763 0.573455 0.762999
0.000006 0.547850 0.734062
0.000238 0.513571 0.695804
0.417076 0.489163 0.730462
0.813980 0.459909 0.739554
0.999178 0.415556 0.653528
0.999447 0.361158 0.478907
1.000000 0.324248 0.409809
0.999355 0.268727 0.329747
0.000000 0.789165 0.751293
0.000014 0.775868 0.724977
0.000000 0.756605 0.688586
0.000244 0.737893 0.705753
0.714844 0.714844 0.714844
1.000000 0.676863 0.659003
0.998879 0.568137 0.502562
0.999712 0.522584 0.417975
0.999571 0.475719 0.334144
0.000078 0.936236 0.704293
0.000000 0.933293 0.678644
0.000000 0.925666 0.648336
0.000000 0.918652 0.659251
0.525240 0.908830 0.675863
0.885781 0.885451 0.647280
0.992221 0.804206 0.555156
0.994243 0.744654 0.453883
0.992521 0.715479 0.377333
0.000855 0.957325 0.636497
0.000000 0.957400 0.604903
0.000471 0.959766 0.573531
0.000000 0.963450 0.573753
0.130662 0.973796 0.605278
0.696055 0.988401 0.631931
0.961762 0.991242 0.545747
0.969251 0.931156 0.492840
0.967518 0.909280 0.438700
0.000000 0.957692 0.628597
0.000078 0.957072 0.597004
0.000000 0.959462 0.569094
0.000000 0.962487 0.553520
0.000855 0.970096 0.570738
0.553733 0.982620 0.615227
0.840531 0.996521 0.613801
0.960785 0.999675 0.496317
0.957272 0.999808 0.462015
0.000270 0.957364 0.620700
0.000078 0.958752 0.588351
0.000000 0.959132 0.561196
0.000280 0.961828 0.537723
0.000000 0.968827 0.546065
0.420210 0.977995 0.586632
0.759791 0.991671 0.610684
0.960977 0.999967 0.520013
0.957665 0.999814 0.452386
0.000000 0.137374 0.612426
0.000000 0.133391 0.598137
0.212086 0.149843 0.676708
0.537363 0.180663 0.812757
0.907822 0.189141 0.945347
1.000000 0.197886 0.845700
0.999746 0.185724 0.747543
1.000000 0.173106 0.708137
0.999201 0.153544 0.657679
0.001085 0.196166 0.726036
0.000270 0.221409 0.795219
0.102486 0.247984 0.878571
0.588287 0.268900 0.995824
0.938076 0.238045 0.999676
0.999505 0.210834 0.893004
0.999535 0.198348 0.777320
0.999756 0.178090 0.726863
0.999784 0.155523 0.663093
0.000861 0.427881 0.912680
0.000842 0.447854 0.929812
0.000861 0.423848 0.933446
0.482604 0.399609 0.994024
0.890470 0.353781 0.999743
1.000000 0.289442 0.923774
0.999687 0.249343 0.779907
0.998951 0.205444 0.725184
1.000000 0.160189 0.654664
0.000121 0.615602 0.890317
0.000000 0.604936 0.894839
0.001116 0.591900 0.898387
0.228699 0.568708 0.952011
0.800191 0.534490 0.991345
0.999875 0.461089 0.939790
1.000000 0.400021 0.764723
0.999801 0.361455 0.707739
0.999648 0.322560 0.642854
0.000000 0.760351 0.849263
0.000206 0.756332 0.850770
0.000405 0.749325 0.852054
0.000607 0.735597 0.887949
0.648723 0.720323 0.928582
0.993246 0.676273 0.919960
0.999978 0.606378 0.756785
0.999816 0.576125 0.707391
0.999856 0.539876 0.654090
0.000290 0.896725 0.812954
0.000290 0.896389 0.814685
0.000000 0.888406 0.814992
0.000000 0.881772 0.798750
0.392291 0.879874 0.848140
0.860352 0.860352 0.860352
0.998636 0.802685 0.794595
1.000000 0.756759 0.727535
0.998914 0.725530 0.677163
0.000834 0.951086 0.788607
0.000000 0.951497 0.755281
0.000451 0.952855 0.729101
0.000000 0.954567 0.714282
0.000240 0.966487 0.753688
0.661232 0.984606 0.785632
0.968195 0.971426 0.759398
0.987996 0.915724 0.711598
0.989194 0.895096 0.669040
0.000000 0.951453 0.780707
0.000000 0.953178 0.746628
0.000844 0.953197 0.717743
0.000653 0.954586 0.685394
0.000249 0.965238 0.700128
0.494869 0.978761 0.729523
0.838166 0.992354 0.752820
0.971901 0.999479 0.673766
0.968779 0.998946 0.633297
0.000249 0.951459 0.771079
0.000059 0.952848 0.738731
0.000000 0.955575 0.709090
0.000000 0.956964 0.676742
0.000000 0.961289 0.679672
0.326935 0.973898 0.706738
0.762118 0.989743 0.743004
0.973854 0.999752 0.684372
0.967803 0.999650 0.623669
0.000000 0.231003 0.850200
0.001239 0.225987 0.837641
0.001189 0.268863 0.916813
0.537800 0.322026 1.000000
0.908470 0.338044 0.999297
1.000000 0.319314 1.000000
1.000000 0.305338 0.987098
1.000000 0.291705 0.962511
1.000000 0.274750 0.939434
0.000154 0.330496 0.953391
0.000518 0.365169 0.945236
0.000699 0.382505 0.941156
0.384638 0.416799 0.999696
0.840961 0.408892 1.000000
0.999379 0.341671 0.999175
1.000000 0.322300 1.000000
1.000000 0.304000 0.984390
1.000000 0.281053 0.947778
0.000420 0.486546 0.920148
0.000228 0.481213 0.922410
0.000000 0.473231 0.922720
0.000620 0.472146 0.959504
0.741970 0.484449 0.999089
1.000000 0.384656 0.998610
0.999561 0.358335 0.998559
0.999397 0.320353 0.988965
1.000000 0.278738 0.944095
0.000331 0.595920 0.896879
0.000926 0.586903 0.898919
0.000000 0.575597 0.900735
0.000000 0.563594 0.902550
0.617742 0.580904 0.999586
0.996092 0.531079 1.000000
1.000000 0.468978 0.999961
0.999311 0.431743 0.955313
1.000000 0.392443 0.914125
0.000000 0.733662 0.857109
0.000000 0.721323 0.860655
0.000244 0.707310 0.863227
0.000645 0.692960 0.867528
0.411203 0.688614 0.952418
0.895280 0.679011 1.000000
0.999738 0.619389 0.964542
1.000000 0.591116 0.920563
0.999998 0.559855 0.876359
0.000893 0.874697 0.822001
0.000000 0.862052 0.821109
0.000000 0.846390 0.826165
0.000146 0.830031 0.831218
0.000338 0.823938 0.887792
0.765346 0.824297 0.978231
0.999400 0.788728 0.967246
0.999630 0.760499 0.897839
0.999852 0.737887 0.859497
0.000441 0.950743 0.799965
0.000441 0.950743 0.799965
0.000441 0.950743 0.799965
0.000441 0.950743 0.799965
0.000000 0.952030 0.837727
0.549012 0.956571 0.924500
0.942383 0.942383 0.942383
0.999313 0.907176 0.897254
0.999724 0.888553 0.863570
0.000441 0.950743 0.799965
0.000441 0.950743 0.799965
0.000441 0.950743 0.799965
0.000441 0.950743 0.799965
0.000240 0.954052 0.817714
0.320071 0.970473 0.862309
0.808821 0.989803 0.885758
0.986338 0.999866 0.856629
0.980479 1.000000 0.819621
0.000441 0.950743 0.799965
0.000441 0.950743 0.799965
0.000441 0.950743 0.799965
0.000441 0.950743 0.799965
0.000000 0.951111 0.792067
0.000000 0.966379 0.833426
0.711660 0.984679 0.867152
0.987315 0.999835 0.862798
0.980870 1.000000 0.809992
0.000727 0.345823 0.950067
0.001111 0.356152 0.947274
0.000306 0.384516 0.940402
0.275338 0.433270 0.987395
0.811002 0.464233 0.999226
0.999541 0.381334 1.000000
0.999732 0.386330 0.999586
0.999732 0.386330 0.999586
0.999732 0.386330 0.999586
0.000478 0.413517 0.936238
0.000478 0.413517 0.936238
0.000000 0.410531 0.936015
0.288436 0.434978 0.987086
0.774639 0.462716 0.999621
1.000000 0.392303 1.000000
0.999732 0.386330 0.999586
0.999732 0.386330 0.999586
0.999732 0.386330 0.999586
0.000811 0.484200 0.922632
0.001013 0.477529 0.922187
0.000238 0.469209 0.924227
0.000037 0.469496 0.957551
0.705789 0.499259 1.000000
1.000000 0.459319 0.999293
0.999914 0.402658 1.000000
1.000000 0.389317 0.999808
0.999732 0.386330 0.999586
0.001116 0.592236 0.896656
0.000000 0.580929 0.898472
0.000744 0.569567 0.902996
0.000000 0.556588 0.903836
0.601322 0.577606 0.999672
0.953840 0.557696 0.999977
1.000000 0.489325 0.999566
1.000000 0.475648 1.000000
0.999472 0.463004 0.999515
0.000034 0.726656 0.858395
0.000042 0.714317 0.861941
0.000446 0.699968 0.866243
0.000264 0.682631 0.870320
0.393030 0.676693 0.950105
0.847381 0.680086 1.000000
1.000000 0.618641 0.999598
1.000000 0.598990 0.999993
0.999959 0.582326 1.000000
0.000116 0.866714 0.822308
0.000000 0.856384 0.825101
0.000000 0.837711 0.826473
0.000000 0.821712 0.833257
0.000000 0.809620 0.885926
0.722549 0.801594 0.976090
1.000000 0.781645 1.000000
0.999822 0.745668 0.999406
1.000000 0.726994 1.000000
0.000441 0.950743 0.799965
0.000441 0.950743 0.799965
0.000441 0.950743 0.799965
0.000000 0.948092 0.798012
0.000643 0.937687 0.832399
0.503285 0.930602 0.921161
0.898992 0.918950 0.988386
0.999504 0.892008 1.000000
0.999714 0.873671 1.000000
0.000441 0.950743 0.799965
0.000441 0.950743 0.799965
0.000441 0.950743 0.799965
0.000441 0.950743 0.799965
0.000441 0.950743 0.799965
0.000000 0.966963 0.880816
0.749575 0.986032 0.949203
1.000000 1.000000 1.000000
0.997070 0.999423 0.984957
0.000441 0.950743 0.799965
0.000441 0.950743 0.799965
0.000441 0.950743 0.799965
0.000441 0.950743 0.799965
0.000441 0.950743 0.799965
0.000814 0.960977 0.857653
0.626802 0.980146 0.933169
0.954646 0.997035 0.988590
0.996094 0.999455 0.978789
0.000096 0.403525 0.937301
0.000288 0.408522 0.936770
0.000000 0.410531 0.936015
0.348256 0.439623 0.994727
0.828599 0.461839 0.999672
1.000000 0.382646 0.999364
0.999732 0.386330 0.999586
0.999732 0.386330 0.999586
0.999732 0.386330 0.999586
0.000086 0.415864 0.933755
0.000000 0.410531 0.936015
0.000000 0.410531 0.936015
0.314631 0.437382 0.991661
0.789105 0.463724 0.999313
0.999934 0.379659 0.999140
0.999732 0.386330 0.999586
0.999732 0.386330 0.999586
0.999732 0.386330 0.999586
0.000621 0.479540 0.921434
0.000000 0.472895 0.924450
0.000047 0.464213 0.924759
0.000429 0.466813 0.961766
0.717720 0.494992 0.999845
1.000000 0.445643 1.000000
1.000000 0.396323 0.998524
0.999732 0.386330 0.999586
0.999732 0.386330 0.999586
0.000926 0.586903 0.898919
0.000000 0.575597 0.900735
0.000000 0.561584 0.903304
0.000000 0.549245 0.906851
0.606607 0.569820 1.000000
0.957756 0.550943 0.998777
1.000000 0.482654 0.999120
1.000000 0.468978 0.999961
0.999673 0.456333 0.999071
0.000000 0.721323 0.860655
0.000244 0.707310 0.863227
0.000000 0.691649 0.868281
0.000464 0.674953 0.875066
0.405745 0.668070 0.952589
0.850320 0.672020 0.999769
1.000000 0.608984 0.998929
1.000000 0.590310 1.000000
0.999576 0.572669 0.999942
0.000000 0.862052 0.821109
0.000328 0.847367 0.827142
0.000000 0.831706 0.832195
0.000000 0.812696 0.835298
0.000357 0.800267 0.889696
0.730179 0.794086 0.977597
1.000000 0.771989 0.999457
1.000000 0.736986 0.999715
0.999650 0.717336 1.000000
0.000441 0.950743 0.799965
0.000441 0.950743 0.799965
0.000441 0.950743 0.799965
0.001035 0.941726 0.802003
0.000000 0.929704 0.832706
0.516977 0.923292 0.922890
0.904277 0.910492 0.992379
0.999121 0.882351 0.999884
0.999333 0.864013 0.999524
0.000441 0.950743 0.799965
0.000441 0.950743 0.799965
0.000441 0.950743 0.799965
0.000441 0.950743 0.799965
0.000441 0.950743 0.799965
0.000804 0.967603 0.883524
0.750551 0.986672 0.951910
1.000000 1.000000 1.000000
0.996094 0.995758 0.997825
0.000441 0.950743 0.799965
0.000441 0.950743 0.799965
0.000441 0.950743 0.799965
0.000441 0.950743 0.799965
0.000441 0.950743 0.799965
0.000422 0.962987 0.856899
0.630518 0.980063 0.932413
0.959338 0.997931 0.988813
1.000000 1.000000 1.000000
