lut/fujifilm/F-log2/F-Log2_LUT_E_Ver.1.05/GFX100II/GFX100II_FLog2_FGamut_to_FLog2_BT.709_33grid_V.1.00.cube
#title:FLog2_FGamut_to_FLog2_BT.709
#FUJIFILM Corporation
#Gamma:F-Log2 to F-Log2
#Gamut:F-Gamut to ITU-R BT.709
#Version:1.00
LUT_3D_SIZE 5
0.000000 0.000000 0.000000
0.340982 0.000000 0.000000
0.655102 0.000000 0.000000
0.969211 0.000000 0.000000
1.000000 0.000000 0.000000
0.000000 0.269609 0.000000
0.263328 0.250625 0.000000
0.618061 0.200918 0.000000
0.945406 0.080846 0.000000
1.000000 0.000000 0.000000
0.000000 0.534096 0.000000
0.000000 0.524509 0.000000
0.521403 0.501580 0.000000
0.887367 0.460624 0.000000
1.000000 0.394874 0.000000
0.000000 0.798564 0.000000
0.000000 0.792336 0.000000
0.294799 0.777704 0.000000
0.779465 0.752533 0.000000
1.000000 0.714952 0.000000
0.000000 1.000000 0.000000
0.000000 1.000000 0.000000
0.000000 1.000000 0.000000
0.587592 1.000000 0.000000
1.000000 1.000000 0.000000
0.000000 0.000000 0.269508
0.332204 0.000000 0.266815
0.650595 0.000000 0.260482
0.966272 0.000000 0.249572
1.000000 0.000000 0.233238
0.000000 0.268373 0.254381
0.250015 0.250015 0.250015
0.613266 0.199326 0.244867
0.942385 0.077891 0.233326
1.000000 0.000000 0.215953
0.000000 0.533459 0.215759
0.000000 0.523860 0.212489
0.515672 0.500900 0.204747
0.884127 0.459883 0.191226
1.000000 0.394010 0.170480
0.000000 0.798148 0.133217
0.000000 0.791917 0.128446
0.284713 0.777276 0.116896
0.775729 0.752090 0.095677
1.000000 0.714483 0.060892
0.000000 1.000000 0.000000
0.000000 1.000000 0.000000
0.000000 1.000000 0.000000
0.582534 1.000000 0.000000
1.000000 1.000000 0.000000
0.000000 0.000000 0.532474
0.310988 0.000000 0.531083
0.640030 0.000000 0.527848
0.959428 0.000000 0.522389
1.000000 0.000000 0.514496
0.000000 0.265491 0.524777
0.224340 0.246227 0.523366
0.602009 0.195598 0.520081
0.935346 0.071049 0.514538
1.000000 0.000000 0.506519
0.000000 0.531979 0.506433
0.000000 0.522352 0.504968
0.500031 0.500031 0.500031
0.876571 0.458161 0.495805
1.000000 0.392002 0.487473
0.000000 0.797183 0.474075
0.000000 0.790944 0.472509
0.260012 0.776283 0.468861
0.767002 0.751061 0.462694
1.000000 0.713396 0.453747
0.000000 1.000000 0.423259
0.000000 1.000000 0.421504
0.000000 1.000000 0.417412
0.570641 1.000000 0.410475
1.000000 1.000000 0.400371
0.000000 0.000000 0.795437
0.272140 0.000000 0.794529
0.621933 0.000000 0.792421
0.947856 0.000000 0.788881
1.000000 0.000000 0.783800
0.000000 0.260606 0.790427
0.169880 0.241002 0.789513
0.582668 0.189231 0.787391
0.923441 0.059603 0.783826
1.000000 0.000000 0.778708
0.000000 0.529495 0.778653
0.000000 0.519820 0.777724
0.478640 0.496669 0.775566
0.863770 0.455267 0.771943
1.000000 0.388621 0.766739
0.000000 0.795567 0.758482
0.000000 0.789314 0.757525
0.213272 0.774620 0.755306
0.750046 0.750046 0.750046
1.000000 0.711574 0.746218
0.000000 1.000000 0.728453
0.000000 1.000000 0.727454
0.000000 1.000000 0.725135
0.550150 1.000000 0.721237
1.000000 1.000000 0.715634
0.000000 0.000000 1.000000
0.206110 0.000000 1.000000
0.595126 0.000000 1.000000
0.931082 0.000000 1.000000
1.000000 0.000000 1.000000
0.000000 0.253498 1.000000
0.054983 0.233378 1.000000
0.553873 0.179844 1.000000
0.906167 0.043285 1.000000
1.000000 0.000000 1.000000
0.000000 0.525932 1.000000
0.000000 0.516189 1.000000
0.442955 0.492863 1.000000
0.845151 0.451108 1.000000
1.000000 0.383750 1.000000
0.000000 0.793256 1.000000
0.000000 0.786984 1.000000
0.125867 0.772241 1.000000
0.730432 0.746871 1.000000
1.000000 0.708966 1.000000
0.000000 1.000000 1.000000
0.000000 1.000000 1.000000
0.000000 1.000000 1.000000
0.519487 1.000000 1.000000
1.000000 1.000000 1.000000
