lut/fujifilm/F-log2/F-Log2_LUT_E_Ver.1.05/GFX100II/GFX100II_FLog2_FGamut_to_ETERNA-BB_BT.709_33gird_V.1.00.cube
#title:FLog2_FGamut_to_ETERNA-BB_BT.709
#FUJIFILM Corporation
#Gamma:F-Log2 to ETERNA BLEACH BYPASS
#Gamut:F-Gamut to ITU-R BT.709
#Version:1.00
LUT_3D_SIZE 9
0.000000 0.000000 0.000000
0.010752 0.000419 0.003906
0.051998 0.006484 0.010126
0.133523 0.006978 0.016479
0.366946 0.013317 0.074063
0.624408 0.023080 0.153745
0.652557 0.026430 0.165464
0.652557 0.026430 0.165464
0.652557 0.026430 0.165464
0.000000 0.010995 0.003375
0.014065 0.013341 0.005774
0.070563 0.017068 0.009731
0.181998 0.019213 0.023366
0.477203 0.017123 0.107933
0.652557 0.026430 0.165464
0.652557 0.026430 0.165464
0.652557 0.026430 0.165464
0.652557 0.026430 0.165464
0.000000 0.082628 0.029262
0.002851 0.089882 0.035121
0.096097 0.103439 0.046273
0.256992 0.114858 0.028058
0.547870 0.140496 0.135395
0.692517 0.159472 0.206548
0.677899 0.110494 0.188695
0.657430 0.043653 0.166801
0.651581 0.026127 0.161028
0.000000 0.288846 0.107231
0.000110 0.312814 0.119395
0.091219 0.308426 0.125749
0.309187 0.326127 0.173926
0.627610 0.389240 0.221637
0.813877 0.436278 0.296129
0.742848 0.284282 0.245675
0.725672 0.251683 0.235859
0.712010 0.226008 0.224004
0.000283 0.750036 0.403265
0.000000 0.737734 0.391016
0.041165 0.728486 0.381301
0.431960 0.753675 0.408777
0.764275 0.803481 0.454312
0.937294 0.819662 0.414048
0.898530 0.660618 0.358095
0.879612 0.607391 0.347696
0.860693 0.555173 0.332106
0.185648 0.908501 0.643074
0.192101 0.907024 0.642320
0.177635 0.906686 0.639168
0.465592 0.934195 0.658866
0.750036 0.953771 0.685798
0.920134 0.956700 0.635766
0.955378 0.919450 0.503841
0.949556 0.877340 0.444679
0.945862 0.857112 0.430031
0.250745 0.912994 0.671926
0.250745 0.912994 0.671926
0.250745 0.912994 0.671926
0.383090 0.924995 0.691335
0.630767 0.951352 0.745508
0.844236 0.974500 0.786008
0.961149 0.986624 0.733887
0.961561 0.975059 0.663864
0.962356 0.964413 0.639501
0.250745 0.912994 0.671926
0.250745 0.912994 0.671926
0.250745 0.912994 0.671926
0.319948 0.919429 0.680012
0.554919 0.943414 0.728324
0.786762 0.968116 0.789726
0.927906 0.982279 0.792054
0.967602 0.987500 0.721019
0.967602 0.987500 0.721019
0.250745 0.912994 0.671926
0.250745 0.912994 0.671926
0.250745 0.912994 0.671926
0.250745 0.912994 0.671926
0.474381 0.934918 0.709188
0.726357 0.961828 0.774941
0.891543 0.979416 0.799371
0.969162 0.987767 0.741255
0.967602 0.987500 0.721019
0.000000 0.000000 0.000000
0.013682 0.003349 0.006836
0.058059 0.006681 0.010348
0.141144 0.010802 0.019633
0.407999 0.014049 0.082542
0.641805 0.026347 0.159829
0.652557 0.026430 0.165464
0.652557 0.026430 0.165464
0.652557 0.026430 0.165464
0.003896 0.013557 0.014203
0.016602 0.016602 0.016602
0.075254 0.017291 0.013414
0.191582 0.013659 0.026827
0.509851 0.017042 0.116945
0.652557 0.026430 0.165464
0.652557 0.026430 0.165464
0.652557 0.026430 0.165464
0.652557 0.026430 0.165464
0.000113 0.088588 0.048964
0.010080 0.093364 0.049632
0.103132 0.102932 0.056124
0.262861 0.110058 0.028813
0.554715 0.136673 0.137124
0.688621 0.144571 0.199266
0.669904 0.086016 0.181500
0.651581 0.026127 0.161028
0.651581 0.026127 0.161028
0.000301 0.314114 0.137899
0.000000 0.310157 0.127069
0.099635 0.297571 0.125305
0.306661 0.311872 0.159723
0.623722 0.366033 0.197136
0.801000 0.406247 0.287511
0.732891 0.268176 0.243364
0.720407 0.236806 0.232039
0.710067 0.212051 0.223867
0.000000 0.747677 0.425009
0.000000 0.730056 0.395762
0.012635 0.715479 0.368913
0.429434 0.738748 0.398035
0.758426 0.787634 0.439887
0.932812 0.802782 0.401352
0.891320 0.632793 0.348945
0.866925 0.581012 0.345468
0.852699 0.530025 0.328372
0.171766 0.908462 0.653988
0.183303 0.907886 0.643828
0.158869 0.904454 0.631356
0.464424 0.929230 0.653231
0.755320 0.948337 0.674215
0.921703 0.952356 0.619745
0.954994 0.912481 0.489328
0.946828 0.868747 0.436113
0.944894 0.845813 0.422218
0.252113 0.911625 0.675387
0.250745 0.912994 0.671926
0.250745 0.912994 0.671926
0.390128 0.926168 0.692536
0.640152 0.953141 0.745954
0.850297 0.975368 0.782770
0.964279 0.985909 0.720798
0.959416 0.970126 0.652058
0.958842 0.960850 0.624234
0.250745 0.912994 0.671926
0.250745 0.912994 0.671926
0.250745 0.912994 0.671926
0.319948 0.919429 0.680012
0.554528 0.945088 0.729301
0.788715 0.969733 0.793411
0.927906 0.982615 0.790324
0.967602 0.987500 0.721019
0.967602 0.987500 0.721019
0.250745 0.912994 0.671926
0.250745 0.912994 0.671926
0.250745 0.912994 0.671926
0.250745 0.913331 0.670195
0.480442 0.934779 0.711142
0.726357 0.961828 0.774941
0.893889 0.979696 0.800348
0.969162 0.988104 0.739523
0.967602 0.987500 0.721019
0.003705 0.006209 0.026848
0.017780 0.006875 0.037899
0.067240 0.006738 0.054500
0.165185 0.010531 0.060769
0.450615 0.017064 0.100875
0.652557 0.026430 0.165464
0.652557 0.026430 0.165464
0.652557 0.026430 0.165464
0.652557 0.026430 0.165464
0.003101 0.022859 0.045487
0.017366 0.029195 0.052547
0.092239 0.034812 0.075676
0.232809 0.029280 0.103825
0.543085 0.020285 0.124449
0.652557 0.026430 0.165464
0.652557 0.026430 0.165464
0.652557 0.026430 0.165464
0.652557 0.026430 0.165464
0.000000 0.108175 0.102883
0.003607 0.108765 0.098668
0.116211 0.116211 0.116211
0.294111 0.126521 0.136202
0.572303 0.144264 0.146137
0.687061 0.140271 0.199797
0.661326 0.058890 0.172351
0.651581 0.026127 0.161028
0.651581 0.026127 0.161028
0.000424 0.378265 0.252708
0.000000 0.344347 0.216181
0.106834 0.324964 0.196663
0.330681 0.331575 0.217991
0.649315 0.373999 0.277457
0.788899 0.384534 0.276856
0.726648 0.252659 0.236835
0.712010 0.226008 0.224004
0.706754 0.199801 0.218539
0.000645 0.760175 0.521433
0.000475 0.739574 0.482337
0.034905 0.721854 0.449012
0.435293 0.734861 0.454077
0.760581 0.777540 0.469083
0.933216 0.788433 0.405653
0.878243 0.608089 0.347696
0.860301 0.556846 0.333082
0.845681 0.507533 0.316960
0.135201 0.906893 0.689437
0.114090 0.905388 0.675457
0.086918 0.904360 0.657792
0.451719 0.922825 0.668136
0.757081 0.944285 0.681891
0.924250 0.947646 0.611624
0.955004 0.903838 0.473839
0.946839 0.858089 0.431008
0.943345 0.832199 0.410723
0.225718 0.911186 0.695486
0.239208 0.912227 0.689008
0.239599 0.911897 0.681109
0.383673 0.925965 0.701941
0.642496 0.952748 0.750391
0.858119 0.973866 0.778555
0.967018 0.986867 0.708684
0.958248 0.966505 0.639501
0.957674 0.957565 0.609946
0.223371 0.911243 0.692777
0.236861 0.912283 0.686301
0.239599 0.911897 0.681109
0.317209 0.919144 0.688664
0.555505 0.945393 0.733739
0.789108 0.968395 0.790702
0.928883 0.983592 0.791301
0.967602 0.987500 0.721019
0.967602 0.987500 0.721019
0.230800 0.911078 0.691270
0.236861 0.912283 0.686301
0.241946 0.912512 0.680355
0.248005 0.913382 0.677118
0.481418 0.935420 0.713847
0.727334 0.962805 0.775918
0.893889 0.980032 0.798617
0.969162 0.988104 0.739523
0.967602 0.987500 0.721019
0.010722 0.019962 0.083250
0.019130 0.020102 0.086180
0.096346 0.026335 0.108555
0.228692 0.034973 0.145270
0.518239 0.022705 0.211418
0.651581 0.026127 0.161028
0.651581 0.026127 0.161028
0.651581 0.026127 0.161028
0.651581 0.026127 0.161028
0.009526 0.043949 0.108504
0.017731 0.048744 0.122262
0.117619 0.061451 0.154624
0.306856 0.069790 0.206433
0.584703 0.026501 0.240269
0.651581 0.026127 0.161028
0.651581 0.026127 0.161028
0.651581 0.026127 0.161028
0.651581 0.026127 0.161028
0.035028 0.146502 0.241694
0.043628 0.150294 0.251015
0.139035 0.149819 0.251648
0.342738 0.165889 0.268539
0.622873 0.192882 0.302836
0.701881 0.183250 0.213742
0.684332 0.130671 0.196422
0.651581 0.026127 0.161028
0.651581 0.026127 0.161028
0.037264 0.468427 0.471360
0.029874 0.430997 0.426489
0.141348 0.396891 0.386824
0.394531 0.394531 0.394531
0.708482 0.429435 0.427901
0.816615 0.421105 0.367078
0.737380 0.276077 0.242300
0.716309 0.228239 0.226933
0.705194 0.195837 0.217340
0.000216 0.783648 0.650122
0.000627 0.764353 0.619899
0.000847 0.741406 0.583284
0.446399 0.754063 0.591641
0.781078 0.787198 0.605444
0.948256 0.785277 0.502387
0.892891 0.617696 0.388300
0.861278 0.557487 0.335790
0.841000 0.495643 0.313363
0.000883 0.903840 0.731929
0.000300 0.903205 0.719594
0.000308 0.895235 0.700645
0.424346 0.914688 0.721867
0.753750 0.940581 0.752531
0.930301 0.942706 0.698286
0.957732 0.898316 0.555085
0.949577 0.849301 0.469079
0.945106 0.824114 0.439163
0.151419 0.909468 0.727866
0.168624 0.910763 0.718906
0.192284 0.910245 0.710922
0.367054 0.924632 0.726699
0.637603 0.953483 0.776571
0.860847 0.977753 0.811347
0.969162 0.987095 0.744715
0.962940 0.962695 0.663949
0.959435 0.952505 0.622812
0.150051 0.910501 0.726137
0.176054 0.910263 0.719128
0.190914 0.910943 0.710922
0.295503 0.918254 0.715905
0.544944 0.944593 0.756989
0.796336 0.969525 0.817329
0.930444 0.983521 0.813265
0.969162 0.987095 0.744715
0.969555 0.986765 0.736817
0.158849 0.910313 0.721169
0.184853 0.910073 0.714160
0.199713 0.910417 0.707684
0.214181 0.912434 0.702184
0.464404 0.936434 0.736121
0.723811 0.964186 0.795176
0.896426 0.981275 0.819829
0.970723 0.988369 0.759758
0.969555 0.987437 0.733356
0.029047 0.059688 0.207552
0.023187 0.054501 0.198229
0.124445 0.067856 0.223671
0.321284 0.096296 0.314801
0.627000 0.143259 0.427602
0.709502 0.160861 0.351872
0.703652 0.154760 0.287262
0.692719 0.143055 0.256285
0.680626 0.120429 0.190340
0.046807 0.084185 0.274697
0.056763 0.091889 0.320269
0.162703 0.109404 0.389109
0.430698 0.145895 0.492008
0.684426 0.186134 0.535933
0.717304 0.175972 0.382094
0.703059 0.161088 0.299066
0.692719 0.142719 0.258017
0.680626 0.120429 0.190340
0.108222 0.240776 0.506589
0.121693 0.257085 0.541472
0.181140 0.242760 0.536419
0.449556 0.256354 0.567648
0.715417 0.286327 0.606915
0.758080 0.261589 0.468203
0.725682 0.220860 0.334583
0.708909 0.183321 0.280614
0.684524 0.134996 0.199352
0.133913 0.580953 0.666418
0.125537 0.549508 0.644712
0.152164 0.509619 0.617504
0.473765 0.512673 0.657747
0.786740 0.540887 0.719560
0.873388 0.512417 0.630328
0.828716 0.426685 0.460797
0.796520 0.366514 0.392489
0.752996 0.291270 0.320136
0.000186 0.800503 0.743309
0.000196 0.791524 0.729551
0.000000 0.771245 0.707981
0.434621 0.780421 0.743801
0.807617 0.807617 0.807617
0.978128 0.787891 0.744668
0.942667 0.673264 0.588398
0.914376 0.619017 0.513614
0.881786 0.560520 0.446282
0.000098 0.898786 0.777144
0.000300 0.894132 0.766317
0.000000 0.888501 0.754512
0.354358 0.899838 0.776300
0.732629 0.931924 0.835372
0.934782 0.937404 0.825191
0.974525 0.892356 0.713054
0.969691 0.846613 0.618617
0.960338 0.821585 0.557864
0.000000 0.907809 0.765476
0.000000 0.906839 0.754870
0.001075 0.905812 0.746973
0.301554 0.921044 0.762766
0.616876 0.951218 0.816903
0.863184 0.979954 0.862421
0.974428 0.988528 0.817754
0.968990 0.958428 0.747148
0.964117 0.948934 0.706012
0.000000 0.908145 0.763746
0.000000 0.905501 0.752165
0.000000 0.907182 0.743512
0.215147 0.916340 0.748067
0.516202 0.941522 0.788222
0.786360 0.970366 0.847723
0.934149 0.985697 0.860879
0.974821 0.989878 0.801203
0.975606 0.988547 0.788868
0.000290 0.906807 0.761039
0.000681 0.906814 0.751410
0.035091 0.907387 0.743872
0.115640 0.909593 0.735407
0.434293 0.933723 0.769086
0.714618 0.961345 0.825348
0.898177 0.982841 0.858565
0.975404 0.990848 0.811808
0.974630 0.988243 0.784431
0.083322 0.105105 0.439550
0.081369 0.105169 0.427215
0.174212 0.124001 0.480790
0.444330 0.187415 0.602243
0.738873 0.267275 0.729160
0.793609 0.288159 0.657952
0.771943 0.264126 0.564406
0.758473 0.248824 0.524332
0.744811 0.231215 0.470945
0.112399 0.150292 0.541800
0.124299 0.172625 0.584050
0.198950 0.203206 0.633410
0.539248 0.281090 0.727587
0.782416 0.318847 0.803415
0.807080 0.302116 0.704949
0.780138 0.276891 0.597113
0.764333 0.252668 0.540574
0.746765 0.232497 0.476359
0.182737 0.411845 0.672418
0.195422 0.435199 0.690219
0.187630 0.404725 0.679117
0.521724 0.422439 0.756727
0.813004 0.437761 0.847599
0.848641 0.387074 0.775262
0.804533 0.322959 0.630008
0.776625 0.278367 0.555891
0.746765 0.233504 0.471169
0.183125 0.635406 0.736680
0.185873 0.622679 0.735036
0.189013 0.608279 0.732415
0.457047 0.609529 0.776820
0.832581 0.631583 0.894726
0.930383 0.578092 0.870809
0.881201 0.505107 0.716012
0.852910 0.451193 0.639495
0.822082 0.392342 0.560805
0.051025 0.784977 0.775571
0.084852 0.781219 0.774731
0.081338 0.774967 0.773309
0.293658 0.773175 0.791040
0.772211 0.812263 0.902262
0.968906 0.790476 0.926863
0.960186 0.722197 0.804465
0.953379 0.689098 0.752895
0.937975 0.650862 0.698926
0.052115 0.879247 0.801285
0.049769 0.878631 0.802040
0.010868 0.872510 0.798526
0.100610 0.870836 0.794500
0.659711 0.915154 0.881683
0.926758 0.926758 0.926758
0.986034 0.892838 0.877413
0.989787 0.856506 0.823358
0.985709 0.833342 0.773433
0.136934 0.914653 0.816257
0.120906 0.911362 0.806715
0.107809 0.911671 0.796640
0.112893 0.911564 0.792426
0.549032 0.947352 0.851992
0.851838 0.977460 0.913582
0.979502 0.981939 0.906899
0.980508 0.957325 0.859680
0.977981 0.947103 0.824712
0.133611 0.913398 0.814304
0.117191 0.912452 0.802278
0.076529 0.910383 0.791090
0.048964 0.909347 0.783054
0.446403 0.935702 0.821360
0.757225 0.968970 0.879934
0.930031 0.989039 0.914437
0.984385 0.993208 0.878902
0.982823 0.992270 0.862128
0.114060 0.914177 0.810176
0.112500 0.911894 0.800325
0.075160 0.911080 0.791090
0.038212 0.909264 0.777418
0.353744 0.926812 0.801778
0.678054 0.959777 0.860797
0.897192 0.984122 0.905957
0.983992 0.994210 0.883340
0.982823 0.992605 0.860398
0.139339 0.182239 0.615028
0.132112 0.177413 0.607437
0.195798 0.226249 0.651519
0.529816 0.332260 0.754398
0.821419 0.420520 0.880030
0.873428 0.421722 0.857364
0.862303 0.406028 0.821726
0.852154 0.388622 0.800911
0.841815 0.367899 0.771972
0.177951 0.289954 0.670125
0.191403 0.333967 0.682340
0.193144 0.354258 0.684653
0.476946 0.430432 0.764489
0.810409 0.494758 0.886437
0.884352 0.445767 0.884793
0.874011 0.427061 0.845472
0.861720 0.403714 0.818044
0.845520 0.376796 0.784977
0.203789 0.479992 0.703188
0.203597 0.474996 0.703718
0.199892 0.464418 0.699366
0.345919 0.478086 0.734266
0.776917 0.566509 0.887516
0.910891 0.498450 0.920841
0.890201 0.468671 0.862879
0.869522 0.422521 0.829231
0.844543 0.376155 0.782269
0.189205 0.612940 0.733613
0.186870 0.601666 0.729262
0.190987 0.588243 0.727618
0.191782 0.573564 0.724019
0.717794 0.661840 0.885801
0.943411 0.643322 0.963343
0.940732 0.585804 0.906754
0.922590 0.546274 0.866630
0.895458 0.504289 0.819891
0.101684 0.760181 0.770379
0.105409 0.749104 0.766251
0.122039 0.734737 0.762345
0.137694 0.719057 0.759192
0.614484 0.760851 0.869661
0.929604 0.788959 0.969234
0.978137 0.738919 0.936837
0.970737 0.709795 0.909184
0.961776 0.677716 0.875140
0.017131 0.866036 0.798304
0.000126 0.860087 0.796437
0.000136 0.849092 0.793062
0.000539 0.836424 0.788712
0.473052 0.861389 0.851430
0.878676 0.904447 0.962156
0.986809 0.885026 0.958437
0.986638 0.862409 0.929723
0.983526 0.846511 0.908376
0.158830 0.914826 0.817903
0.155507 0.913571 0.815950
0.149055 0.915048 0.816703
0.136934 0.914653 0.816257
0.364879 0.929496 0.844422
0.788303 0.966175 0.941304
0.970703 0.970703 0.970703
0.990858 0.954954 0.947539
0.991259 0.944301 0.932804
0.158830 0.914826 0.817903
0.158830 0.914826 0.817903
0.158830 0.914826 0.817903
0.158830 0.914826 0.817903
0.257359 0.920934 0.827856
0.689189 0.961451 0.908632
0.923770 0.987782 0.954462
0.991604 0.996930 0.952164
0.988675 0.996017 0.938851
0.158830 0.914826 0.817903
0.158830 0.914826 0.817903
0.158830 0.914826 0.817903
0.158830 0.914826 0.817903
0.136934 0.914653 0.816257
0.588516 0.951082 0.883415
0.876462 0.982529 0.942828
0.989258 0.996316 0.952918
0.990043 0.995992 0.935391
0.187123 0.307728 0.683043
0.190435 0.321324 0.681448
0.193336 0.359255 0.684122
0.417700 0.442457 0.746602
0.816420 0.550603 0.900075
0.906008 0.493231 0.917687
0.908938 0.498177 0.910235
0.908938 0.498177 0.910235
0.908938 0.498177 0.910235
0.196046 0.392190 0.687325
0.196046 0.392190 0.687325
0.193116 0.388587 0.687855
0.426688 0.445247 0.751484
0.793355 0.545466 0.892793
0.911083 0.502774 0.923771
0.908938 0.498177 0.910235
0.908938 0.498177 0.910235
0.908938 0.498177 0.910235
0.201835 0.477366 0.704694
0.197738 0.468464 0.701320
0.204393 0.459980 0.701853
0.331261 0.473089 0.729915
0.757749 0.577281 0.882324
0.931158 0.571289 0.946641
0.916156 0.514670 0.917738
0.910497 0.502140 0.911433
0.908938 0.498177 0.910235
0.189013 0.608279 0.732415
0.190785 0.594913 0.728063
0.188842 0.580957 0.727925
0.193745 0.564521 0.722599
0.705480 0.657122 0.882426
0.935571 0.669167 0.962197
0.954393 0.605765 0.948027
0.947759 0.591587 0.944207
0.942102 0.578721 0.939634
0.113030 0.753265 0.767672
0.126530 0.741630 0.766473
0.137492 0.726064 0.757906
0.149432 0.710467 0.755509
0.599051 0.748543 0.862156
0.904384 0.787529 0.965636
0.983805 0.734405 0.970915
0.979908 0.718159 0.970554
0.977774 0.699879 0.967489
0.000126 0.860423 0.794707
0.000000 0.855427 0.795238
0.013828 0.842454 0.791332
0.000348 0.831762 0.787512
0.434744 0.847595 0.843036
0.848976 0.884795 0.952785
0.986809 0.879985 0.984395
0.990352 0.853252 0.975691
0.992909 0.835530 0.974579
0.158830 0.914826 0.817903
0.149055 0.915048 0.816703
0.149055 0.915048 0.816703
0.117776 0.912750 0.816345
0.299008 0.913657 0.833184
0.757818 0.950207 0.932157
0.954092 0.960392 0.981704
0.994179 0.948816 0.987563
0.992428 0.940193 0.985165
0.158830 0.914826 0.817903
0.158830 0.914826 0.817903
0.158830 0.914826 0.817903
0.158830 0.914826 0.817903
0.158830 0.914826 0.817903
0.628393 0.955829 0.900017
0.899135 0.985980 0.968390
1.000000 1.000000 1.000000
0.995700 0.998104 0.995339
0.158830 0.914826 0.817903
0.158830 0.914826 0.817903
0.158830 0.914826 0.817903
0.158830 0.914826 0.817903
0.158830 0.914826 0.817903
0.505238 0.942637 0.871199
0.838731 0.979691 0.953605
0.982604 0.996734 0.993919
0.993356 0.998161 0.992633
0.194686 0.381220 0.687410
0.194877 0.386216 0.686878
0.193116 0.388587 0.687855
0.465973 0.459009 0.766048
0.828541 0.550324 0.903981
0.908938 0.496497 0.918888
0.908938 0.498177 0.910235
0.908938 0.498177 0.910235
0.908938 0.498177 0.910235
0.196629 0.394840 0.689278
0.193116 0.388587 0.687855
0.193116 0.388587 0.687855
0.444086 0.448850 0.755836
0.804691 0.548871 0.896921
0.906985 0.493536 0.922125
0.908938 0.498177 0.910235
0.908938 0.498177 0.910235
0.908938 0.498177 0.910235
0.203990 0.473321 0.702741
0.202630 0.462687 0.701097
0.202248 0.453367 0.698699
0.346514 0.469743 0.732845
0.764201 0.575132 0.885031
0.928238 0.556692 0.943796
0.912642 0.508753 0.914586
0.908938 0.498177 0.910235
0.908938 0.498177 0.910235
0.186870 0.601330 0.730993
0.188640 0.587628 0.728371
0.189435 0.572948 0.724773
0.198638 0.558409 0.724106
0.709789 0.648694 0.880250
0.931080 0.661601 0.961527
0.950881 0.599514 0.946606
0.944246 0.585670 0.941055
0.939957 0.571771 0.938212
0.103062 0.748489 0.767004
0.122039 0.734737 0.762345
0.137694 0.719057 0.759192
0.162538 0.700841 0.753555
0.602966 0.741118 0.864418
0.904979 0.779521 0.962486
0.982052 0.725445 0.970247
0.979133 0.710513 0.969133
0.975045 0.689943 0.965845
0.000520 0.858414 0.795461
0.013626 0.849124 0.791777
0.000146 0.837761 0.791418
0.000549 0.825093 0.787066
0.438268 0.842516 0.842812
0.852500 0.879380 0.954293
0.989749 0.871584 0.985679
0.991922 0.845548 0.976977
0.991740 0.829221 0.975862
0.155507 0.913571 0.815950
0.149055 0.915048 0.816703
0.136934 0.914653 0.816257
0.116608 0.907449 0.812438
0.302924 0.907240 0.830254
0.762318 0.946104 0.932910
0.953900 0.955732 0.980504
0.992619 0.944853 0.986363
0.992629 0.933521 0.984718
0.158830 0.914826 0.817903
0.158830 0.914826 0.817903
0.158830 0.914826 0.817903
0.158830 0.914826 0.817903
0.158830 0.914826 0.817903
0.632107 0.955410 0.900993
0.900111 0.986956 0.969366
1.000000 1.000000 1.000000
1.000000 1.000000 1.000000
0.158830 0.914826 0.817903
0.158830 0.914826 0.817903
0.158830 0.914826 0.817903
0.158830 0.914826 0.817903
0.158830 0.914826 0.817903
0.510906 0.943836 0.875861
0.841469 0.978296 0.953605
0.982604 0.996734 0.993919
1.000000 1.000000 1.000000
