lut/fujifilm/F-log2/F-Log2_LUT_E_Ver.1.05/GFX100II/GFX100II_FLog2_FGamut_to_ETERNA_BT.709_33grid_V.1.00.cube
#title:FLog2_FGamut_to_ETERNA_BT.709
#FUJIFILM Corporation
#Gamma:F-Log2 to ETERNA
#Gamut:F-Gamut to ITU-R BT.709
#Version:1.00
LUT_3D_SIZE 5
0.006836 0.006836 0.006836
0.134107 0.009965 0.016704
0.519244 0.012878 0.088058
0.992934 0.023411 0.196302
0.992934 0.023411 0.196302
0.000467 0.141984 0.004382
0.149626 0.159978 0.000234
0.709733 0.170944 0.085192
0.992934 0.023411 0.196302
0.992934 0.023411 0.196302
0.000000 0.773689 0.000720
0.000000 0.748680 0.000000
0.671150 0.731582 0.023688
0.995051 0.568016 0.000000
1.000000 0.480189 0.026773
0.000000 0.969209 0.304145
0.000000 0.969209 0.304145
0.225708 0.978977 0.406410
0.936180 0.999838 0.320151
0.947967 0.955429 0.200957
0.000000 0.969209 0.304145
0.000000 0.969209 0.304145
0.000300 0.973108 0.359657
0.749451 0.994138 0.462345
0.945763 0.999661 0.295926
0.003686 0.014419 0.104547
0.159507 0.007221 0.126973
0.621880 0.013867 0.113586
0.992934 0.023411 0.196302
0.992934 0.023411 0.196302
0.000418 0.169738 0.161426
0.173828 0.173828 0.173828
0.744927 0.163800 0.098196
0.992934 0.023411 0.196302
0.992934 0.023411 0.196302
0.000000 0.773212 0.303121
0.000000 0.732022 0.205669
0.685031 0.703727 0.156402
0.997044 0.523638 0.000000
0.999447 0.443159 0.056673
0.000300 0.966723 0.392536
0.000499 0.967781 0.352289
0.267155 0.978371 0.412184
0.945965 1.000000 0.257410
0.949748 0.935099 0.172465
0.000691 0.967401 0.379446
0.000000 0.968150 0.344390
0.000000 0.973101 0.369285
0.756882 0.993973 0.460835
0.945763 0.999661 0.295926
0.000074 0.074092 0.363567
0.198119 0.074271 0.391457
0.814725 0.060733 0.625730
0.999720 0.043214 0.436319
0.995653 0.019810 0.327645
0.000040 0.291647 0.648316
0.106393 0.287849 0.697317
0.869295 0.240304 0.757259
0.999996 0.177850 0.453347
0.996830 0.019829 0.298757
0.000000 0.789165 0.751293
0.000000 0.756605 0.688586
0.714844 0.714844 0.714844
0.998879 0.568137 0.502562
0.999571 0.475719 0.334144
0.000855 0.957325 0.636497
0.000471 0.959766 0.573531
0.130662 0.973796 0.605278
0.961762 0.991242 0.545747
0.967518 0.909280 0.438700
0.000270 0.957364 0.620700
0.000000 0.959132 0.561196
0.000000 0.968827 0.546065
0.759791 0.991671 0.610684
0.957665 0.999814 0.452386
0.000000 0.231003 0.850200
0.001189 0.268863 0.916813
0.908470 0.338044 0.999297
1.000000 0.305338 0.987098
1.000000 0.274750 0.939434
0.000420 0.486546 0.920148
0.000000 0.473231 0.922720
0.741970 0.484449 0.999089
0.999561 0.358335 0.998559
1.000000 0.278738 0.944095
0.000000 0.733662 0.857109
0.000244 0.707310 0.863227
0.411203 0.688614 0.952418
0.999738 0.619389 0.964542
0.999998 0.559855 0.876359
0.000441 0.950743 0.799965
0.000441 0.950743 0.799965
0.000000 0.952030 0.837727
0.942383 0.942383 0.942383
0.999724 0.888553 0.863570
0.000441 0.950743 0.799965
0.000441 0.950743 0.799965
0.000000 0.951111 0.792067
0.711660 0.984679 0.867152
0.980870 1.000000 0.809992
0.000096 0.403525 0.937301
0.000000 0.410531 0.936015
0.828599 0.461839 0.999672
0.999732 0.386330 0.999586
0.999732 0.386330 0.999586
0.000621 0.479540 0.921434
0.000047 0.464213 0.924759
0.717720 0.494992 0.999845
1.000000 0.396323 0.998524
0.999732 0.386330 0.999586
0.000000 0.721323 0.860655
0.000000 0.691649 0.868281
0.405745 0.668070 0.952589
1.000000 0.608984 0.998929
0.999576 0.572669 0.999942
0.000441 0.950743 0.799965
0.000441 0.950743 0.799965
0.000000 0.929704 0.832706
0.904277 0.910492 0.992379
0.999333 0.864013 0.999524
0.000441 0.950743 0.799965
0.000441 0.950743 0.799965
0.000441 0.950743 0.799965
0.630518 0.980063 0.932413
1.000000 1.000000 1.000000
