lut/fujifilm/F-log2/F-Log2_LUT_E_Ver.1.05/X-S20/XS20_FLog2_FGamut_to_ETERNA-BB_BT.709_33gird_V.1.00.cube
#title:FLog2_FGamut_to_ETERNA-BB_BT.709
#FUJIFILM Corporation
#Gamma:F-Log2 to ETERNA BLEACH BYPASS
#Gamut:F-Gamut to ITU-R BT.709
#Version:1.00
LUT_3D_SIZE 33
0.000000 0.000000 0.000000
0.000000 0.000000 0.000000
0.000000 0.000000 0.000000
0.000000 0.000000 0.000000
0.010752 0.000419 0.003906
0.023458 0.003464 0.006305
0.029517 0.003661 0.006527
0.037924 0.004136 0.007727
0.053759 0.003776 0.010878
0.065488 0.006181 0.010569
0.086016 0.006715 0.013945
0.109281 0.006190 0.015590
0.133523 0.006978 0.016479
0.163040 0.010639 0.023008
0.211525 0.010534 0.033441
0.284443 0.013862 0.056347
0.358146 0.013842 0.077301
0.439280 0.012986 0.100208
0.513566 0.015953 0.121383
0.573780 0.016908 0.138430
0.623824 0.019421 0.156984
0.654319 0.023051 0.169680
0.654319 0.023051 0.169680
0.654319 0.023051 0.169680
0.656665 0.023330 0.170656
0.656665 0.023330 0.170656
0.656665 0.023330 0.170656
0.656665 0.023330 0.170656
0.656665 0.023330 0.170656
0.656665 0.023330 0.170656
0.656665 0.023330 0.170656
0.656665 0.023330 0.170656
0.656665 0.023330 0.170656
0.000000 0.000000 0.000000
0.000000 0.000000 0.000000
0.000000 0.000000 0.000000
0.000000 0.000000 0.000000
0.010752 0.000419 0.003906
0.023458 0.003800 0.004574
0.029517 0.003661 0.006527
0.037924 0.004136 0.007727
0.053759 0.003776 0.010878
0.065488 0.006181 0.010569
0.086016 0.006715 0.013945
0.109281 0.006190 0.015590
0.133523 0.006978 0.016479
0.175162 0.010360 0.026914
0.235769 0.010650 0.037793
0.304971 0.013724 0.063183
0.386104 0.012868 0.086091
0.469774 0.016951 0.111172
0.540155 0.016347 0.126711
0.597236 0.019699 0.148195
0.639269 0.020064 0.164574
0.654319 0.023051 0.169680
0.654319 0.023051 0.169680
0.656665 0.023330 0.170656
0.656665 0.023330 0.170656
0.656665 0.023330 0.170656
0.656665 0.023330 0.170656
0.656665 0.023330 0.170656
0.656665 0.023330 0.170656
0.656665 0.023330 0.170656
0.656665 0.023330 0.170656
0.656665 0.023330 0.170656
0.656665 0.023330 0.170656
0.000000 0.000000 0.000000
0.000000 0.000000 0.000000
0.000000 0.000000 0.000000
0.000000 0.000000 0.000000
0.010752 0.000419 0.003906
0.023458 0.003800 0.004574
0.029517 0.003661 0.006527
0.037924 0.004136 0.007727
0.053759 0.003776 0.010878
0.065488 0.006181 0.010569
0.086016 0.006715 0.013945
0.110258 0.007167 0.016567
0.141929 0.007118 0.019409
0.190022 0.009697 0.025629
0.256880 0.013163 0.046582
0.331558 0.013783 0.070241
0.418752 0.013124 0.093372
0.497731 0.016985 0.114769
0.564004 0.017129 0.137230
0.616394 0.020258 0.155031
0.654319 0.023051 0.169680
0.654319 0.023051 0.169680
0.654319 0.023051 0.169680
0.656665 0.023330 0.170656
0.656665 0.023330 0.170656
0.656665 0.023330 0.170656
0.656665 0.023330 0.170656
0.656665 0.023330 0.170656
0.656665 0.023330 0.170656
0.656665 0.023330 0.170656
0.656665 0.023330 0.170656
0.656665 0.023330 0.170656
0.656665 0.023330 0.170656
0.000000 0.000000 0.000000
0.000000 0.000000 0.000000
0.000000 0.000000 0.000000
0.000000 0.000000 0.000000
0.010752 0.000419 0.003906
0.023458 0.003800 0.004574
0.030102 0.006647 0.006751
0.037924 0.003464 0.011187
0.053759 0.003776 0.010878
0.073895 0.006993 0.010039
0.092076 0.006912 0.014168
0.119057 0.005969 0.016789
0.147990 0.007315 0.019633
0.203120 0.010058 0.032243
0.278382 0.014001 0.054394
0.358146 0.013842 0.077301
0.442601 0.013906 0.103890
0.522950 0.017405 0.123558
0.588246 0.016572 0.145042
0.634576 0.019170 0.164352
0.654319 0.023051 0.169680
0.654319 0.023051 0.169680
0.654319 0.023051 0.169680
0.656665 0.023330 0.170656
0.656665 0.023330 0.170656
0.656665 0.023330 0.170656
0.656665 0.023330 0.170656
0.656665 0.023330 0.170656
0.656665 0.023330 0.170656
0.656665 0.023330 0.170656
0.656665 0.023330 0.170656
0.656665 0.023330 0.170656
0.656665 0.023330 0.170656
0.000000 0.010995 0.003375
0.000000 0.010995 0.003375
0.000575 0.013981 0.003597
0.000575 0.013981 0.003597
0.014065 0.013341 0.005774
0.026769 0.016723 0.006442
0.041236 0.017061 0.009593
0.057072 0.017035 0.011015
0.070563 0.017068 0.009731
0.093043 0.019892 0.013328
0.114941 0.019728 0.016704
0.141134 0.023142 0.016085
0.182975 0.020526 0.022614
0.240450 0.023212 0.037930
0.309652 0.026621 0.061590
0.394309 0.020014 0.087734
0.472904 0.013881 0.110195
0.547191 0.016849 0.131371
0.606620 0.020480 0.153832
0.648258 0.023191 0.167727
0.654319 0.023051 0.169680
0.654319 0.023051 0.169680
0.654319 0.023051 0.169680
0.656665 0.023330 0.170656
0.656665 0.023330 0.170656
0.656665 0.023330 0.170656
0.656665 0.023330 0.170656
0.656665 0.023330 0.170656
0.656665 0.023330 0.170656
0.656665 0.023330 0.170656
0.656665 0.023330 0.170656
0.656665 0.023330 0.170656
0.656665 0.023330 0.170656
0.003886 0.025896 0.010657
0.003886 0.025896 0.010657
0.003886 0.025896 0.010657
0.003886 0.025896 0.010657
0.010530 0.029080 0.011102
0.029297 0.032322 0.013723
0.046300 0.038607 0.013859
0.063506 0.038222 0.013550
0.078163 0.043891 0.014441
0.099084 0.043424 0.013379
0.126256 0.047141 0.017200
0.155583 0.046477 0.020797
0.203674 0.049054 0.027016
0.269162 0.053556 0.046239
0.350295 0.053371 0.065684
0.429857 0.058874 0.094226
0.512753 0.054302 0.123078
0.580012 0.043755 0.146600
0.621076 0.031811 0.160360
0.647281 0.022214 0.166750
0.656665 0.023330 0.170656
0.656665 0.023330 0.170656
0.656665 0.023330 0.170656
0.656665 0.023330 0.170656
0.656665 0.023330 0.170656
0.656665 0.023330 0.170656
0.656665 0.023330 0.170656
0.656665 0.023330 0.170656
0.656665 0.023330 0.170656
0.656665 0.023330 0.170656
0.656665 0.023330 0.170656
0.656665 0.023330 0.170656
0.656665 0.023330 0.170656
0.000000 0.040994 0.013278
0.000000 0.040994 0.013278
0.000000 0.043981 0.013499
0.000000 0.043308 0.016962
0.010904 0.048725 0.020335
0.032015 0.053589 0.017013
0.051175 0.054148 0.023849
0.068178 0.061778 0.017062
0.084406 0.060752 0.014046
0.104541 0.064304 0.011477
0.133475 0.065650 0.014321
0.169053 0.069844 0.019340
0.225550 0.072562 0.028487
0.292016 0.078711 0.045227
0.379008 0.083041 0.077453
0.462677 0.086117 0.107727
0.535002 0.097453 0.133785
0.595597 0.106385 0.160152
0.642512 0.111632 0.181413
0.673207 0.108926 0.191933
0.677717 0.093157 0.192774
0.677335 0.084173 0.188644
0.674395 0.091902 0.190821
0.674797 0.078560 0.189929
0.669330 0.070691 0.184824
0.666219 0.051434 0.180780
0.662515 0.040857 0.176431
0.657248 0.026652 0.169149
0.656665 0.023330 0.170656
0.656665 0.023330 0.170656
0.656665 0.023330 0.170656
0.656665 0.023330 0.170656
0.656665 0.023330 0.170656
0.000000 0.056985 0.016121
0.000000 0.061646 0.017320
0.000000 0.061646 0.017320
0.000000 0.063656 0.016567
0.010694 0.066054 0.025887
0.031997 0.074571 0.028953
0.053108 0.078764 0.029090
0.075397 0.076590 0.033219
0.094162 0.081177 0.028919
0.113905 0.086403 0.027324
0.141278 0.086139 0.016856
0.180570 0.090586 0.019391
0.244105 0.093805 0.033199
0.319370 0.098084 0.053622
0.392871 0.103727 0.080211
0.468720 0.109312 0.109508
0.542019 0.120952 0.140004
0.604176 0.134520 0.164109
0.650888 0.145766 0.189277
0.687051 0.150594 0.206633
0.694289 0.144424 0.210848
0.691168 0.136835 0.206718
0.689607 0.132535 0.207249
0.689416 0.128211 0.204320
0.686486 0.125617 0.199661
0.686295 0.120620 0.200191
0.685127 0.114311 0.201477
0.680637 0.107755 0.195618
0.680446 0.103430 0.192688
0.674395 0.091902 0.190821
0.674797 0.078560 0.189929
0.669330 0.070691 0.184824
0.664266 0.049481 0.178827
0.000123 0.080618 0.030015
0.000000 0.082628 0.029262
0.000000 0.086953 0.032192
0.000000 0.086953 0.032192
0.010674 0.087708 0.034367
0.040382 0.095357 0.045554
0.055826 0.097007 0.047954
0.080653 0.100445 0.050797
0.100394 0.104663 0.054394
0.119552 0.107575 0.049117
0.154547 0.110799 0.043531
0.198340 0.113833 0.032976
0.258945 0.116139 0.033472
0.323649 0.124659 0.051186
0.399889 0.127899 0.082970
0.476714 0.134796 0.111512
0.550598 0.148752 0.145692
0.612754 0.161312 0.174989
0.660635 0.178529 0.200600
0.695620 0.188716 0.219155
0.704619 0.180511 0.220665
0.704821 0.174177 0.218488
0.700329 0.166612 0.217820
0.696232 0.158045 0.212714
0.696042 0.153384 0.211516
0.695457 0.150398 0.211294
0.691550 0.146491 0.207387
0.694682 0.143087 0.208141
0.691168 0.136835 0.206718
0.689607 0.132535 0.207249
0.689024 0.129884 0.205296
0.686486 0.125617 0.199661
0.685319 0.119308 0.200945
0.000295 0.106261 0.043156
0.000295 0.106261 0.043156
0.000000 0.110610 0.049547
0.000094 0.111922 0.048793
0.003024 0.115189 0.049992
0.037233 0.120416 0.053282
0.059320 0.124241 0.061316
0.080431 0.127089 0.068375
0.103889 0.131898 0.067757
0.126953 0.137035 0.075039
0.162924 0.140899 0.072160
0.207694 0.143902 0.067774
0.265561 0.147266 0.069999
0.332227 0.152459 0.056875
0.410420 0.158323 0.087149
0.485483 0.167592 0.116667
0.559952 0.184198 0.152800
0.625621 0.202673 0.185250
0.675264 0.217521 0.209887
0.709070 0.232729 0.231371
0.718263 0.228513 0.237540
0.713973 0.214949 0.232965
0.713006 0.202977 0.228613
0.705979 0.190809 0.224038
0.706572 0.182464 0.222618
0.704619 0.180511 0.220665
0.704036 0.177861 0.218712
0.704821 0.174177 0.218488
0.702282 0.169237 0.216313
0.699353 0.165636 0.216844
0.697209 0.159022 0.213691
0.696042 0.153384 0.211516
0.694480 0.149421 0.210317
0.000000 0.139912 0.059448
0.000064 0.144236 0.062378
0.000000 0.147248 0.066062
0.003970 0.148478 0.064555
0.000000 0.152245 0.065532
0.026249 0.157636 0.070328
0.053613 0.165342 0.078808
0.078439 0.168781 0.081653
0.105027 0.169512 0.085250
0.132199 0.173229 0.089071
0.165039 0.178146 0.097551
0.215084 0.184021 0.098800
0.276858 0.190956 0.106663
0.347430 0.196693 0.114751
0.419572 0.199767 0.098163
0.499911 0.212918 0.128130
0.576331 0.232485 0.161023
0.642193 0.254277 0.201594
0.697695 0.275319 0.230359
0.735800 0.293431 0.251312
0.744801 0.284555 0.256281
0.735046 0.262450 0.250062
0.729386 0.249920 0.243758
0.719822 0.232476 0.238737
0.718462 0.222178 0.235364
0.714950 0.216262 0.232211
0.713388 0.211963 0.232742
0.713590 0.205629 0.230567
0.711053 0.200352 0.230121
0.708515 0.196085 0.224484
0.706955 0.191785 0.225014
0.706764 0.187125 0.223817
0.703642 0.179534 0.219688
0.000000 0.195216 0.084222
0.000207 0.202527 0.087374
0.000000 0.204873 0.084890
0.000590 0.212185 0.088044
0.000389 0.218855 0.088489
0.000580 0.222844 0.093148
0.029121 0.225528 0.098700
0.072521 0.227547 0.102964
0.101455 0.228894 0.105809
0.137033 0.232416 0.114289
0.178673 0.236470 0.121261
0.226956 0.242700 0.133871
0.289121 0.249306 0.133836
0.368292 0.258835 0.151242
0.443746 0.268783 0.167672
0.520570 0.282067 0.163337
0.597969 0.304962 0.185094
0.671058 0.333261 0.224602
0.729884 0.355895 0.253590
0.774633 0.376519 0.278449
0.790278 0.370490 0.285594
0.771733 0.338924 0.274047
0.758463 0.310902 0.264675
0.744216 0.281569 0.256059
0.736605 0.266749 0.249530
0.731723 0.261195 0.248109
0.729578 0.254581 0.244957
0.729386 0.249920 0.243758
0.724897 0.242355 0.243090
0.723729 0.237055 0.239184
0.720216 0.230466 0.239492
0.718462 0.222178 0.235364
0.714950 0.216262 0.232211
0.000000 0.282841 0.112954
0.000130 0.290488 0.114374
0.000000 0.302485 0.122186
0.000503 0.310468 0.121879
0.000000 0.307818 0.119926
0.000000 0.302821 0.120457
0.000000 0.307146 0.123387
0.043710 0.307491 0.126677
0.091410 0.311743 0.133871
0.138133 0.315019 0.140091
0.185833 0.318598 0.150747
0.240568 0.323350 0.162602
0.308594 0.333463 0.180539
0.388348 0.346987 0.192977
0.472792 0.359726 0.214289
0.559967 0.381728 0.240707
0.643235 0.403185 0.245913
0.712810 0.431617 0.251121
0.771636 0.454251 0.280110
0.815993 0.476213 0.307675
0.839448 0.478332 0.320903
0.822475 0.439399 0.308910
0.802762 0.401860 0.296919
0.781489 0.360693 0.281995
0.768027 0.328347 0.269695
0.762954 0.318131 0.267075
0.758463 0.310902 0.264675
0.753389 0.301024 0.260324
0.747923 0.292818 0.256949
0.744216 0.281569 0.256059
0.741097 0.273642 0.253661
0.737582 0.267726 0.250507
0.731723 0.261195 0.248109
0.000000 0.404084 0.164144
0.000000 0.416082 0.171957
0.000000 0.416082 0.171957
0.000000 0.414743 0.169250
0.000605 0.411060 0.169027
0.000414 0.407072 0.164368
0.000414 0.406400 0.167829
0.000022 0.407737 0.170535
0.077440 0.409987 0.178622
0.134330 0.412039 0.181602
0.195520 0.415316 0.192703
0.266676 0.422360 0.209665
0.341739 0.433309 0.230531
0.421683 0.449813 0.252820
0.504951 0.469253 0.268410
0.600532 0.492069 0.294296
0.686527 0.519430 0.321914
0.755520 0.543194 0.335552
0.803601 0.561807 0.319188
0.847184 0.577130 0.340139
0.875333 0.580144 0.353590
0.862656 0.544114 0.341067
0.851934 0.510038 0.330496
0.829885 0.461225 0.314153
0.808813 0.412715 0.302247
0.801785 0.400883 0.295942
0.798473 0.388295 0.292343
0.792030 0.378778 0.289723
0.784419 0.364295 0.281465
0.779927 0.357066 0.279065
0.776223 0.346489 0.274716
0.768803 0.335322 0.274578
0.767050 0.327370 0.268718
0.000096 0.538961 0.239921
0.000000 0.535975 0.239700
0.000296 0.532963 0.236015
0.000000 0.529977 0.235794
0.000891 0.525290 0.231132
0.000000 0.521327 0.229934
0.000508 0.515970 0.228734
0.000115 0.517307 0.231441
0.068152 0.518777 0.233892
0.150260 0.521585 0.243929
0.220833 0.527322 0.252015
0.297656 0.536909 0.266714
0.378387 0.550066 0.287051
0.462440 0.563470 0.314531
0.548636 0.584496 0.339972
0.635227 0.605193 0.357517
0.719663 0.629598 0.378742
0.788463 0.649374 0.387719
0.843975 0.663454 0.392343
0.877600 0.673424 0.355610
0.906725 0.677752 0.368306
0.899909 0.647245 0.363372
0.887817 0.612522 0.359722
0.870458 0.563594 0.348792
0.851934 0.510038 0.330496
0.845300 0.496195 0.324946
0.840617 0.484306 0.321347
0.834959 0.471103 0.318504
0.829885 0.461225 0.314153
0.822465 0.450393 0.312285
0.821890 0.436411 0.308688
0.815448 0.426894 0.306066
0.809789 0.414028 0.301492
0.000571 0.654156 0.322261
0.000000 0.650529 0.319332
0.000773 0.648157 0.318355
0.000190 0.645843 0.314671
0.000000 0.641182 0.313472
0.000000 0.638868 0.309788
0.000592 0.633846 0.306859
0.000199 0.635184 0.309566
0.013689 0.634880 0.310012
0.153475 0.637065 0.317617
0.246336 0.641302 0.326372
0.333912 0.651307 0.344977
0.415036 0.663798 0.359144
0.497134 0.676594 0.377749
0.585879 0.692236 0.398532
0.668562 0.708691 0.413898
0.744793 0.727966 0.423098
0.812818 0.740095 0.430653
0.865400 0.752253 0.427155
0.900979 0.759136 0.418332
0.923468 0.760038 0.371831
0.923489 0.736032 0.375465
0.917064 0.703515 0.371286
0.906150 0.662761 0.369898
0.883327 0.604956 0.359054
0.876691 0.590778 0.355234
0.876310 0.581121 0.354567
0.870259 0.569929 0.350970
0.870269 0.559270 0.345863
0.865194 0.548717 0.344973
0.860511 0.537165 0.339645
0.860521 0.525834 0.337999
0.852910 0.511014 0.331472
0.000091 0.744031 0.408988
0.000000 0.741380 0.407035
0.000000 0.738729 0.405082
0.000000 0.737393 0.402375
0.000102 0.734045 0.400422
0.000886 0.731032 0.396738
0.000303 0.728381 0.394785
0.000000 0.725396 0.394562
0.038036 0.728866 0.396121
0.169998 0.733898 0.401020
0.267552 0.739028 0.409996
0.352198 0.747112 0.420480
0.440166 0.756789 0.431188
0.524611 0.770871 0.445577
0.608472 0.782639 0.456285
0.688227 0.796165 0.468723
0.765050 0.807767 0.473040
0.825455 0.817751 0.468789
0.874525 0.823659 0.463871
0.908541 0.827250 0.450388
0.939629 0.827575 0.435702
0.943555 0.811173 0.424208
0.936739 0.783355 0.405429
0.924849 0.747338 0.373649
0.914720 0.703236 0.370310
0.906725 0.677752 0.368306
0.903020 0.666167 0.369144
0.902637 0.656846 0.366747
0.900885 0.648221 0.364348
0.896203 0.635996 0.362480
0.890736 0.627118 0.362566
0.889377 0.616484 0.360922
0.883910 0.607943 0.359278
0.000024 0.810914 0.484528
0.000415 0.809576 0.481819
0.000000 0.808600 0.480843
0.000000 0.806926 0.479866
0.000000 0.804612 0.476184
0.000000 0.802938 0.475208
0.000426 0.799590 0.473255
0.000000 0.799285 0.468817
0.000000 0.803610 0.471747
0.181266 0.805195 0.475497
0.279403 0.813312 0.484695
0.373241 0.819197 0.490966
0.455149 0.828676 0.501450
0.539402 0.838434 0.512910
0.620335 0.847273 0.520688
0.701849 0.858426 0.532148
0.771053 0.865869 0.535043
0.828527 0.873261 0.526133
0.874666 0.877582 0.511364
0.912792 0.880089 0.492687
0.938604 0.878549 0.467176
0.952496 0.867594 0.452886
0.950171 0.844989 0.446891
0.943938 0.818813 0.435257
0.937322 0.784997 0.412574
0.927778 0.750603 0.374848
0.923287 0.743375 0.372450
0.922512 0.735391 0.372757
0.920761 0.726431 0.372090
0.916269 0.718530 0.373152
0.915887 0.708874 0.372484
0.913158 0.699609 0.367380
0.911013 0.692323 0.367687
0.000000 0.861806 0.557223
0.000166 0.860132 0.556246
0.000559 0.858459 0.555270
0.000000 0.855808 0.553317
0.000000 0.857818 0.552561
0.000367 0.854806 0.548879
0.000760 0.853132 0.547903
0.000569 0.849480 0.541512
0.088155 0.851179 0.542898
0.201935 0.855619 0.547129
0.302810 0.863014 0.552867
0.388242 0.867750 0.561398
0.466436 0.877648 0.570907
0.546391 0.885173 0.579437
0.629667 0.894627 0.586461
0.703562 0.902292 0.593038
0.774135 0.908702 0.597663
0.830633 0.913436 0.596430
0.873448 0.915829 0.583167
0.910014 0.915382 0.558102
0.936220 0.913513 0.524692
0.955779 0.908125 0.492567
0.957359 0.891779 0.478364
0.953664 0.871214 0.465445
0.951147 0.845293 0.451327
0.946093 0.814432 0.435035
0.944340 0.806817 0.427445
0.940827 0.800900 0.424293
0.940052 0.793589 0.421140
0.938299 0.785638 0.415281
0.937917 0.777996 0.404231
0.931866 0.770165 0.383328
0.926792 0.761294 0.373785
0.118015 0.897724 0.618968
0.118015 0.897724 0.618968
0.114693 0.896131 0.618746
0.110002 0.895572 0.616793
0.102965 0.894736 0.613864
0.094950 0.892249 0.613417
0.084592 0.889820 0.610267
0.076186 0.890016 0.605605
0.146959 0.890091 0.608055
0.238843 0.894359 0.610641
0.325253 0.900071 0.620148
0.403254 0.906317 0.623265
0.479888 0.911578 0.635035
0.555150 0.918546 0.641614
0.627676 0.926908 0.648192
0.701963 0.932227 0.657253
0.769605 0.935707 0.658948
0.824150 0.938488 0.655762
0.868336 0.939849 0.644231
0.902162 0.939451 0.626085
0.928368 0.937582 0.592677
0.951251 0.934794 0.555581
0.957129 0.923705 0.528734
0.958317 0.909703 0.512047
0.954621 0.891157 0.488746
0.952104 0.866916 0.465976
0.950161 0.854304 0.458919
0.949969 0.849979 0.455989
0.951147 0.845293 0.451327
0.946264 0.840410 0.446444
0.945096 0.835109 0.442538
0.948036 0.827380 0.440364
0.947844 0.822719 0.439163
0.212427 0.911540 0.659983
0.212427 0.911876 0.658254
0.212427 0.911876 0.658254
0.212427 0.911876 0.658254
0.212427 0.911876 0.658254
0.210083 0.911933 0.655547
0.198937 0.912516 0.656077
0.197960 0.911875 0.653371
0.197960 0.911875 0.653371
0.274009 0.915495 0.657996
0.344583 0.921905 0.662621
0.407724 0.928142 0.670484
0.476928 0.934913 0.676840
0.546130 0.941011 0.686656
0.616704 0.946748 0.694741
0.687668 0.951147 0.700121
0.756287 0.954932 0.706255
0.809856 0.956400 0.703819
0.855018 0.958064 0.696727
0.893535 0.957554 0.683996
0.920717 0.954982 0.660214
0.943207 0.953531 0.625829
0.958077 0.948592 0.586559
0.959455 0.939252 0.571070
0.958691 0.924307 0.547239
0.957341 0.907047 0.519724
0.955597 0.891125 0.494914
0.956382 0.888113 0.491230
0.954823 0.885495 0.483109
0.955024 0.879831 0.477473
0.953463 0.876205 0.474544
0.953271 0.871545 0.473343
0.952104 0.866580 0.467708
0.228847 0.913494 0.666819
0.228847 0.913494 0.666819
0.228847 0.913494 0.666819
0.228847 0.913494 0.666819
0.228847 0.913494 0.666819
0.227479 0.914191 0.666819
0.227479 0.914191 0.666819
0.224156 0.912936 0.664866
0.224156 0.912936 0.664866
0.269510 0.917245 0.669357
0.335390 0.922088 0.677218
0.395796 0.929048 0.688544
0.462653 0.934868 0.697382
0.532440 0.943279 0.710882
0.601643 0.949042 0.722429
0.670453 0.957151 0.731492
0.736334 0.961658 0.741086
0.794786 0.968345 0.741805
0.840531 0.971652 0.741856
0.881394 0.971756 0.728371
0.910136 0.971131 0.716171
0.934972 0.968280 0.691413
0.955510 0.964540 0.656804
0.960211 0.958808 0.631155
0.960614 0.949164 0.611232
0.962193 0.935505 0.583183
0.959475 0.919950 0.550477
0.958890 0.918308 0.543332
0.961045 0.914935 0.537918
0.958509 0.911340 0.528820
0.956947 0.908385 0.522429
0.958126 0.904372 0.514308
0.957540 0.902057 0.510625
0.238231 0.914274 0.672457
0.238231 0.914274 0.672457
0.239599 0.913241 0.674188
0.238231 0.914274 0.672457
0.233147 0.915054 0.673212
0.233147 0.915054 0.673212
0.233147 0.915054 0.673212
0.233147 0.915054 0.673212
0.235885 0.913660 0.673212
0.248982 0.915367 0.672903
0.311149 0.920627 0.679790
0.369600 0.925634 0.689160
0.431373 0.932233 0.698753
0.499207 0.938357 0.712030
0.569971 0.947746 0.726507
0.637805 0.953534 0.741516
0.707008 0.958625 0.756523
0.766436 0.964609 0.766871
0.818827 0.970427 0.770828
0.861834 0.975464 0.769149
0.897221 0.977686 0.759125
0.926546 0.980719 0.743688
0.945906 0.980321 0.720661
0.961753 0.976695 0.680637
0.961762 0.968389 0.663419
0.960795 0.959442 0.643492
0.961007 0.946481 0.615445
0.962577 0.941466 0.602886
0.959647 0.939544 0.594766
0.961802 0.935835 0.591082
0.961217 0.934529 0.582207
0.961025 0.930876 0.575817
0.961810 0.928537 0.568672
0.238814 0.916253 0.677870
0.238814 0.916253 0.677870
0.238814 0.916253 0.677870
0.238814 0.916253 0.677870
0.238814 0.916253 0.677870
0.238814 0.916253 0.677870
0.238814 0.916253 0.677870
0.238814 0.916253 0.677870
0.238814 0.916253 0.677870
0.238814 0.916253 0.677870
0.287883 0.919808 0.685067
0.349072 0.923756 0.692707
0.406154 0.929796 0.700348
0.468904 0.937035 0.712648
0.530677 0.942963 0.725702
0.597143 0.949448 0.740711
0.663607 0.955933 0.755719
0.733395 0.963001 0.776140
0.788132 0.968091 0.786266
0.833483 0.972735 0.789024
0.873170 0.976181 0.787122
0.906795 0.980103 0.781535
0.935145 0.982158 0.765121
0.955480 0.982738 0.743071
0.969756 0.984800 0.712145
0.968397 0.976854 0.696656
0.963715 0.967990 0.677485
0.963332 0.961692 0.659512
0.963141 0.958377 0.651391
0.962557 0.956399 0.645977
0.960997 0.953780 0.637855
0.961388 0.952778 0.633417
0.962174 0.950773 0.624543
0.238814 0.916253 0.677870
0.238814 0.916253 0.677870
0.238814 0.916253 0.677870
0.238814 0.916253 0.677870
0.238814 0.916253 0.677870
0.238814 0.916253 0.677870
0.238814 0.916253 0.677870
0.238814 0.916253 0.677870
0.238814 0.916253 0.677870
0.238814 0.916253 0.677870
0.279477 0.918995 0.685598
0.324830 0.922967 0.691817
0.382888 0.929649 0.702164
0.443685 0.934599 0.714241
0.501745 0.940944 0.726320
0.567232 0.946117 0.742082
0.628613 0.953381 0.757843
0.693709 0.959892 0.776312
0.754506 0.964169 0.791852
0.806505 0.970318 0.803707
0.847165 0.974404 0.804511
0.884113 0.978909 0.804340
0.913439 0.980262 0.797555
0.940420 0.982680 0.782872
0.960362 0.984595 0.763527
0.971316 0.984729 0.734109
0.968971 0.985123 0.729672
0.967612 0.978186 0.708991
0.964682 0.975592 0.704332
0.966836 0.972555 0.697187
0.964883 0.971274 0.691773
0.964299 0.969296 0.686360
0.962346 0.968015 0.680946
0.238814 0.916253 0.677870
0.238814 0.916253 0.677870
0.238814 0.916253 0.677870
0.238814 0.916253 0.677870
0.238814 0.916253 0.677870
0.238814 0.916253 0.677870
0.238814 0.916253 0.677870
0.238814 0.916253 0.677870
0.238814 0.916253 0.677870
0.238814 0.916253 0.677870
0.255628 0.916869 0.682001
0.316816 0.920481 0.691371
0.364124 0.926407 0.699543
0.423157 0.934065 0.710866
0.482585 0.939713 0.722945
0.546705 0.945582 0.738706
0.608479 0.951173 0.753492
0.674943 0.957323 0.770232
0.731632 0.963356 0.787500
0.787347 0.968414 0.803793
0.827616 0.972830 0.812496
0.865539 0.977639 0.816762
0.894473 0.979658 0.816144
0.923407 0.982349 0.812067
0.945302 0.984873 0.801597
0.966615 0.986428 0.780524
0.971508 0.985693 0.754344
0.969947 0.984419 0.739301
0.970924 0.985732 0.738546
0.971316 0.984729 0.734109
0.971316 0.984729 0.734109
0.970340 0.984425 0.729672
0.968971 0.985123 0.729672
0.238814 0.916253 0.677870
0.238814 0.916253 0.677870
0.238814 0.916253 0.677870
0.238814 0.916253 0.677870
0.238814 0.916253 0.677870
0.238814 0.916253 0.677870
0.238814 0.916253 0.677870
0.238814 0.916253 0.677870
0.238814 0.916253 0.677870
0.238814 0.916253 0.677870
0.238814 0.916253 0.677870
0.293944 0.919668 0.687020
0.356110 0.923922 0.699097
0.410452 0.931021 0.708468
0.467535 0.936389 0.719570
0.528915 0.943989 0.733602
0.591082 0.947906 0.747410
0.652463 0.955171 0.763171
0.712475 0.962462 0.782394
0.773271 0.966403 0.799664
0.817840 0.972715 0.813027
0.852441 0.976268 0.815340
0.888805 0.977451 0.816675
0.917345 0.981815 0.813574
