lut/fujifilm/F-log2/F-Log2_LUT_E_Ver.1.05/X-S20/XS20_FLog2_FGamut_to_ETERNA-BB_BT.709_33gird_V.1.00.cube
#title:FLog2_FGamut_to_ETERNA-BB_BT.709
#FUJIFILM Corporation
#Gamma:F-Log2 to ETERNA BLEACH BYPASS
#Gamut:F-Gamut to ITU-R BT.709
#Version:1.00
LUT_3D_SIZE 5
0.000000 0.000000 0.000000
0.053759 0.003776 0.010878
0.358146 0.013842 0.077301
0.656665 0.023330 0.170656
0.656665 0.023330 0.170656
0.000123 0.080618 0.030015
0.100394 0.104663 0.054394
0.550598 0.148752 0.145692
0.696042 0.153384 0.211516
0.685319 0.119308 0.200945
0.000091 0.744031 0.408988
0.038036 0.728866 0.396121
0.765050 0.807767 0.473040
0.914720 0.703236 0.370310
0.883910 0.607943 0.359278
0.238814 0.916253 0.677870
0.238814 0.916253 0.677870
0.628613 0.953381 0.757843
0.960362 0.984595 0.763527
0.962346 0.968015 0.680946
0.238814 0.916253 0.677870
0.238814 0.916253 0.677870
0.476918 0.938178 0.720016
0.892127 0.979714 0.813438
0.970138 0.988071 0.745691
0.003705 0.006209 0.026848
0.073100 0.013943 0.053438
0.447685 0.012789 0.104866
0.656665 0.023330 0.170656
0.656665 0.023330 0.170656
0.006345 0.106699 0.102128
0.116211 0.116211 0.116211
0.579139 0.150428 0.156434
0.691168 0.136835 0.206718
0.672844 0.076607 0.187976
0.000000 0.752864 0.518282
0.040774 0.716717 0.451496
0.765464 0.780742 0.482618
0.902446 0.651512 0.369007
0.869684 0.556620 0.343910
0.200297 0.915084 0.699254
0.217895 0.914368 0.691046
0.647772 0.954276 0.762949
0.968971 0.984115 0.734864
0.962164 0.957064 0.652145
0.207726 0.915256 0.696016
0.226694 0.913506 0.689538
0.483955 0.938679 0.724676
0.894473 0.979658 0.816144
0.970138 0.988071 0.745691
0.022987 0.059827 0.205599
0.123267 0.072878 0.226601
0.632266 0.157127 0.436613
0.723547 0.204259 0.322864
0.708525 0.179713 0.248796
0.099816 0.240972 0.501930
0.174687 0.245917 0.528519
0.720681 0.301204 0.610734
0.749099 0.265951 0.366500
0.707740 0.188101 0.224793
0.000186 0.800839 0.741579
0.000000 0.770244 0.703544
0.807617 0.807617 0.807617
0.953399 0.693993 0.607707
0.903452 0.597660 0.472340
0.195395 0.917068 0.778992
0.165876 0.916095 0.758622
0.623520 0.953394 0.822539
0.979119 0.988750 0.821438
0.969000 0.950793 0.726469
0.180928 0.917402 0.772379
0.158840 0.916265 0.750500
0.440544 0.937573 0.775700
0.902870 0.982055 0.867442
0.977559 0.988819 0.799473
0.130532 0.196448 0.607797
0.179560 0.241631 0.640606
0.825891 0.451420 0.880527
0.885520 0.461486 0.835054
0.865616 0.425000 0.792445
0.189897 0.494645 0.698441
0.190692 0.479629 0.696575
0.773967 0.586578 0.886145
0.912642 0.516147 0.876515
0.868152 0.429268 0.798083
0.098361 0.760270 0.761504
0.116169 0.740209 0.758129
0.600209 0.766520 0.860785
0.981449 0.752851 0.933512
0.967817 0.701247 0.875191
0.243476 0.923919 0.823195
0.235070 0.923444 0.821997
0.351388 0.930807 0.838785
0.970703 0.970703 0.970703
0.988129 0.947371 0.933781
0.243476 0.923919 0.823195
0.243476 0.923919 0.823195
0.235070 0.923444 0.821997
0.883500 0.983702 0.944027
0.990043 0.995992 0.935391
0.185677 0.402435 0.678895
0.185475 0.408770 0.681070
0.834975 0.571175 0.908246
0.929235 0.539039 0.920719
0.929235 0.539039 0.920719
0.187560 0.483370 0.694089
0.192070 0.468273 0.691469
0.770835 0.589982 0.885391
0.930010 0.546686 0.922141
0.929235 0.539039 0.920719
0.107170 0.747741 0.760082
0.137300 0.721739 0.754976
0.602181 0.746147 0.857718
0.984580 0.742388 0.970605
0.977765 0.712554 0.962211
0.236046 0.924420 0.822973
0.220020 0.919784 0.820351
0.291387 0.910505 0.826570
0.956246 0.956010 0.981480
0.991844 0.937205 0.984940
0.243476 0.923919 0.823195
0.243476 0.923919 0.823195
0.243476 0.923919 0.823195
0.843422 0.980585 0.953828
1.000000 1.000000 1.000000
