lut/fujifilm/F-log2/F-Log2_LUT_E_Ver.1.05/X-S20/XS20_FLog2_FGamut_to_ETERNA-BB_BT.709_33gird_V.1.00.cube
#title:FLog2_FGamut_to_ETERNA-BB_BT.709
#FUJIFILM Corporation
#Gamma:F-Log2 to ETERNA BLEACH BYPASS
#Gamut:F-Gamut to ITU-R BT.709
#Version:1.00
LUT_3D_SIZE 9
0.000000 0.000000 0.000000
0.010752 0.000419 0.003906
0.053759 0.003776 0.010878
0.133523 0.006978 0.016479
0.358146 0.013842 0.077301
0.623824 0.019421 0.156984
0.656665 0.023330 0.170656
0.656665 0.023330 0.170656
0.656665 0.023330 0.170656
0.000000 0.010995 0.003375
0.014065 0.013341 0.005774
0.070563 0.017068 0.009731
0.182975 0.020526 0.022614
0.472904 0.013881 0.110195
0.654319 0.023051 0.169680
0.656665 0.023330 0.170656
0.656665 0.023330 0.170656
0.656665 0.023330 0.170656
0.000123 0.080618 0.030015
0.010674 0.087708 0.034367
0.100394 0.104663 0.054394
0.258945 0.116139 0.033472
0.550598 0.148752 0.145692
0.704619 0.180511 0.220665
0.696042 0.153384 0.211516
0.691168 0.136835 0.206718
0.685319 0.119308 0.200945
0.000000 0.282841 0.112954
0.000000 0.307818 0.119926
0.091410 0.311743 0.133871
0.308594 0.333463 0.180539
0.643235 0.403185 0.245913
0.839448 0.478332 0.320903
0.768027 0.328347 0.269695
0.747923 0.292818 0.256949
0.731723 0.261195 0.248109
0.000091 0.744031 0.408988
0.000102 0.734045 0.400422
0.038036 0.728866 0.396121
0.440166 0.756789 0.431188
0.765050 0.807767 0.473040
0.939629 0.827575 0.435702
0.914720 0.703236 0.370310
0.900885 0.648221 0.364348
0.883910 0.607943 0.359278
0.212427 0.911540 0.659983
0.212427 0.911876 0.658254
0.197960 0.911875 0.653371
0.476928 0.934913 0.676840
0.756287 0.954932 0.706255
0.920717 0.954982 0.660214
0.958691 0.924307 0.547239
0.954823 0.885495 0.483109
0.952104 0.866580 0.467708
0.238814 0.916253 0.677870
0.238814 0.916253 0.677870
0.238814 0.916253 0.677870
0.382888 0.929649 0.702164
0.628613 0.953381 0.757843
0.847165 0.974404 0.804511
0.960362 0.984595 0.763527
0.964682 0.975592 0.704332
0.962346 0.968015 0.680946
0.238814 0.916253 0.677870
0.238814 0.916253 0.677870
0.238814 0.916253 0.677870
0.321508 0.921712 0.689864
0.550420 0.945500 0.737954
0.790668 0.969670 0.805746
0.927121 0.981930 0.813043
0.970138 0.988071 0.745691
0.970138 0.988071 0.745691
0.238814 0.916253 0.677870
0.238814 0.916253 0.677870
0.238814 0.916253 0.677870
0.248197 0.917034 0.683509
0.476918 0.938178 0.720016
0.724203 0.963857 0.787276
0.892127 0.979714 0.813438
0.973461 0.986638 0.761487
0.970138 0.988071 0.745691
0.000000 0.000000 0.000000
0.013682 0.003349 0.006836
0.057475 0.003695 0.010126
0.139585 0.006503 0.020164
0.399200 0.013902 0.089241
0.645328 0.019925 0.166527
0.656665 0.023330 0.170656
0.656665 0.023330 0.170656
0.656665 0.023330 0.170656
0.003896 0.013557 0.014203
0.016602 0.016602 0.016602
0.080922 0.019497 0.012882
0.196858 0.017205 0.029004
0.506137 0.016789 0.119430
0.654319 0.023051 0.169680
0.656665 0.023330 0.170656
0.656665 0.023330 0.170656
0.656665 0.023330 0.170656
0.000000 0.086274 0.045282
0.003043 0.092191 0.048434
0.104109 0.103573 0.058832
0.263053 0.113710 0.035203
0.557836 0.143591 0.144715
0.702868 0.172224 0.216535
0.691550 0.146491 0.207387
0.689416 0.128211 0.204320
0.680446 0.103430 0.192688
0.000000 0.304121 0.138961
0.000703 0.302454 0.128355
0.103350 0.296146 0.131473
0.309782 0.317782 0.172504
0.635240 0.381398 0.224874
0.825988 0.445314 0.312063
0.758271 0.306241 0.263477
0.740120 0.272665 0.252684
0.729386 0.249920 0.243758
0.000091 0.740334 0.428023
0.000000 0.724387 0.399754
0.028470 0.713438 0.380719
0.437055 0.739548 0.416761
0.760177 0.792897 0.459589
0.937102 0.812985 0.423231
0.905356 0.678449 0.368306
0.891915 0.621425 0.363098
0.874940 0.581818 0.354567
0.210666 0.912232 0.669613
0.187209 0.910783 0.652926
0.169028 0.911537 0.645335
0.470676 0.931735 0.666765
0.756882 0.948939 0.692719
0.923263 0.951950 0.643441
0.956354 0.915721 0.529043
0.956201 0.874811 0.474544
0.951137 0.855280 0.459895
0.237838 0.914605 0.680355
0.238814 0.916253 0.677870
0.238814 0.916253 0.677870
0.392664 0.929091 0.705094
0.638388 0.953496 0.757312
0.850881 0.974659 0.802027
0.964470 0.985528 0.747953
0.965275 0.969935 0.689067
0.962940 0.962359 0.665679
0.239791 0.917230 0.678847
0.238814 0.916253 0.677870
0.238814 0.916253 0.677870
0.322485 0.922353 0.692570
0.558826 0.945641 0.740884
0.795359 0.970228 0.807699
0.929468 0.982881 0.810560
0.970138 0.988071 0.745691
0.970138 0.988071 0.745691
0.238814 0.916253 0.677870
0.238814 0.916253 0.677870
0.238814 0.916253 0.677870
0.253281 0.916590 0.681024
0.477894 0.938818 0.722723
0.729287 0.963077 0.786524
0.894473 0.979658 0.816144
0.972485 0.985662 0.760511
0.970138 0.988071 0.745691
0.003705 0.006209 0.026848
0.016803 0.006234 0.035191
0.073100 0.013943 0.053438
0.165185 0.009859 0.064231
0.447685 0.012789 0.104866
0.654319 0.023051 0.169680
0.656665 0.023330 0.170656
0.656665 0.023330 0.170656
0.656665 0.023330 0.170656
0.003101 0.023195 0.043758
0.017366 0.029195 0.052547
0.094584 0.034754 0.078383
0.237108 0.032184 0.103294
0.544846 0.016569 0.130394
0.654319 0.023051 0.169680
0.656665 0.023330 0.170656
0.656665 0.023330 0.170656
0.656665 0.023330 0.170656
0.006345 0.106699 0.102128
0.003215 0.109766 0.103104
0.116211 0.116211 0.116211
0.294111 0.125848 0.139664
0.579139 0.150428 0.156434
0.699353 0.165636 0.216844
0.691168 0.136835 0.206718
0.687080 0.116937 0.199968
0.672844 0.076607 0.187976
0.000434 0.367270 0.249333
0.000000 0.338013 0.214003
0.109965 0.321560 0.197419
0.332051 0.330877 0.217991
0.658295 0.387112 0.289175
0.814280 0.420920 0.305622
0.747731 0.288157 0.255750
0.732508 0.257511 0.247887
0.723729 0.237055 0.239184
0.000000 0.752864 0.518282
0.000283 0.734577 0.482867
0.040774 0.716717 0.451496
0.438223 0.736783 0.462199
0.765464 0.780742 0.482618
0.939267 0.796937 0.423093
0.902446 0.651512 0.369007
0.883136 0.600296 0.357856
0.869684 0.556620 0.343910
0.133046 0.910266 0.694852
0.117603 0.910969 0.680340
0.114482 0.905732 0.664098
0.465401 0.925166 0.680164
0.758643 0.945559 0.696934
0.923857 0.945622 0.631637
0.957341 0.908055 0.514532
0.949174 0.863650 0.464778
0.949194 0.843004 0.451106
0.200297 0.915084 0.699254
0.212811 0.914812 0.693533
0.217895 0.914368 0.691046
0.385235 0.928584 0.710063
0.647772 0.954276 0.762949
0.859287 0.976478 0.796303
0.968971 0.984115 0.734864
0.962738 0.967013 0.676508
0.962164 0.957064 0.652145
0.207726 0.914920 0.697746
0.212811 0.914812 0.693533
0.217895 0.914704 0.689317
0.321115 0.921706 0.699492
0.559802 0.946617 0.741860
0.797706 0.970508 0.808676
0.929468 0.983218 0.808829
0.970138 0.988071 0.745691
0.970138 0.988071 0.745691
0.207726 0.915256 0.696016
0.211442 0.915509 0.693533
0.226694 0.913506 0.689538
0.248197 0.916362 0.686969
0.483955 0.938679 0.724676
0.731632 0.963356 0.787500
0.894473 0.979658 0.816144
0.972485 0.985662 0.760511
0.970138 0.988071 0.745691
0.011307 0.023284 0.081742
0.019713 0.023425 0.084672
0.095762 0.023348 0.108332
0.229275 0.037624 0.147223
0.525639 0.055862 0.218305
0.677335 0.084173 0.188644
0.689024 0.129884 0.205296
0.678885 0.098794 0.194949
0.656665 0.023330 0.170656
0.010895 0.043588 0.106773
0.016754 0.049111 0.114363
0.117226 0.063462 0.153872
0.306654 0.076797 0.205149
0.602060 0.074422 0.256391
0.684150 0.113671 0.198769
0.689024 0.129884 0.205296
0.675180 0.087882 0.192329
0.656665 0.023330 0.170656
0.037768 0.145778 0.238234
0.040305 0.149375 0.247333
0.136297 0.151550 0.249918
0.341370 0.166586 0.268539
0.626386 0.198463 0.307719
0.713388 0.211963 0.232742
0.704619 0.180511 0.220665
0.693705 0.142110 0.207164
0.672844 0.076607 0.187976
0.046072 0.457243 0.463016
0.032229 0.421290 0.418899
0.139203 0.390949 0.380210
0.394531 0.394531 0.394531
0.717856 0.441883 0.433454
0.834184 0.450013 0.386300
0.770957 0.331613 0.270895
0.740120 0.272665 0.252684
0.723729 0.237055 0.239184
0.000024 0.779324 0.647192
0.001019 0.763016 0.617192
0.000000 0.738114 0.578625
0.449137 0.752332 0.593372
0.784400 0.786438 0.617782
0.952747 0.790825 0.513437
0.913771 0.655159 0.431887
0.881182 0.598342 0.355902
0.864218 0.547741 0.343997
0.095697 0.910701 0.739176
0.082408 0.906686 0.726171
0.009882 0.900677 0.707481
0.434705 0.916781 0.726750
0.756097 0.939852 0.758700
0.929908 0.942363 0.709644
0.965938 0.900085 0.584418
0.955628 0.855115 0.500364
0.951740 0.833251 0.468942
0.134406 0.914514 0.729376
0.153373 0.912766 0.722899
0.161778 0.914586 0.717175
0.363529 0.928703 0.732113
0.644247 0.955322 0.783937
0.866516 0.977272 0.824661
0.972485 0.985998 0.758782
0.965477 0.962257 0.693812
0.961580 0.953406 0.655382
0.148873 0.915524 0.729067
0.151028 0.912486 0.721922
0.170577 0.913724 0.715667
0.294719 0.920931 0.721320
0.550612 0.945120 0.765109
0.799659 0.969772 0.824473
0.930636 0.984822 0.831769
0.973461 0.986638 0.761487
0.971508 0.985357 0.756074
0.145550 0.914268 0.727114
0.160802 0.912938 0.719660
0.170577 0.914060 0.713938
0.224146 0.915866 0.709774
0.473395 0.938552 0.744465
0.728502 0.963400 0.804051
0.899748 0.980850 0.830434
0.974044 0.986936 0.775554
0.971508 0.985693 0.754344
0.022987 0.059827 0.205599
0.016734 0.056650 0.195524
0.123267 0.072878 0.226601
0.315997 0.103746 0.316001
0.632266 0.157127 0.436613
0.728621 0.203048 0.384320
0.723547 0.204259 0.322864
0.717889 0.195425 0.297524
0.708525 0.179713 0.248796
0.038400 0.084717 0.268304
0.050893 0.097025 0.317785
0.159180 0.115155 0.385872
0.429127 0.153599 0.490722
0.692621 0.203939 0.542684
0.736232 0.213498 0.413344
0.722954 0.211259 0.331208
0.718866 0.196066 0.300230
0.703451 0.173194 0.227141
0.099816 0.240972 0.501930
0.115632 0.257896 0.536058
0.174687 0.245917 0.528519
0.444664 0.263139 0.562681
0.720681 0.301204 0.610734
0.778769 0.297416 0.495015
0.749099 0.265951 0.366500
0.730173 0.231785 0.317945
0.707740 0.188101 0.224793
0.127077 0.574117 0.659582
0.124370 0.544879 0.637345
0.132814 0.505071 0.606007
0.469466 0.511113 0.651354
0.790254 0.547475 0.719250
0.884313 0.539150 0.643915
0.856042 0.476019 0.494890
0.825214 0.415487 0.424852
0.784227 0.345183 0.354676
0.000186 0.800839 0.741579
0.000588 0.790185 0.726845
0.000000 0.770244 0.703544
0.430323 0.778523 0.739142
0.807617 0.807617 0.807617
0.978318 0.792550 0.745866
0.953399 0.693993 0.607707
0.929990 0.645300 0.534343
0.903452 0.597660 0.472340
0.113878 0.902890 0.783105
0.089445 0.899122 0.772363
0.043507 0.893171 0.760729
0.358265 0.904081 0.778477
0.733606 0.932901 0.836349
0.932042 0.938464 0.826921
0.978040 0.895919 0.728321
0.973789 0.852491 0.637566
0.965020 0.829105 0.583957
0.195395 0.917068 0.778992
0.176237 0.917516 0.766965
0.165876 0.916095 0.758622
0.307807 0.925229 0.767649
0.623520 0.953394 0.822539
0.869245 0.979142 0.867837
0.979119 0.988750 0.821438
0.970551 0.959367 0.763923
0.969000 0.950793 0.726469
0.194025 0.918438 0.775531
0.183666 0.917688 0.763727
0.160208 0.914896 0.753961
0.214361 0.919352 0.751749
0.521476 0.944395 0.793860
0.788705 0.970310 0.850430
0.935125 0.985329 0.868777
0.978142 0.988782 0.815269
0.977559 0.988483 0.801203
0.180928 0.917402 0.772379
0.182690 0.916712 0.762750
0.158840 0.916265 0.750500
0.149456 0.915822 0.743133
0.440544 0.937573 0.775700
0.717548 0.963939 0.830007
0.902870 0.982055 0.867442
0.977751 0.988775 0.824899
0.977559 0.988819 0.799473
0.077061 0.111578 0.439774
0.077452 0.112257 0.426683
0.166972 0.129834 0.478305
0.441391 0.195817 0.600958
0.748438 0.284382 0.735910
0.815466 0.329960 0.685211
0.795945 0.312876 0.593087
0.786582 0.295483 0.553011
0.770967 0.274912 0.502863
0.104576 0.154482 0.532172
0.119989 0.182396 0.579304
0.186817 0.217168 0.619035
0.531999 0.299262 0.721554
0.791195 0.340648 0.805195
0.828938 0.344588 0.728747
0.804926 0.322966 0.620380
0.790680 0.302034 0.568500
0.772920 0.276865 0.504816
0.171199 0.416118 0.663543
0.184468 0.442123 0.683298
0.178629 0.414610 0.668957
0.509009 0.432071 0.749051
0.818068 0.460315 0.846673
0.865222 0.427682 0.788230
0.832633 0.381621 0.656871
0.802972 0.328405 0.580354
0.774481 0.282173 0.499095
0.171396 0.634346 0.730067
0.179420 0.625500 0.728867
0.174547 0.608952 0.724070
0.440818 0.612572 0.769454
0.828664 0.639344 0.890734
0.939162 0.599557 0.874320
0.902475 0.545936 0.732664
0.874960 0.498663 0.662762
0.849206 0.449691 0.588422
0.087781 0.785493 0.770739
0.087590 0.780833 0.769539
0.076254 0.777090 0.767140
0.273130 0.773649 0.782472
0.769473 0.814329 0.898801
0.966751 0.795530 0.923624
0.965451 0.737410 0.806556
0.959813 0.708939 0.762352
0.951637 0.676872 0.709051
0.133248 0.882423 0.803426
0.124449 0.883621 0.803204
0.097277 0.879568 0.801113
0.056424 0.872501 0.790458
0.662449 0.913759 0.881683
0.926758 0.926758 0.926758
0.987987 0.894791 0.879366
0.987632 0.860551 0.825311
0.986878 0.838308 0.779070
0.235070 0.923444 0.821997
0.228033 0.923277 0.815606
0.211613 0.921659 0.807039
0.207314 0.920099 0.800648
0.564082 0.950676 0.855367
0.852815 0.978437 0.914559
0.979502 0.981604 0.908628
0.981485 0.957630 0.864118
0.976219 0.947457 0.836070
0.235070 0.923444 0.821997
0.227056 0.922637 0.812898
0.208291 0.921076 0.801625
0.199301 0.919293 0.791550
0.449333 0.938969 0.822559
0.760547 0.969889 0.883616
0.935115 0.987586 0.917145
0.985362 0.992841 0.886801
0.982432 0.992599 0.870028
0.232725 0.923500 0.819289
0.214935 0.922915 0.808992
0.205945 0.921468 0.797188
0.204385 0.918851 0.789067
0.359019 0.930693 0.802223
0.686068 0.961926 0.862972
0.903252 0.983983 0.907910
0.985362 0.992841 0.886801
0.982823 0.991261 0.867320
0.130532 0.196448 0.607797
0.129364 0.191484 0.602160
0.179560 0.241631 0.640606
0.518461 0.352525 0.748368
0.825891 0.451420 0.880527
0.892346 0.473941 0.872952
0.885520 0.461486 0.835054
0.874978 0.445083 0.818676
0.865616 0.425000 0.792445
0.170512 0.303802 0.661165
0.181224 0.348875 0.675109
0.185112 0.376451 0.677113
0.449169 0.448742 0.751620
0.813902 0.524346 0.887689
0.902887 0.489002 0.896254
0.893906 0.481601 0.855118
0.884935 0.458836 0.833101
0.870105 0.430885 0.801765
0.189897 0.494645 0.698441
0.186775 0.487054 0.694312
0.190692 0.479629 0.696575
0.303486 0.490729 0.720508
0.773967 0.586578 0.886145
0.925721 0.530434 0.931410
0.912642 0.516147 0.876515
0.890393 0.478037 0.839851
0.868152 0.429268 0.798083
0.176299 0.617910 0.724739
0.179239 0.609845 0.724294
0.176902 0.598234 0.721673
0.176912 0.587239 0.718297
0.712116 0.672309 0.881054
0.946524 0.663587 0.962197
0.952241 0.617541 0.910181
0.937611 0.582918 0.878399
0.915361 0.546488 0.833082
0.098361 0.760270 0.761504
0.102670 0.751507 0.761059
0.116169 0.740209 0.758129
0.132801 0.725506 0.755953
0.600209 0.766520 0.860785
0.927057 0.795685 0.966973
0.981449 0.752851 0.933512
0.976586 0.728330 0.909765
0.967817 0.701247 0.875191
0.094942 0.868292 0.796762
0.088106 0.860448 0.795116
0.081270 0.852940 0.791741
0.061729 0.842052 0.787699
0.458191 0.863398 0.845792
0.877306 0.905817 0.958695
0.988369 0.888990 0.959637
0.986436 0.869415 0.928438
0.984693 0.852822 0.907091
0.243476 0.923919 0.823195
0.243476 0.923919 0.823195
0.235070 0.923444 0.821997
0.224318 0.922351 0.821551
0.351388 0.930807 0.838785
0.789671 0.966150 0.937843
0.970703 0.970703 0.970703
0.991834 0.955930 0.948515
0.988129 0.947371 0.933781
0.243476 0.923919 0.823195
0.243476 0.923919 0.823195
0.243476 0.923919 0.823195
0.243476 0.923919 0.823195
0.243476 0.923919 0.823195
0.692513 0.962707 0.910586
0.924746 0.988422 0.957167
0.991604 0.996594 0.953894
0.993366 0.996239 0.942536
0.243476 0.923919 0.823195
0.243476 0.923919 0.823195
0.243476 0.923919 0.823195
0.244453 0.924896 0.824172
0.235070 0.923444 0.821997
0.596137 0.955243 0.884837
0.883500 0.983702 0.944027
0.991604 0.996594 0.953894
0.990043 0.995992 0.935391
0.180065 0.331905 0.671290
0.179472 0.340250 0.672710
0.181195 0.383539 0.676582
0.396770 0.456944 0.735465
0.818555 0.569221 0.901410
0.924553 0.525133 0.927504
0.929235 0.539039 0.920719
0.929235 0.539039 0.920719
0.929235 0.539039 0.920719
0.182343 0.412511 0.678586
0.184890 0.406120 0.679117
0.185866 0.407432 0.678364
0.413190 0.459234 0.740571
0.796466 0.565731 0.891644
0.922005 0.530852 0.930433
0.929235 0.539039 0.920719
0.929235 0.539039 0.920719
0.929235 0.539039 0.920719
0.191073 0.489623 0.695511
0.187953 0.481361 0.694844
0.188547 0.473352 0.691692
0.315416 0.486125 0.721484
0.759298 0.593248 0.881707
0.938960 0.592449 0.945715
0.933131 0.554276 0.926269
0.927080 0.543084 0.922672
0.929235 0.539039 0.920719
0.176500 0.611240 0.724294
0.180224 0.599826 0.721894
0.182580 0.588774 0.721227
0.181221 0.578813 0.716121
0.709971 0.665695 0.877903
0.938883 0.682426 0.962333
0.961996 0.633260 0.949277
0.958292 0.622683 0.944926
0.953609 0.610794 0.941329
0.108338 0.753714 0.760527
0.113040 0.743278 0.759106
0.121847 0.730749 0.757684
0.132811 0.714846 0.750848
0.593181 0.754350 0.856210
0.904184 0.795208 0.960891
0.984963 0.752382 0.969543
0.984781 0.736053 0.968430
0.980492 0.721818 0.967317
0.097489 0.862238 0.795563
0.072078 0.855476 0.794228
0.073458 0.844120 0.789121
0.066622 0.836275 0.787477
0.427315 0.849104 0.837622
0.850929 0.887420 0.951277
0.988762 0.882274 0.984617
0.991127 0.861572 0.973653
0.990552 0.846918 0.973517
0.243476 0.923919 0.823195
0.236046 0.924420 0.822973
0.225295 0.923664 0.820796
0.205945 0.917435 0.817954
0.283171 0.914690 0.826570
0.760164 0.950823 0.931403
0.954092 0.960392 0.981704
0.990073 0.951580 0.984102
0.990666 0.943236 0.982680
0.243476 0.923919 0.823195
0.243476 0.923919 0.823195
0.243476 0.923919 0.823195
0.243476 0.923919 0.823195
0.243476 0.923919 0.823195
0.634060 0.958036 0.899485
0.900111 0.986956 0.969366
1.000000 1.000000 1.000000
0.995700 0.998104 0.995339
0.243476 0.923919 0.823195
0.243476 0.923919 0.823195
0.243476 0.923919 0.823195
0.243476 0.923919 0.823195
0.243476 0.923919 0.823195
0.508168 0.946239 0.870669
0.839708 0.981004 0.952852
0.982604 0.996734 0.993919
0.998047 0.999055 0.992855
0.185677 0.402435 0.678895
0.187630 0.404725 0.679117
0.185475 0.408770 0.681070
0.453841 0.471963 0.756863
0.834975 0.571175 0.908246
0.925329 0.533116 0.927195
0.929235 0.539039 0.920719
0.929235 0.539039 0.920719
0.929235 0.539039 0.920719
0.185475 0.409442 0.677609
0.187630 0.404725 0.679117
0.185475 0.408770 0.681070
0.432146 0.466464 0.747851
0.809565 0.566765 0.894797
0.923768 0.528145 0.931188
0.929235 0.539039 0.920719
0.929235 0.539039 0.920719
0.929235 0.539039 0.920719
0.187560 0.483370 0.694089
0.189524 0.474329 0.692669
0.192070 0.468273 0.691469
0.332621 0.485067 0.724637
0.770835 0.589982 0.885391
0.937994 0.579469 0.946555
0.930010 0.546686 0.922141
0.929235 0.539039 0.920719
0.929235 0.539039 0.920719
0.172986 0.605324 0.721140
0.179057 0.593853 0.721449
0.183174 0.580766 0.718074
0.181231 0.567146 0.716206
0.712517 0.659639 0.876702
0.940453 0.675057 0.961887
0.958090 0.629018 0.947102
0.953800 0.615454 0.942527
0.953417 0.605461 0.943591
0.107170 0.747741 0.760082
0.124777 0.734687 0.755422
0.137300 0.721739 0.754976
0.145918 0.705558 0.747164
0.602181 0.746147 0.857718
0.908492 0.785773 0.963905
0.984580 0.742388 0.970605
0.979314 0.727512 0.966784
0.977765 0.712554 0.962211
0.084783 0.858857 0.794895
0.090461 0.850069 0.790989
0.075611 0.839739 0.788899
0.053725 0.828571 0.783878
0.436505 0.845896 0.838598
0.853476 0.881028 0.951808
0.988379 0.872282 0.985679
0.989376 0.852612 0.972984
0.992124 0.839550 0.973071
0.236046 0.924420 0.822973
0.235070 0.923444 0.821997
0.220020 0.919784 0.820351
0.195978 0.912997 0.815555
0.291387 0.910505 0.826570
0.764664 0.947056 0.930426
0.956246 0.956010 0.981480
0.991249 0.945886 0.984633
0.991844 0.937205 0.984940
0.243476 0.923919 0.823195
0.243476 0.923919 0.823195
0.243476 0.923919 0.823195
0.243476 0.923919 0.823195
0.243476 0.923919 0.823195
0.636013 0.959989 0.901438
0.903826 0.986538 0.970343
1.000000 1.000000 1.000000
1.000000 1.000000 1.000000
0.243476 0.923919 0.823195
0.243476 0.923919 0.823195
0.243476 0.923919 0.823195
0.243476 0.923919 0.823195
0.243476 0.923919 0.823195
0.518527 0.948668 0.873819
0.843422 0.980585 0.953828
0.984950 0.997348 0.993164
1.000000 1.000000 1.000000
