lut/fujifilm/F-Log/F-Log_LUT_E_Ver.1.27/X-T30II/XT30II_FLog_FGamut_to_ETERNA-BB_BT.709_33grid_V.1.01.cube
#title:FLog_FGamut_to_ETERNA-BB_BT.709
#FUJIFILM Corporation
#Gamma:F-Log to ETERNA BLEACH BYPASS
#Gamut:F-Gamut to ITU-R BT.709
#Version:1.01
LUT_3D_SIZE 5
0.000000 0.000000 0.000000
0.508483 0.017067 0.120406
0.654319 0.023051 0.169680
0.654319 0.023051 0.169680
0.654319 0.023051 0.169680
0.030387 0.128945 0.027324
0.274463 0.259431 0.051613
0.704207 0.204847 0.224929
0.657831 0.029303 0.171102
0.656665 0.023666 0.168925
0.010407 0.606784 0.206306
0.080310 0.487961 0.155079
0.853212 0.852686 0.327473
0.899516 0.648582 0.366077
0.791053 0.377801 0.288746
0.523297 0.932849 0.480183
0.471702 0.919409 0.436289
0.675224 0.926881 0.412265
0.949498 0.969860 0.328222
0.945852 0.884574 0.348614
0.617900 0.947293 0.543164
0.619662 0.946939 0.531804
0.684959 0.953164 0.516948
0.848009 0.966250 0.467363
0.950083 0.972846 0.328446
0.021073 0.006836 0.226485
0.175746 0.010659 0.040981
0.654319 0.023051 0.169680
0.654319 0.023051 0.169680
0.654319 0.023051 0.169680
0.028956 0.370771 0.370652
0.101563 0.101563 0.101563
0.489256 0.097507 0.116429
0.668938 0.072365 0.185801
0.656665 0.023666 0.168925
0.000000 0.622115 0.361257
0.089644 0.524898 0.274496
0.532276 0.517916 0.305966
0.905950 0.670105 0.366884
0.799832 0.398930 0.293989
0.492964 0.935947 0.638015
0.454467 0.923878 0.595543
0.679492 0.932859 0.575871
0.929172 0.940139 0.440344
0.947997 0.891860 0.348305
0.633515 0.951397 0.678105
0.634300 0.950738 0.662309
0.701359 0.955600 0.641285
0.851898 0.969966 0.592231
0.950083 0.972846 0.328446
0.091777 0.013302 0.615957
0.169445 0.013726 0.298699
0.630076 0.023607 0.161867
0.654319 0.023051 0.169680
0.654319 0.023051 0.169680
0.156015 0.343172 0.633528
0.098967 0.120248 0.337676
0.506594 0.136162 0.300234
0.656665 0.023666 0.168925
0.664266 0.049481 0.178827
0.000000 0.805867 0.734879
0.046156 0.574784 0.542871
0.576172 0.576172 0.576172
0.890575 0.568636 0.458532
0.813303 0.419943 0.304645
0.362543 0.931327 0.772583
0.352395 0.914257 0.750035
0.649352 0.931880 0.779895
0.940851 0.944418 0.730324
0.949969 0.854348 0.433491
0.556471 0.947282 0.790004
0.577784 0.947829 0.774121
0.686280 0.959048 0.783012
0.861441 0.974785 0.782239
0.956104 0.978039 0.542903
0.106043 0.013588 0.654165
0.106043 0.013588 0.654165
0.679612 0.084793 0.607794
0.656665 0.023666 0.168925
0.654319 0.023051 0.169680
0.156132 0.198124 0.660515
0.159264 0.194383 0.663000
0.543253 0.183447 0.654481
0.721412 0.167830 0.413242
0.693313 0.144120 0.206411
0.150216 0.707790 0.750093
0.146703 0.702211 0.745211
0.524316 0.594708 0.762359
0.936816 0.605999 0.838734
0.880617 0.528332 0.580812
0.179952 0.908025 0.814665
0.176628 0.906433 0.814440
0.475559 0.903011 0.844696
0.934570 0.934570 0.934570
0.984493 0.874279 0.831395
0.257944 0.925600 0.819425
0.338684 0.930787 0.820813
0.537886 0.948270 0.850793
0.838739 0.977098 0.906968
0.982823 0.991933 0.863859
0.106043 0.013588 0.654165
0.106043 0.013588 0.654165
0.631872 0.095283 0.764649
0.708364 0.082582 0.543766
0.690613 0.058854 0.412681
0.145047 0.129375 0.658102
0.143879 0.123402 0.657657
0.367114 0.156651 0.706192
0.776453 0.208365 0.771172
0.758683 0.213347 0.612227
0.189302 0.502990 0.699863
0.186765 0.498049 0.697688
0.185387 0.510078 0.699332
0.902618 0.570285 0.932438
0.907951 0.520630 0.848606
0.081270 0.852940 0.791741
0.067798 0.831254 0.784547
0.035352 0.823319 0.782012
0.832758 0.876170 0.945504
0.988006 0.855326 0.962602
0.244453 0.924896 0.824172
0.244453 0.924896 0.824172
0.244453 0.924896 0.824172
0.693096 0.964349 0.917731
1.000000 1.000000 1.000000
