lut/fujifilm/F-Log/F-Log_LUT_E_Ver.1.27/X-T30II/XT30II_FLog_FGamut_to_ETERNA-BB_BT.709_33grid_V.1.01.cube
#title:FLog_FGamut_to_ETERNA-BB_BT.709
#FUJIFILM Corporation
#Gamma:F-Log to ETERNA BLEACH BYPASS
#Gamut:F-Gamut to ITU-R BT.709
#Version:1.01
LUT_3D_SIZE 9
0.000000 0.000000 0.000000
0.133523 0.006978 0.016479
0.508483 0.017067 0.120406
0.654319 0.023051 0.169680
0.654319 0.023051 0.169680
0.654319 0.023051 0.169680
0.654319 0.023051 0.169680
0.654319 0.023051 0.169680
0.654319 0.023051 0.169680
0.003293 0.035249 0.006887
0.060557 0.058626 0.010449
0.343680 0.013506 0.074148
0.597236 0.019699 0.148195
0.654319 0.023051 0.169680
0.654319 0.023051 0.169680
0.654319 0.023051 0.169680
0.654319 0.023051 0.169680
0.654319 0.023051 0.169680
0.030387 0.128945 0.027324
0.016725 0.102933 0.017200
0.274463 0.259431 0.051613
0.587477 0.229885 0.170874
0.704207 0.204847 0.224929
0.689607 0.132535 0.207249
0.657831 0.029303 0.171102
0.656665 0.023666 0.168925
0.656665 0.023666 0.168925
0.000110 0.319872 0.083055
0.020303 0.256782 0.063695
0.090329 0.217904 0.045945
0.626639 0.606536 0.261758
0.828791 0.595549 0.336371
0.823643 0.445372 0.309356
0.733093 0.259825 0.251571
0.705979 0.190809 0.224038
0.706572 0.182464 0.222618
0.010407 0.606784 0.206306
0.000000 0.535068 0.174780
0.080310 0.487961 0.155079
0.268992 0.466378 0.165390
0.853212 0.852686 0.327473
0.939065 0.814361 0.368163
0.899516 0.648582 0.366077
0.818961 0.433146 0.307488
0.791053 0.377801 0.288746
0.287235 0.827029 0.342130
0.246401 0.799317 0.317801
0.246621 0.773007 0.298491
0.398335 0.770590 0.307074
0.606731 0.786545 0.329379
0.926845 0.939041 0.323597
0.947603 0.894206 0.345820
0.931664 0.778516 0.375121
0.908869 0.685037 0.367996
0.523297 0.932849 0.480183
0.493195 0.929226 0.457860
0.471702 0.919409 0.436289
0.542283 0.917512 0.423694
0.675224 0.926881 0.412265
0.827128 0.934837 0.392628
0.949498 0.969860 0.328222
0.948158 0.934211 0.335402
0.945852 0.884574 0.348614
0.589169 0.942974 0.520841
0.578810 0.941552 0.512497
0.568449 0.940132 0.504153
0.610088 0.946539 0.499012
0.695913 0.951953 0.494453
0.804609 0.962551 0.471750
0.904125 0.970401 0.418739
0.950083 0.972846 0.328446
0.948330 0.963551 0.329508
0.617900 0.947293 0.543164
0.620638 0.946907 0.537972
0.619662 0.946939 0.531804
0.642534 0.950105 0.524042
0.684959 0.953164 0.516948
0.759638 0.960506 0.506001
0.848009 0.966250 0.467363
0.928176 0.972242 0.389011
0.950083 0.972846 0.328446
0.003513 0.000000 0.034302
0.125118 0.006166 0.017013
0.503792 0.016845 0.116722
0.654319 0.023051 0.169680
0.654319 0.023051 0.169680
0.654319 0.023051 0.169680
0.654319 0.023051 0.169680
0.654319 0.023051 0.169680
0.654319 0.023051 0.169680
0.003425 0.094118 0.088902
0.016602 0.016602 0.016602
0.336251 0.014342 0.072195
0.589806 0.020200 0.147972
0.654319 0.023051 0.169680
0.654319 0.023051 0.169680
0.654319 0.023051 0.169680
0.654319 0.023051 0.169680
0.654319 0.023051 0.169680
0.023732 0.129026 0.070054
0.013393 0.106287 0.051500
0.093760 0.095189 0.026347
0.585716 0.233265 0.166661
0.703614 0.213192 0.226351
0.693121 0.138788 0.208671
0.664266 0.049481 0.178827
0.656665 0.023666 0.168925
0.656665 0.023666 0.168925
0.000684 0.325452 0.129914
0.006802 0.261358 0.101235
0.090511 0.225494 0.092051
0.221125 0.210913 0.081548
0.830544 0.604509 0.337039
0.830669 0.457204 0.315660
0.737582 0.267726 0.250507
0.706562 0.193460 0.225991
0.705787 0.186148 0.222840
0.000000 0.612611 0.255426
0.000000 0.546342 0.221108
0.089089 0.501696 0.198391
0.274248 0.485191 0.208926
0.513731 0.497103 0.239043
0.940625 0.818997 0.365903
0.903221 0.660168 0.365238
0.824227 0.448022 0.311309
0.800426 0.390248 0.294296
0.273925 0.829545 0.415477
0.234461 0.802815 0.382496
0.241719 0.779025 0.357466
0.401257 0.776449 0.354910
0.610627 0.794725 0.371269
0.816675 0.814435 0.371831
0.946818 0.898562 0.342581
0.934594 0.782454 0.372859
0.911598 0.695309 0.367910
0.516049 0.935563 0.553755
0.488685 0.930881 0.529699
0.467584 0.919726 0.505423
0.547156 0.920955 0.495980
0.680488 0.928650 0.483574
0.828097 0.937398 0.445434
0.925477 0.939402 0.325327
0.946790 0.935244 0.333672
0.947805 0.887536 0.345375
0.597173 0.944693 0.585226
0.584074 0.945002 0.575153
0.578406 0.943803 0.570492
0.617116 0.947617 0.560692
0.697856 0.953811 0.556887
0.808899 0.964016 0.538622
0.904509 0.970985 0.466129
0.950083 0.972846 0.328446
0.946568 0.965922 0.330484
0.629619 0.948594 0.608527
0.627666 0.947985 0.599653
0.623366 0.947770 0.586339
0.646241 0.950935 0.578578
0.693356 0.954889 0.571707
0.762368 0.960696 0.557828
0.848393 0.966498 0.516485
0.928952 0.972832 0.426773
0.950083 0.972846 0.328446
0.021073 0.006836 0.226485
0.037521 0.006388 0.065723
0.175746 0.010659 0.040981
0.649628 0.022829 0.165996
0.654319 0.023051 0.169680
0.654319 0.023051 0.169680
0.654319 0.023051 0.169680
0.654319 0.023051 0.169680
0.654319 0.023051 0.169680
0.047179 0.101476 0.296043
0.020057 0.058578 0.194016
0.098520 0.006684 0.066972
0.298910 0.013527 0.062960
0.654319 0.023051 0.169680
0.654319 0.023051 0.169680
0.654319 0.023051 0.169680
0.654319 0.023051 0.169680
0.654319 0.023051 0.169680
0.028956 0.370771 0.370652
0.010852 0.293310 0.285879
0.101563 0.101563 0.101563
0.247610 0.098282 0.103754
0.489256 0.097507 0.116429
0.693503 0.148444 0.209340
0.668938 0.072365 0.185801
0.657831 0.029303 0.171102
0.656665 0.023666 0.168925
0.000271 0.335001 0.210321
0.000330 0.274072 0.164114
0.093814 0.240003 0.145746
0.230095 0.224603 0.150285
0.473112 0.222123 0.168153
0.833982 0.470126 0.317527
0.741680 0.276629 0.253882
0.710077 0.199712 0.227414
0.706955 0.191785 0.225014
0.000000 0.622115 0.361257
0.000651 0.563843 0.307375
0.089644 0.524898 0.274496
0.285172 0.502516 0.270964
0.532276 0.517916 0.305966
0.764710 0.547379 0.298456
0.905950 0.670105 0.366884
0.827931 0.459271 0.312199
0.799832 0.398930 0.293989
0.245950 0.832681 0.515536
0.204722 0.809331 0.478339
0.230746 0.789454 0.452468
0.399082 0.786690 0.444945
0.614907 0.805169 0.451899
0.826824 0.823103 0.437641
0.935542 0.820784 0.361465
0.933416 0.788149 0.372328
0.913743 0.702259 0.369333
0.492964 0.935947 0.638015
0.462864 0.932324 0.615690
0.454467 0.923878 0.595543
0.533063 0.924467 0.583395
0.679492 0.932859 0.575871
0.833161 0.940461 0.544874
0.929172 0.940139 0.440344
0.947767 0.936557 0.332918
0.947997 0.891860 0.348305
0.597354 0.947241 0.657288
0.586995 0.946156 0.647216
0.581326 0.944958 0.642554
0.625703 0.949298 0.640876
0.701359 0.955600 0.641285
0.812010 0.966470 0.629188
0.908988 0.973078 0.554965
0.949480 0.975046 0.421496
0.946568 0.966258 0.328753
0.633515 0.951397 0.678105
0.634885 0.952043 0.671183
0.634300 0.950738 0.662309
0.657566 0.952229 0.653571
0.701359 0.955600 0.641285
0.765679 0.961185 0.623723
0.851898 0.969966 0.592231
0.927965 0.972432 0.482816
0.950083 0.972846 0.328446
0.056802 0.013294 0.485008
0.030273 0.007084 0.149676
0.169666 0.013968 0.142683
0.453938 0.016638 0.111481
0.654319 0.023051 0.169680
0.654319 0.023051 0.169680
0.654319 0.023051 0.169680
0.654319 0.023051 0.169680
0.654319 0.023051 0.169680
0.094647 0.104719 0.523196
0.069478 0.061421 0.435234
0.094987 0.010323 0.134599
0.298307 0.016736 0.150820
0.547191 0.016849 0.131371
0.654319 0.023051 0.169680
0.654319 0.023051 0.169680
0.654319 0.023051 0.169680
0.654319 0.023051 0.169680
0.112797 0.372603 0.552504
0.099374 0.303671 0.488633
0.099198 0.110167 0.174825
0.243482 0.109930 0.174532
0.497048 0.114875 0.195019
0.655026 0.109008 0.187805
0.674395 0.091902 0.190821
0.664266 0.049481 0.178827
0.657831 0.029303 0.171102
0.016158 0.660998 0.623071
0.009754 0.613213 0.577531
0.098083 0.256736 0.253977
0.242188 0.242188 0.242188
0.490478 0.244260 0.257040
0.677188 0.253804 0.215044
0.747731 0.288157 0.255750
0.711053 0.201360 0.224929
0.710468 0.198374 0.224707
0.000000 0.636573 0.491984
0.000000 0.589656 0.443206
0.094881 0.549905 0.406114
0.298421 0.531690 0.394375
0.552954 0.549615 0.414024
0.792236 0.573576 0.416899
0.860703 0.541826 0.340844
0.835542 0.474090 0.318726
0.806860 0.410762 0.300294
0.178871 0.834687 0.621179
0.149372 0.812396 0.590598
0.183017 0.797015 0.564418
0.389671 0.797050 0.561915
0.619961 0.815194 0.575480
0.835987 0.832381 0.554302
0.939629 0.825559 0.446086
0.914710 0.714904 0.370223
0.915494 0.711219 0.370000
0.455414 0.935658 0.720856
0.426682 0.931002 0.700262
0.419655 0.921523 0.681845
0.518385 0.922975 0.680969
0.673412 0.934489 0.686227
0.836071 0.942864 0.670496
0.933451 0.941508 0.567695
0.953443 0.908614 0.427649
0.947603 0.894543 0.344089
0.568018 0.946801 0.719363
0.557657 0.944708 0.714480
0.558051 0.944379 0.706582
0.614156 0.950116 0.709785
0.706816 0.959341 0.727637
0.812382 0.969310 0.724945
0.911898 0.977162 0.671933
0.950829 0.977855 0.523423
0.945995 0.951604 0.328617
0.605942 0.948923 0.737472
0.614741 0.949741 0.727312
0.616109 0.950724 0.718661
0.655795 0.953834 0.718488
0.711900 0.959233 0.723421
0.773483 0.965204 0.711050
0.856377 0.972059 0.681066
0.931267 0.976858 0.588426
0.949480 0.974374 0.424957
0.091777 0.013302 0.615957
0.086502 0.014126 0.591285
0.169445 0.013726 0.298699
0.457623 0.022993 0.257559
0.630076 0.023607 0.161867
0.654319 0.023051 0.169680
0.654319 0.023051 0.169680
0.654319 0.023051 0.169680
0.654319 0.023051 0.169680
0.118296 0.095031 0.622414
0.100547 0.051811 0.591696
0.096135 0.010057 0.287152
0.307669 0.020015 0.263574
0.557531 0.022784 0.236450
0.654319 0.023051 0.169680
0.654319 0.023051 0.169680
0.654319 0.023051 0.169680
0.654319 0.023051 0.169680
0.156015 0.343172 0.633528
0.142575 0.290516 0.605824
0.098967 0.120248 0.337676
0.250682 0.125560 0.306457
0.506594 0.136162 0.300234
0.666150 0.121343 0.240746
0.656665 0.023666 0.168925
0.669139 0.066031 0.183625
0.664266 0.049481 0.178827
0.128780 0.635363 0.690968
0.120605 0.598257 0.663625
0.093928 0.286245 0.412750
0.250545 0.271090 0.396968
0.506649 0.282654 0.410980
0.704501 0.289935 0.377106
0.730363 0.250561 0.246465
0.712411 0.210986 0.231765
0.713983 0.203954 0.229590
0.000000 0.805867 0.734879
0.000196 0.793204 0.720898
0.046156 0.574784 0.542871
0.297790 0.559146 0.537352
0.576172 0.576172 0.576172
0.819561 0.598039 0.579046
0.890575 0.568636 0.458532
0.805883 0.409785 0.299317
0.813303 0.419943 0.304645
0.000000 0.829252 0.699652
0.000578 0.811263 0.678306
0.071170 0.798707 0.660606
0.353478 0.802353 0.672355
0.613287 0.821472 0.706293
0.840255 0.840041 0.709253
0.957781 0.831578 0.598777
0.941852 0.736483 0.462039
0.891713 0.628431 0.361813
0.362543 0.931327 0.772583
0.340656 0.921840 0.758911
0.352395 0.914257 0.750035
0.475166 0.921488 0.759149
0.649352 0.931880 0.779895
0.831944 0.945102 0.789726
0.940851 0.944418 0.730324
0.963581 0.910129 0.590277
0.949969 0.854348 0.433491
0.513855 0.943259 0.776863
0.509558 0.941699 0.770473
0.510926 0.941674 0.767013
0.577784 0.947829 0.774121
0.681195 0.958483 0.790688
0.809434 0.971566 0.815289
0.913439 0.981270 0.792363
0.966635 0.982586 0.680327
0.952418 0.951859 0.498921
0.556471 0.947282 0.790004
0.565270 0.947428 0.783305
0.577784 0.947829 0.774121
0.619422 0.952893 0.775902
0.686280 0.959048 0.783012
0.776986 0.967329 0.793718
0.861441 0.974785 0.782239
0.938870 0.979483 0.717731
0.956104 0.978039 0.542903
0.106043 0.013588 0.654165
0.106043 0.013588 0.654165
0.156308 0.017352 0.511512
0.467158 0.034438 0.473437
0.649387 0.040881 0.347797
0.656665 0.023666 0.168925
0.654319 0.023051 0.169680
0.654319 0.023051 0.169680
0.654319 0.023051 0.169680
0.125162 0.061490 0.657195
0.107412 0.013899 0.648973
0.082415 0.014056 0.482437
0.307439 0.023375 0.461034
0.575473 0.041764 0.417187
0.668565 0.035581 0.264822
0.656665 0.023666 0.168925
0.654319 0.023051 0.169680
0.654319 0.023051 0.169680
0.175806 0.283341 0.666973
0.164883 0.256270 0.655118
0.149851 0.232637 0.636339
0.253571 0.140208 0.489011
0.538408 0.162142 0.494199
0.691704 0.156484 0.421090
0.687462 0.126257 0.202366
0.656665 0.023666 0.168925
0.669139 0.066031 0.183625
0.181019 0.585147 0.718297
0.170095 0.559085 0.701250
0.163078 0.537267 0.686379
0.244434 0.299318 0.550328
0.530831 0.319839 0.584403
0.742165 0.332098 0.583766
0.769397 0.300092 0.411593
0.719239 0.229825 0.236784
0.711053 0.201360 0.224929
0.066085 0.778986 0.766918
0.051628 0.768326 0.756929
0.061807 0.757117 0.745125
0.258265 0.574862 0.645753
0.571049 0.598415 0.706368
0.827334 0.620595 0.750910
0.918865 0.597344 0.664832
0.871647 0.521364 0.477465
0.818378 0.419405 0.362641
0.097085 0.875579 0.796453
0.044695 0.870769 0.787304
0.019678 0.863342 0.779801
0.262953 0.796622 0.733712
0.577105 0.820150 0.790863
0.838867 0.838867 0.838867
0.975350 0.826209 0.794508
0.971905 0.762818 0.667363
0.941297 0.686061 0.526102
0.146718 0.908815 0.786395
0.138514 0.902676 0.779559
0.183484 0.899007 0.774727
0.377614 0.907284 0.796895
0.595974 0.925327 0.833711
0.816097 0.940662 0.871281
0.943178 0.942827 0.860914
0.977627 0.912527 0.772387
0.970064 0.865249 0.633043
0.414148 0.934780 0.807910
0.414148 0.935116 0.806180
0.423531 0.937578 0.803164
0.508571 0.943315 0.816133
0.633094 0.956483 0.841488
0.785182 0.971356 0.871418
0.912836 0.984142 0.881952
0.979119 0.987406 0.828360
0.964893 0.955910 0.710895
0.461455 0.940370 0.817812
0.483351 0.941215 0.815995
0.494103 0.943314 0.811250
0.550208 0.948379 0.817914
0.638963 0.954707 0.826668
0.747067 0.965919 0.845187
0.865922 0.977887 0.865884
0.940995 0.986243 0.840113
0.969756 0.984464 0.713874
0.106043 0.013588 0.654165
0.106043 0.013588 0.654165
0.106043 0.013588 0.654165
0.453045 0.044481 0.647204
0.679612 0.084793 0.607794
0.676759 0.043305 0.323484
0.656665 0.023666 0.168925
0.656665 0.023666 0.168925
0.654319 0.023051 0.169680
0.108973 0.016518 0.657095
0.106043 0.013588 0.654165
0.106043 0.013588 0.654165
0.282976 0.022682 0.614430
0.591451 0.065752 0.620114
0.706611 0.078327 0.518871
0.664859 0.029374 0.237972
0.656665 0.023666 0.168925
0.656665 0.023666 0.168925
0.156132 0.198124 0.660515
0.157894 0.195417 0.661270
0.159264 0.194383 0.663000
0.221097 0.143077 0.610813
0.543253 0.183447 0.654481
0.722914 0.197770 0.640618
0.721412 0.167830 0.413242
0.701699 0.158184 0.257621
0.693313 0.144120 0.206411
0.192262 0.473270 0.690938
0.192262 0.473270 0.690938
0.191093 0.467296 0.690492
0.196515 0.307931 0.631660
0.523374 0.333832 0.694673
0.767729 0.358934 0.746891
0.811168 0.336465 0.637290
0.769397 0.301100 0.406403
0.759641 0.285044 0.369035
0.150216 0.707790 0.750093
0.152370 0.703745 0.748140
0.146703 0.702211 0.745211
0.155034 0.569445 0.687405
0.524316 0.594708 0.762359
0.823600 0.624519 0.851859
0.936816 0.605999 0.838734
0.903250 0.567027 0.664866
0.880617 0.528332 0.580812
0.067599 0.837252 0.788454
0.059584 0.835102 0.786277
0.051179 0.834626 0.785079
0.051570 0.832616 0.785831
0.491875 0.802022 0.816496
0.810125 0.830419 0.897788
0.961648 0.821660 0.913824
0.977724 0.785436 0.826890
0.974643 0.744956 0.752157
0.179952 0.908025 0.814665
0.177605 0.907745 0.813688
0.176628 0.906433 0.814440
0.134033 0.880084 0.796281
0.475559 0.903011 0.844696
0.763708 0.927450 0.905396
0.934570 0.934570 0.934570
0.986991 0.912445 0.902446
0.984493 0.874279 0.831395
0.221973 0.922409 0.818843
0.228033 0.923277 0.815606
0.246215 0.924204 0.814542
0.370940 0.932717 0.829071
0.533780 0.948346 0.861175
0.732196 0.967497 0.901761
0.894644 0.984800 0.934843
0.984385 0.985142 0.920433
0.981485 0.956622 0.869308
0.257944 0.925600 0.819425
0.306427 0.927513 0.819476
0.338684 0.930787 0.820813
0.420984 0.938255 0.832051
0.537886 0.948270 0.850793
0.682937 0.961971 0.879523
0.838739 0.977098 0.906968
0.939415 0.989483 0.921804
0.982823 0.991933 0.863859
0.106043 0.013588 0.654165
0.106043 0.013588 0.654165
0.106043 0.013588 0.654165
0.362327 0.035431 0.700438
0.678988 0.103606 0.735281
0.718119 0.094941 0.600168
0.675008 0.038378 0.302051
0.668374 0.032601 0.254968
0.660761 0.026184 0.205180
0.112103 0.013113 0.657848
0.106043 0.013588 0.654165
0.106043 0.013588 0.654165
0.186784 0.016758 0.665933
0.575203 0.072300 0.714671
0.725318 0.114940 0.709597
0.695295 0.064022 0.450887
0.675008 0.038042 0.303782
0.669541 0.035213 0.272719
0.149135 0.149946 0.661390
0.148158 0.148969 0.660413
0.149135 0.149946 0.661390
0.149718 0.152932 0.661614
0.505902 0.180521 0.716110
0.735398 0.208304 0.759230
0.759076 0.205624 0.642398
0.729406 0.189954 0.432550
0.721210 0.179542 0.387730
0.183560 0.361156 0.674269
0.183560 0.361156 0.674269
0.181607 0.359203 0.672316
0.179845 0.361238 0.675023
0.446156 0.318526 0.719020
0.757943 0.357716 0.813093
0.837525 0.348958 0.795086
0.805902 0.328310 0.598860
0.791455 0.313376 0.550886
0.176309 0.606579 0.723093
0.175332 0.605602 0.722116
0.172986 0.605324 0.721140
0.176309 0.606579 0.723093
0.401765 0.556800 0.756434
0.783924 0.603692 0.883266
0.931148 0.589342 0.913676
0.918090 0.563146 0.800118
0.899746 0.535327 0.734480
0.093459 0.776369 0.768562
0.093459 0.776369 0.768562
0.093459 0.776369 0.768562
0.096781 0.777961 0.768786
0.302476 0.749651 0.786242
0.733119 0.799463 0.907934
0.943869 0.798319 0.960720
0.982023 0.771537 0.912882
0.970525 0.737543 0.861090
0.102955 0.870444 0.798938
0.100610 0.869827 0.799692
0.100610 0.869827 0.799692
0.100610 0.869827 0.799692
0.214209 0.857605 0.804539
0.658744 0.898813 0.899828
0.901932 0.915925 0.961985
0.987967 0.903003 0.957066
0.982913 0.876846 0.916547
0.235070 0.923444 0.821997
0.235070 0.923444 0.821997
0.235070 0.923444 0.821997
0.235070 0.923444 0.821997
0.318156 0.927228 0.833012
0.603959 0.951388 0.892734
0.844016 0.972242 0.952407
0.972656 0.972656 0.972656
0.991834 0.955930 0.948515
0.244453 0.924896 0.824172
0.244453 0.924896 0.824172
0.244453 0.924896 0.824172
0.244453 0.924896 0.824172
0.322456 0.929796 0.834212
0.552153 0.949900 0.882078
0.775396 0.971482 0.930699
0.928461 0.988005 0.958144
0.990628 0.995954 0.951188
0.106043 0.013588 0.654165
0.106043 0.013588 0.654165
0.106043 0.013588 0.654165
0.144751 0.013369 0.665129
0.631872 0.095283 0.764649
0.742313 0.124154 0.754641
0.708364 0.082582 0.543766
0.699393 0.068556 0.476757
0.690613 0.058854 0.412681
0.112103 0.013113 0.657848
0.106043 0.013588 0.654165
0.106043 0.013588 0.654165
0.106043 0.013588 0.654165
0.488996 0.054540 0.732406
0.723739 0.120869 0.777447
0.728851 0.106596 0.666199
0.708364 0.082582 0.543766
0.701537 0.072817 0.492024
0.145047 0.129375 0.658102
0.143879 0.123402 0.657657
0.143879 0.123402 0.657657
0.143879 0.123402 0.657657
0.367114 0.156651 0.706192
0.710371 0.204143 0.794903
0.776453 0.208365 0.771172
0.768640 0.221724 0.654339
0.758683 0.213347 0.612227
0.170541 0.267793 0.666613
0.168588 0.265840 0.664660
0.175041 0.264362 0.663907
0.170541 0.268129 0.664884
0.258529 0.253126 0.682683
0.689919 0.343907 0.814192
0.841442 0.329771 0.857914
0.832259 0.339795 0.761848
0.822302 0.329066 0.731848
0.189302 0.502990 0.699863
0.190873 0.495957 0.697688
0.186765 0.498049 0.697688
0.185981 0.501398 0.699642
0.185387 0.510078 0.699332
0.661191 0.556850 0.838156
0.902618 0.570285 0.932438
0.922005 0.539590 0.885440
0.907951 0.520630 0.848606
0.137300 0.721739 0.754976
0.152180 0.699085 0.746942
0.155502 0.700676 0.747164
0.146703 0.702211 0.745211
0.150026 0.703466 0.747164
0.578552 0.715696 0.845196
0.889544 0.767212 0.954980
0.982828 0.734100 0.966477
0.975035 0.708332 0.931148
0.081270 0.852940 0.791741
0.059383 0.841774 0.786723
0.067798 0.831254 0.784547
0.035352 0.823319 0.782012
0.035352 0.823319 0.782012
0.432218 0.832669 0.832294
0.832758 0.876170 0.945504
0.975664 0.880903 0.983194
0.988006 0.855326 0.962602
0.235070 0.923444 0.821997
0.225295 0.923664 0.820796
0.207899 0.919726 0.818176
0.190893 0.913776 0.816308
0.183273 0.909617 0.814887
0.321891 0.904484 0.828969
0.737694 0.937004 0.924431
0.942171 0.953664 0.979081
0.990666 0.943236 0.982680
0.244453 0.924896 0.824172
0.244453 0.924896 0.824172
0.244453 0.924896 0.824172
0.244453 0.924896 0.824172
0.244453 0.924896 0.824172
0.430558 0.940336 0.856191
0.693096 0.964349 0.917731
0.893074 0.985783 0.968168
1.000000 1.000000 1.000000
