lut/fujifilm/F-Log/F-Log_LUT_E_Ver.1.27/X-T30II/XT30II_FLog_FGamut_to_ETERNA-BB_BT.709_33grid_V.1.01.cube
#title:FLog_FGamut_to_ETERNA-BB_BT.709
#FUJIFILM Corporation
#Gamma:F-Log to ETERNA BLEACH BYPASS
#Gamut:F-Gamut to ITU-R BT.709
#Version:1.01
LUT_3D_SIZE 33
0.000000 0.000000 0.000000
0.000000 0.000000 0.000000
0.020528 0.000534 0.003375
0.067834 0.006797 0.009817
0.133523 0.006978 0.016479
0.225993 0.010535 0.038324
0.330189 0.014144 0.071972
0.429504 0.013543 0.097278
0.508483 0.017067 0.120406
0.570065 0.016989 0.139183
0.614049 0.019979 0.154055
0.638875 0.022409 0.162089
0.654319 0.023051 0.169680
0.654319 0.023051 0.169680
0.654319 0.023051 0.169680
0.654319 0.023051 0.169680
0.654319 0.023051 0.169680
0.654319 0.023051 0.169680
0.654319 0.023051 0.169680
0.654319 0.023051 0.169680
0.654319 0.023051 0.169680
0.654319 0.023051 0.169680
0.654319 0.023051 0.169680
0.654319 0.023051 0.169680
0.654319 0.023051 0.169680
0.654319 0.023051 0.169680
0.654319 0.023051 0.169680
0.654319 0.023051 0.169680
0.654319 0.023051 0.169680
0.654319 0.023051 0.169680
0.654319 0.023051 0.169680
0.654319 0.023051 0.169680
0.654319 0.023051 0.169680
0.000000 0.000000 0.000000
0.000000 0.000000 0.000000
0.000000 0.000000 0.000000
0.049068 0.002882 0.010657
0.106543 0.007249 0.017320
0.184938 0.010475 0.026383
0.290505 0.014060 0.056570
0.393141 0.014041 0.087288
0.481311 0.014022 0.113125
0.540155 0.016011 0.128441
0.588830 0.019559 0.145266
0.622455 0.020119 0.156984
0.643566 0.022968 0.164042
0.654319 0.023051 0.169680
0.654319 0.023051 0.169680
0.654319 0.023051 0.169680
0.654319 0.023051 0.169680
0.654319 0.023051 0.169680
0.654319 0.023051 0.169680
0.654319 0.023051 0.169680
0.654319 0.023051 0.169680
0.654319 0.023051 0.169680
0.654319 0.023051 0.169680
0.654319 0.023051 0.169680
0.654319 0.023051 0.169680
0.654319 0.023051 0.169680
0.654319 0.023051 0.169680
0.654319 0.023051 0.169680
0.654319 0.023051 0.169680
0.654319 0.023051 0.169680
0.654319 0.023051 0.169680
0.654319 0.023051 0.169680
0.654319 0.023051 0.169680
0.000000 0.000000 0.000000
0.000000 0.000000 0.000000
0.000000 0.000000 0.000000
0.029517 0.003661 0.006527
0.079955 0.006518 0.013723
0.147990 0.007315 0.019633
0.244758 0.013442 0.042676
0.348371 0.014400 0.074372
0.439280 0.012986 0.100208
0.507507 0.016427 0.117699
0.564004 0.017129 0.137230
0.601927 0.020257 0.150148
0.630076 0.023607 0.161867
0.654319 0.023723 0.166220
0.654319 0.023051 0.169680
0.654319 0.023051 0.169680
0.654319 0.023051 0.169680
0.654319 0.023051 0.169680
0.654319 0.023051 0.169680
0.654319 0.023051 0.169680
0.654319 0.023051 0.169680
0.654319 0.023051 0.169680
0.654319 0.023051 0.169680
0.654319 0.023051 0.169680
0.654319 0.023051 0.169680
0.654319 0.023051 0.169680
0.654319 0.023051 0.169680
0.654319 0.023051 0.169680
0.654319 0.023051 0.169680
0.654319 0.023051 0.169680
0.654319 0.023051 0.169680
0.654319 0.023051 0.169680
0.654319 0.023051 0.169680
0.003313 0.013259 0.000136
0.000383 0.009657 0.000667
0.000583 0.002987 0.000222
0.002930 0.003602 0.000000
0.063535 0.003891 0.010348
0.116319 0.007364 0.016789
0.199404 0.010141 0.032996
0.296564 0.013249 0.061984
0.390795 0.013426 0.088044
0.472904 0.013881 0.110195
0.532724 0.016848 0.126488
0.582185 0.016711 0.143089
0.614049 0.019979 0.154055
0.639852 0.023386 0.163066
0.654319 0.023051 0.169680
0.654319 0.023051 0.169680
0.654319 0.023051 0.169680
0.654319 0.023051 0.169680
0.654319 0.023051 0.169680
0.654319 0.023051 0.169680
0.654319 0.023051 0.169680
0.654319 0.023051 0.169680
0.654319 0.023051 0.169680
0.654319 0.023051 0.169680
0.654319 0.023051 0.169680
0.654319 0.023051 0.169680
0.654319 0.023051 0.169680
0.654319 0.023051 0.169680
0.654319 0.023051 0.169680
0.654319 0.023051 0.169680
0.654319 0.023051 0.169680
0.654319 0.023051 0.169680
0.654319 0.023051 0.169680
0.003293 0.035249 0.006887
0.003495 0.029251 0.002981
0.003694 0.022580 0.002535
0.007802 0.020151 0.004266
0.060557 0.058626 0.010449
0.115695 0.051718 0.012762
0.179833 0.035261 0.023504
0.256095 0.016847 0.046804
0.343680 0.013506 0.074148
0.433219 0.013461 0.096524
0.502422 0.017207 0.118453
0.555598 0.016988 0.134300
0.597236 0.019699 0.148195
0.628516 0.019980 0.158937
0.648258 0.023527 0.165996
0.654319 0.023051 0.169680
0.654319 0.023051 0.169680
0.654319 0.023051 0.169680
0.654319 0.023051 0.169680
0.654319 0.023051 0.169680
0.654319 0.023051 0.169680
0.654319 0.023051 0.169680
0.654319 0.023051 0.169680
0.654319 0.023051 0.169680
0.654319 0.023051 0.169680
0.654319 0.023051 0.169680
0.654319 0.023051 0.169680
0.654319 0.023051 0.169680
0.654319 0.023051 0.169680
0.654319 0.023051 0.169680
0.654319 0.023051 0.169680
0.654319 0.023051 0.169680
0.654319 0.023051 0.169680
0.003666 0.056573 0.007468
0.000000 0.051995 0.007023
0.003283 0.046917 0.006801
0.000000 0.040328 0.007109
0.013652 0.037679 0.010039
0.102751 0.102013 0.010466
0.163557 0.096640 0.015707
0.248605 0.090039 0.032222
0.340299 0.083933 0.063027
0.420263 0.076431 0.088949
0.489678 0.061167 0.113982
0.536822 0.026087 0.128134
0.577686 0.020141 0.145797
0.611703 0.019700 0.153078
0.635161 0.022828 0.161113
0.654319 0.023051 0.169680
0.654319 0.023051 0.169680
0.654319 0.023051 0.169680
0.654319 0.023051 0.169680
0.654319 0.023051 0.169680
0.654319 0.023051 0.169680
0.654319 0.023051 0.169680
0.654319 0.023051 0.169680
0.654319 0.023051 0.169680
0.654319 0.023051 0.169680
0.654319 0.023051 0.169680
0.654319 0.023051 0.169680
0.654319 0.023051 0.169680
0.654319 0.023051 0.169680
0.654319 0.023051 0.169680
0.654319 0.023051 0.169680
0.654319 0.023051 0.169680
0.654319 0.023051 0.169680
0.009315 0.080770 0.013688
0.007562 0.072483 0.009558
0.006002 0.068184 0.010090
0.009918 0.061095 0.010620
0.003666 0.056573 0.007468
0.035338 0.056525 0.010313
0.150420 0.141939 0.013941
0.228432 0.134837 0.025796
0.316410 0.129821 0.052163
0.401651 0.125191 0.083722
0.477116 0.120448 0.115813
0.542019 0.120952 0.140004
0.589919 0.116181 0.158866
0.622378 0.110432 0.171871
0.644685 0.084252 0.179633
0.646496 0.026234 0.165243
0.656665 0.023666 0.168925
0.654319 0.023051 0.169680
0.654319 0.023051 0.169680
0.654319 0.023051 0.169680
0.654319 0.023051 0.169680
0.654319 0.023051 0.169680
0.654319 0.023051 0.169680
0.654319 0.023051 0.169680
0.654319 0.023051 0.169680
0.654319 0.023051 0.169680
0.654319 0.023051 0.169680
0.654319 0.023051 0.169680
0.654319 0.023051 0.169680
0.654319 0.023051 0.169680
0.654319 0.023051 0.169680
0.654319 0.023051 0.169680
0.654319 0.023051 0.169680
0.016725 0.102933 0.017200
0.013603 0.094670 0.016530
0.013019 0.091683 0.016308
0.006768 0.086491 0.016618
0.009315 0.080770 0.013688
0.033365 0.076899 0.013379
0.136489 0.199900 0.026156
0.202378 0.194083 0.028914
0.294273 0.183323 0.048890
0.383429 0.172613 0.075789
0.463586 0.168428 0.109831
0.531813 0.169516 0.139437
0.588704 0.167536 0.163184
0.630150 0.163906 0.184532
0.656739 0.162956 0.196782
0.678837 0.155114 0.204902
0.693121 0.138788 0.208671
0.685127 0.114311 0.201477
0.676941 0.085511 0.191352
0.662121 0.042867 0.175676
0.656665 0.023666 0.168925
0.656665 0.023666 0.168925
0.656665 0.023666 0.168925
0.656665 0.023666 0.168925
0.654319 0.023051 0.169680
0.654319 0.023051 0.169680
0.656665 0.023666 0.168925
0.656665 0.023666 0.168925
0.654319 0.023051 0.169680
0.654319 0.023051 0.169680
0.654319 0.023051 0.169680
0.654319 0.023051 0.169680
0.654319 0.023051 0.169680
0.030387 0.128945 0.027324
0.023551 0.121436 0.023949
0.024145 0.113427 0.020797
0.020239 0.108849 0.020352
0.016725 0.102933 0.017200
0.029631 0.098970 0.020882
0.052313 0.097140 0.013652
0.196451 0.264854 0.048410
0.274463 0.259431 0.051613
0.370071 0.246236 0.082949
0.452384 0.239013 0.109848
0.526871 0.232957 0.142691
0.587477 0.229885 0.170874
0.634985 0.226117 0.194176
0.669003 0.223994 0.210110
0.688754 0.215537 0.218985
0.704207 0.204847 0.224929
0.705787 0.186148 0.222840
0.699353 0.165636 0.216844
0.693503 0.148444 0.209340
0.689607 0.132535 0.207249
0.686295 0.120620 0.200191
0.678885 0.098794 0.194949
0.669139 0.066031 0.183625
0.657831 0.029303 0.171102
0.656665 0.023666 0.168925
0.656665 0.023666 0.168925
0.656665 0.023666 0.168925
0.656665 0.023666 0.168925
0.656665 0.023666 0.168925
0.656665 0.023666 0.168925
0.656665 0.023666 0.168925
0.656665 0.023666 0.168925
0.029772 0.158606 0.038957
0.031736 0.150574 0.032343
0.029592 0.143960 0.029192
0.026471 0.135360 0.030253
0.030387 0.128945 0.027324
0.029218 0.122971 0.026878
0.049555 0.120525 0.020403
0.068331 0.114115 0.012726
0.271063 0.344120 0.087043
0.358849 0.336796 0.100098
0.445268 0.328489 0.121805
0.524448 0.323999 0.151411
0.596590 0.317326 0.185008
0.647812 0.312803 0.211015
0.684962 0.306940 0.229434
0.712536 0.295637 0.241017
0.730143 0.280230 0.248469
0.734652 0.264460 0.249308
0.722169 0.233091 0.237985
0.711828 0.208335 0.229812
0.707740 0.188101 0.224793
0.700329 0.167284 0.214360
0.695065 0.152407 0.210539
0.691168 0.136835 0.206718
0.685509 0.124304 0.200413
0.680637 0.107755 0.195618
0.678885 0.098794 0.194949
0.679862 0.100107 0.194196
0.677717 0.093157 0.192774
0.674395 0.091902 0.190821
0.677335 0.084173 0.188644
0.674797 0.078560 0.189929
0.670891 0.074318 0.187754
0.028366 0.203620 0.050726
0.028768 0.191960 0.041183
0.031909 0.177559 0.038562
0.032894 0.167205 0.037895
0.029772 0.158606 0.038957
0.032321 0.153224 0.034296
0.046012 0.147930 0.025645
0.071432 0.143695 0.023604
0.279583 0.432176 0.142398
0.363069 0.425644 0.136949
0.442251 0.423507 0.154442
0.528466 0.421534 0.178325
0.603539 0.419136 0.207929
0.669229 0.415958 0.231898
0.718891 0.408479 0.251516
0.748025 0.400803 0.266027
0.767979 0.385339 0.276187
0.778750 0.362759 0.278535
0.763930 0.319107 0.268051
0.743633 0.279254 0.252375
0.728803 0.246597 0.245266
0.715533 0.219249 0.232435
0.710077 0.199712 0.227414
0.705012 0.178837 0.219688
0.698376 0.164659 0.215867
0.694480 0.149421 0.210317
0.693121 0.138788 0.208671
0.689607 0.132535 0.207249
0.689607 0.132535 0.207249
0.690001 0.130861 0.206273
0.689024 0.129884 0.205296
0.687462 0.126257 0.202366
0.687462 0.126257 0.202366
0.016588 0.257536 0.060989
0.016406 0.241207 0.059875
0.023261 0.227062 0.054769
0.023665 0.214057 0.052149
0.029343 0.204933 0.049972
0.029351 0.194274 0.044867
0.046174 0.184231 0.043891
0.067295 0.178100 0.037191
0.092131 0.171888 0.029739
0.372566 0.515349 0.189820
0.454293 0.511861 0.181887
0.533664 0.513376 0.205769
0.616357 0.515811 0.233336
0.684584 0.517908 0.257750
0.739128 0.515312 0.282250
0.778039 0.507749 0.296231
0.806005 0.495108 0.305105
0.824005 0.478028 0.311581
0.820713 0.442106 0.308157
0.794959 0.382379 0.289191
0.770957 0.331613 0.270895
0.747731 0.288157 0.255750
0.729578 0.254581 0.244957
0.720216 0.230466 0.239492
0.711245 0.205348 0.229590
0.707740 0.188101 0.224793
0.700914 0.169934 0.216313
0.698376 0.164659 0.215867
0.697793 0.161672 0.215644
0.696816 0.160695 0.214667
0.697209 0.159022 0.213691
0.696625 0.156371 0.211738
0.696042 0.153384 0.211516
0.000110 0.319872 0.083055
0.000000 0.301902 0.074797
0.002878 0.285827 0.071200
0.010125 0.270007 0.065116
0.020303 0.256782 0.063695
0.016598 0.245196 0.064535
0.029121 0.234602 0.051976
0.061388 0.226209 0.053398
0.090329 0.217904 0.045945
0.110082 0.213143 0.035785
0.469457 0.602764 0.239417
0.550398 0.602625 0.233438
0.626639 0.606536 0.261758
0.694472 0.610644 0.285418
0.751948 0.611650 0.309387
0.796919 0.603948 0.325320
0.828791 0.595549 0.336371
0.849138 0.579084 0.342093
0.868899 0.559967 0.345863
0.848419 0.504122 0.327344
0.823643 0.445372 0.309356
0.798473 0.388295 0.292343
0.769779 0.336970 0.272093
0.748899 0.294130 0.256195
0.733093 0.259825 0.251571
0.722169 0.233091 0.237985
0.714758 0.211601 0.231012
0.710468 0.198374 0.224707
0.705979 0.190809 0.224038
0.705002 0.189832 0.223061
0.705787 0.186148 0.222840
0.706572 0.182464 0.222618
0.706572 0.182464 0.222618
0.000000 0.388181 0.110449
0.000000 0.369515 0.102192
0.000080 0.352520 0.094910
0.000000 0.337202 0.088605
0.000000 0.321882 0.082300
0.000000 0.308236 0.076972
0.019487 0.293786 0.072312
0.037287 0.285056 0.070581
0.082458 0.274718 0.065304
0.110034 0.266774 0.059583
0.486200 0.678666 0.275824
0.563227 0.682591 0.284887
0.636345 0.685633 0.274468
0.708872 0.690298 0.300082
0.765369 0.691000 0.319613
0.809555 0.687319 0.334039
0.846120 0.680150 0.343582
0.874671 0.670159 0.354410
0.891694 0.651429 0.363372
0.886840 0.611545 0.358745
0.872222 0.561223 0.347816
0.848419 0.504122 0.327344
0.824227 0.448022 0.311309
0.800426 0.390248 0.294296
0.770756 0.337611 0.274801
0.751829 0.297060 0.259125
0.734069 0.261473 0.249085
0.725290 0.241017 0.240383
0.717486 0.221202 0.234388
0.717486 0.221202 0.234388
0.716509 0.220225 0.233411
0.715926 0.217238 0.233187
0.714950 0.216262 0.232211
0.000000 0.460119 0.140774
0.000585 0.441788 0.130785
0.000000 0.423817 0.122526
0.000424 0.405150 0.114271
0.000000 0.390528 0.107965
0.000060 0.374847 0.099929
0.000463 0.362514 0.093848
0.034491 0.352085 0.092562
0.075555 0.343503 0.089016
0.117011 0.332910 0.086222
0.146538 0.326584 0.084184
0.569228 0.748758 0.305360
0.646254 0.753690 0.309229
0.710967 0.756593 0.295884
0.769419 0.758911 0.319097
0.818879 0.758776 0.335699
0.855051 0.752609 0.349680
0.882626 0.741640 0.359530
0.904532 0.729473 0.364722
0.914910 0.707897 0.371507
0.905174 0.662121 0.367191
0.885864 0.610569 0.357769
0.870269 0.559270 0.345863
0.846859 0.500158 0.326144
0.821690 0.443083 0.309134
0.797496 0.387318 0.291366
0.769779 0.336970 0.272093
0.752806 0.298037 0.260102
0.739929 0.268341 0.249755
0.734652 0.264460 0.249308
0.733093 0.259825 0.251571
0.730554 0.255557 0.245933
0.729578 0.254581 0.244957
0.000306 0.532723 0.177265
0.000000 0.513751 0.164570
0.000537 0.494747 0.158043
0.000000 0.477449 0.146324
0.000567 0.463442 0.139266
0.000385 0.448458 0.131230
0.000204 0.433139 0.124926
0.023478 0.420947 0.126657
0.074318 0.412815 0.120848
0.115382 0.403896 0.119031
0.154293 0.398686 0.120899
0.192620 0.392507 0.112160
0.644252 0.806040 0.327613
0.708179 0.810274 0.326602
0.768202 0.812955 0.309570
0.816686 0.811843 0.325195
0.853442 0.808662 0.339398
0.885898 0.802912 0.352402
0.910735 0.794012 0.358793
0.932641 0.780165 0.372637
0.923872 0.746361 0.372672
0.915696 0.704212 0.371286
0.902637 0.656846 0.366747
0.883327 0.604956 0.359054
0.865194 0.548717 0.344973
0.846085 0.492175 0.326454
0.818961 0.433146 0.307488
0.795936 0.383356 0.290168
0.774662 0.342525 0.273515
0.761977 0.316818 0.267829
0.759047 0.313552 0.266628
0.758463 0.310902 0.264675
0.757295 0.305265 0.262501
0.010407 0.606784 0.206306
0.000258 0.587026 0.197602
0.000000 0.569391 0.187613
0.000679 0.553038 0.183039
0.000000 0.535068 0.174780
0.000000 0.521086 0.171183
0.000135 0.506743 0.165855
0.023018 0.497906 0.159911
0.080310 0.487961 0.155079
0.121959 0.481357 0.156944
0.170645 0.475926 0.160012
0.218354 0.470191 0.158641
0.268992 0.466378 0.165390
0.709903 0.850876 0.344317
0.765817 0.852959 0.341129
0.810788 0.853660 0.313801
0.853212 0.852686 0.327473
0.880584 0.848726 0.336039
0.908350 0.841410 0.352282
0.927710 0.835635 0.356941
0.939065 0.814361 0.368163
0.933617 0.781141 0.373613
0.924263 0.744351 0.373426
0.912181 0.698296 0.368132
0.899516 0.648582 0.366077
0.880206 0.597030 0.356656
0.861488 0.538142 0.340622
0.840617 0.484306 0.321347
0.818961 0.433146 0.307488
0.800426 0.390248 0.294296
0.797496 0.387318 0.291366
0.793006 0.380426 0.287238
0.791053 0.377801 0.288746
0.092849 0.672881 0.240808
0.060605 0.659620 0.230907
0.040287 0.641757 0.221982
0.022900 0.627494 0.212523
0.034841 0.612233 0.208395
0.006894 0.601204 0.201423
0.000000 0.589371 0.195118
0.029201 0.578721 0.190147
0.098223 0.569835 0.191929
0.139287 0.561253 0.188383
0.191687 0.556076 0.188965
0.243302 0.552904 0.198422
0.292573 0.550123 0.203441
0.347117 0.551224 0.208906
0.402054 0.551323 0.209933
0.804304 0.885433 0.338523
0.846931 0.884511 0.317140
0.880947 0.883397 0.327882
0.904998 0.877845 0.336226
0.927681 0.872653 0.346301
0.946848 0.861545 0.353223
0.943153 0.837284 0.359340
0.938874 0.809701 0.366965
0.931473 0.774528 0.370461
0.921535 0.734414 0.371780
0.909846 0.686014 0.368973
0.895227 0.635020 0.361504
0.875916 0.582794 0.355543
0.858951 0.533537 0.336715
0.840617 0.484306 0.321347
0.835352 0.469093 0.319257
0.831446 0.465187 0.315351
0.830669 0.457204 0.315660
0.169826 0.729427 0.278860
0.139533 0.718121 0.270910
0.120385 0.706902 0.258969
0.108273 0.696185 0.251688
0.097139 0.686780 0.243653
0.084635 0.677065 0.240808
0.074285 0.664314 0.230820
0.084653 0.656419 0.227136
0.127672 0.649791 0.225544
0.181834 0.642241 0.225149
0.227781 0.637870 0.229945
0.276075 0.634449 0.232258
0.325928 0.633983 0.240961
0.380865 0.632739 0.248910
0.442055 0.636014 0.260012
0.498553 0.639069 0.267431
0.839280 0.909639 0.344879
0.868807 0.908018 0.318614
0.896764 0.907044 0.327403
0.920814 0.901826 0.334016
0.941151 0.896692 0.341384
0.946244 0.882228 0.351098
0.945871 0.859896 0.355706
0.942177 0.835636 0.361824
0.937705 0.803391 0.368250
0.929721 0.764559 0.374985
0.918222 0.720819 0.373375
0.907510 0.674067 0.368081
0.888783 0.625165 0.360613
0.873380 0.577519 0.355097
0.866171 0.549694 0.345950
0.862656 0.544114 0.341067
0.860511 0.537165 0.339645
0.219047 0.780280 0.307675
0.206151 0.773582 0.298886
0.202053 0.764343 0.297242
0.199716 0.754077 0.287700
0.181737 0.746816 0.286586
0.175292 0.737634 0.282233
0.165135 0.729542 0.273444
0.159667 0.721672 0.268340
0.191542 0.715962 0.265547
0.227713 0.712484 0.265683
0.274636 0.709760 0.267996
0.320192 0.707061 0.273770
0.363008 0.705759 0.279544
0.417160 0.708197 0.287714
0.468574 0.712031 0.295887
0.525656 0.717735 0.305258
0.585477 0.723053 0.309437
0.863310 0.928428 0.347859
0.887755 0.928595 0.317157
0.915127 0.925307 0.322262
0.935071 0.921845 0.330604
0.948761 0.913527 0.337527
0.946818 0.898562 0.342581
0.944291 0.880275 0.349145
0.941965 0.855318 0.355263
0.940425 0.826003 0.364617
0.934977 0.793119 0.368336
0.928361 0.753253 0.376801
0.915887 0.708874 0.372484
0.905174 0.662121 0.367191
0.890153 0.624132 0.362344
0.887223 0.620529 0.362875
0.887424 0.614531 0.358969
0.287235 0.827029 0.342130
0.275708 0.819635 0.333341
0.264179 0.811904 0.326280
0.253629 0.805150 0.320199
0.246401 0.799317 0.317801
0.232528 0.791306 0.309766
0.221000 0.783240 0.304438
0.216510 0.776684 0.298579
0.246621 0.773007 0.298491
0.274971 0.771704 0.299382
0.313489 0.768505 0.300496
0.357281 0.769522 0.300324
0.398335 0.770590 0.307074
0.446820 0.772166 0.308855
0.495889 0.775048 0.319511
0.548279 0.780531 0.325199
0.606731 0.786545 0.329379
0.661468 0.792979 0.332582
0.716012 0.797777 0.319012
0.906903 0.941831 0.318715
0.926845 0.939041 0.323597
0.946790 0.935244 0.333672
0.947383 0.926227 0.335711
0.946808 0.910902 0.339035
0.947603 0.894206 0.345820
0.945470 0.874246 0.351406
0.942559 0.846301 0.357301
0.937695 0.815395 0.366434
0.931664 0.778516 0.375121
0.923489 0.736368 0.373734
0.911598 0.695309 0.367910
0.911013 0.692323 0.367687
0.908869 0.685037 0.367996
0.352694 0.863505 0.376667
0.347812 0.858623 0.371785
0.333545 0.852288 0.364727
0.323971 0.847183 0.356160
0.314789 0.840067 0.348347
0.301500 0.834373 0.343997
0.297010 0.828151 0.336406
0.283721 0.822457 0.332055
0.302688 0.820036 0.329039
0.326345 0.818173 0.327977
0.355672 0.818517 0.326382
0.392428 0.817690 0.328472
0.434852 0.818733 0.331762
0.475905 0.820809 0.333320
0.522629 0.823748 0.341269
0.577366 0.830182 0.344473
0.621349 0.835524 0.347230
0.677455 0.840587 0.353895
0.730239 0.845405 0.353413
0.775401 0.849086 0.335937
0.916668 0.953276 0.319828
0.937588 0.951128 0.327419
0.947172 0.945239 0.332609
0.946790 0.935244 0.333672
0.949537 0.921847 0.335487
0.946225 0.907579 0.340543
0.945067 0.888258 0.348836
0.946848 0.861545 0.353223
0.942177 0.835300 0.363556
0.937122 0.800069 0.369758
0.929136 0.761573 0.374761
0.927970 0.755600 0.374316
0.925825 0.748650 0.372895
0.414246 0.894733 0.414222
0.407019 0.889571 0.408363
0.398813 0.884105 0.398066
0.387869 0.879025 0.392962
0.381618 0.875175 0.386347
0.371651 0.871744 0.378759
0.357386 0.865073 0.373431
0.352503 0.859854 0.370277
0.364040 0.858605 0.363577
0.379292 0.856603 0.359586
0.410963 0.856890 0.360698
0.439313 0.856259 0.358129
0.471961 0.857859 0.358489
0.507932 0.861050 0.359071
0.551333 0.863070 0.363336
0.594341 0.867436 0.365118
0.642432 0.870349 0.369605
0.691108 0.876922 0.370855
0.739199 0.880844 0.370152
0.782206 0.885882 0.368472
0.820725 0.888396 0.340168
0.926827 0.962711 0.321695
0.945400 0.960285 0.328308
0.945995 0.951604 0.328617
0.947565 0.943228 0.333363
0.947967 0.929551 0.334204
0.947000 0.916571 0.335044
0.946818 0.898562 0.342581
0.945076 0.876256 0.350652
0.942751 0.850962 0.358500
0.941602 0.820646 0.363419
0.939267 0.807691 0.367718
0.939658 0.805681 0.368472
0.474238 0.922332 0.448847
0.464271 0.918566 0.442988
0.458411 0.912706 0.437128
0.448446 0.908939 0.431269
0.439455 0.906820 0.422926
0.430858 0.901684 0.420527
0.421284 0.896915 0.410231
0.416401 0.891695 0.407079
0.421877 0.890250 0.400156
0.433021 0.890340 0.396164
0.452965 0.889231 0.392394
0.479945 0.888961 0.391554
0.507902 0.890003 0.389961
0.538206 0.891996 0.385884
0.576914 0.893793 0.386465
0.614838 0.898938 0.389000
0.659607 0.901605 0.386344
0.703592 0.906946 0.389102
0.746015 0.908998 0.387200
0.787071 0.912418 0.381835
0.822064 0.915979 0.374519
0.853545 0.916647 0.348476
0.936008 0.970164 0.327777
0.946568 0.965922 0.330484
0.946770 0.959587 0.328308
0.948340 0.951211 0.333054
0.948350 0.939544 0.333140
0.947383 0.926227 0.335711
0.945832 0.909590 0.339789
0.946044 0.890244 0.344621
0.947039 0.865869 0.356152
0.942358 0.852971 0.357746
0.945489 0.849567 0.358500
0.523297 0.932849 0.480183
0.519583 0.932932 0.480938
0.512545 0.932766 0.474547
0.505901 0.930927 0.467181
0.493195 0.929226 0.457860
0.484789 0.929087 0.454931
0.478538 0.925573 0.446585
0.472285 0.921052 0.443434
0.471702 0.919409 0.436289
0.484607 0.917128 0.431320
0.503182 0.916717 0.427551
0.521364 0.917643 0.426488
0.542283 0.917512 0.423694
0.575325 0.917774 0.421347
0.602889 0.921162 0.417270
0.641598 0.923295 0.416121
0.675224 0.926881 0.412265
0.716669 0.927955 0.409386
0.754987 0.932434 0.405755
0.792719 0.934600 0.398437
0.827128 0.934837 0.392628
0.854109 0.936918 0.379677
0.881875 0.938677 0.349196
0.950083 0.972846 0.328446
0.949498 0.969860 0.328222
0.948330 0.963551 0.329508
0.947162 0.956906 0.332524
0.948148 0.946215 0.333585
0.948158 0.934211 0.335402
0.948953 0.918524 0.336997
0.947403 0.901550 0.342806
0.946828 0.885887 0.347859
0.945852 0.884574 0.348614
0.540301 0.936445 0.494164
0.535609 0.936223 0.490481
0.534632 0.935583 0.487773
0.533656 0.934607 0.486797
0.528965 0.934384 0.483113
0.527988 0.933407 0.482136
0.525643 0.933464 0.479430
0.520952 0.933242 0.475746
0.525643 0.934136 0.475970
0.540502 0.934144 0.471223
0.550278 0.935267 0.465500
0.563374 0.937646 0.461730
0.584879 0.940501 0.459160
0.606775 0.942018 0.453883
0.630625 0.945488 0.450559
0.662690 0.945109 0.445505
0.695338 0.947718 0.440671
0.728380 0.948988 0.433133
0.766112 0.950146 0.431008
0.798760 0.953090 0.424446
0.829455 0.954082 0.415930
0.855459 0.954515 0.405460
0.881463 0.955956 0.389801
0.899655 0.953617 0.345562
0.950083 0.972846 0.328446
0.949107 0.971870 0.327470
0.947545 0.967907 0.326269
0.946377 0.960926 0.331016
0.945995 0.951604 0.328617
0.949326 0.940520 0.334116
0.947383 0.926564 0.333980
0.948761 0.913527 0.337527
0.946808 0.910902 0.339035
0.556329 0.940074 0.501977
0.550661 0.938539 0.499047
0.549684 0.937562 0.498070
0.549684 0.938234 0.494609
0.544992 0.937675 0.492656
0.544016 0.936363 0.493411
0.540301 0.937117 0.490703
0.538348 0.935500 0.487019
0.543039 0.936731 0.485511
0.549099 0.936928 0.485735
0.563566 0.938946 0.480234
0.585071 0.940792 0.482856
0.602859 0.943394 0.482769
0.625733 0.945550 0.480199
0.651928 0.949301 0.477852
0.680861 0.951655 0.475503
0.714486 0.954568 0.475109
0.743420 0.957258 0.471032
0.774700 0.960900 0.464469
0.803049 0.962284 0.451515
0.829636 0.965704 0.441269
0.852902 0.967868 0.429070
0.875584 0.968054 0.411457
0.899635 0.967206 0.395574
0.941284 0.974380 0.326493
