lut/fujifilm/F-Log/F-Log_LUT_E_Ver.1.27/X-H2S/XH2S_FLog_FGamut_to_ETERNA_BT.709_33grid_V.1.00.cube
#title:FLog_FGamut_to_ETERNA_BT.709
#FUJIFILM Corporation
#Gamma:F-Log to ETERNA
#Gamut:F-Gamut to ITU-R BT.709
#Version:1.00
LUT_3D_SIZE 5
0.006836 0.006836 0.006836
0.520028 0.013562 0.065340
0.998219 0.023690 0.155300
0.998219 0.023690 0.155300
0.998219 0.023690 0.155300
0.000503 0.333993 0.000745
0.251036 0.229703 0.000574
0.864303 0.020067 0.131144
0.998219 0.023690 0.155300
0.998219 0.023690 0.155300
0.000000 0.838696 0.000734
0.000000 0.759035 0.000582
0.724746 0.702082 0.000746
0.998442 0.487938 0.000063
0.999633 0.210056 0.117140
0.000000 0.981688 0.000000
0.000000 0.981688 0.000000
0.577287 0.990397 0.000000
0.946426 0.967115 0.000000
0.985521 0.740900 0.000000
0.290287 0.983504 0.000000
0.290287 0.983504 0.000000
0.429096 0.985720 0.000999
0.709643 0.994426 0.000000
0.942098 0.999212 0.000000
0.014609 0.003177 0.313675
0.499482 0.014182 0.176003
0.998219 0.023690 0.155300
0.998219 0.023690 0.155300
0.998219 0.023690 0.155300
0.000262 0.325495 0.319254
0.233398 0.233398 0.233398
0.854680 0.074306 0.116956
0.998219 0.023690 0.155300
0.998219 0.023690 0.155300
0.000000 0.818867 0.317598
0.000303 0.758964 0.237311
0.726479 0.709171 0.131028
0.998815 0.509599 0.000000
0.999815 0.227392 0.113063
0.000520 0.975366 0.193257
0.000000 0.976793 0.145113
0.558522 0.986484 0.000263
0.946426 0.967115 0.000000
0.984726 0.756251 0.000000
0.312154 0.979693 0.201684
0.329763 0.979074 0.132996
0.445717 0.982348 0.000468
0.697521 0.994033 0.000000
0.942098 0.999212 0.000000
0.024096 0.000704 0.901176
0.432336 0.007118 0.748273
0.999176 0.023469 0.282431
0.998219 0.023690 0.155300
0.998219 0.023690 0.155300
0.000576 0.317010 0.833269
0.000270 0.238885 0.705235
0.865133 0.094894 0.651704
0.998219 0.023690 0.155300
0.998219 0.023690 0.155300
0.000206 0.778512 0.736560
0.000000 0.739940 0.689202
0.700195 0.700195 0.700195
0.999684 0.548512 0.464441
0.999604 0.247410 0.104770
0.000259 0.963989 0.646569
0.000000 0.964694 0.636941
0.469862 0.977479 0.630390
0.953205 0.945821 0.510813
0.980025 0.767025 0.000000
0.000461 0.970761 0.576906
0.040155 0.972286 0.524907
0.406929 0.977436 0.495844
0.710360 0.988396 0.431676
0.942098 0.999212 0.000000
0.027599 0.000000 0.999417
0.027599 0.000000 0.999417
1.000000 0.016639 0.999098
0.998219 0.023690 0.155300
0.998219 0.023690 0.155300
0.000845 0.199095 0.985707
0.000654 0.193763 0.987970
0.798226 0.078182 0.998910
0.999700 0.020507 0.673223
1.000000 0.023012 0.341181
0.000082 0.660254 0.900355
0.001259 0.653889 0.904349
0.477909 0.640416 0.974246
0.999635 0.525519 0.882786
1.000000 0.404960 0.594110
0.000000 0.920712 0.838207
0.000000 0.913370 0.841223
0.000000 0.916641 0.874769
0.893555 0.893555 0.893555
1.000000 0.777740 0.739476
0.000240 0.954052 0.817714
0.000633 0.957756 0.789050
0.000824 0.964769 0.778136
0.648527 0.982570 0.778044
0.973078 1.000000 0.641418
0.027599 0.000000 0.999417
0.027599 0.000000 0.999417
0.802584 0.010746 1.000000
0.999681 0.016619 0.813219
0.999700 0.019498 0.678415
0.000751 0.074738 1.000000
0.000751 0.074738 1.000000
0.367688 0.114509 0.998778
1.000000 0.016639 0.999098
0.999480 0.016904 0.846542
0.000640 0.452172 0.942371
0.000247 0.453846 0.943347
0.000238 0.465849 0.941530
0.955899 0.431981 0.999415
1.000000 0.333720 0.951340
0.000000 0.828338 0.859128
0.000951 0.796291 0.865777
0.000760 0.790959 0.868040
0.695185 0.792208 0.976261
0.999640 0.731020 0.989640
0.000823 0.951662 0.845625
0.000823 0.951662 0.845625
0.000823 0.951662 0.845625
0.298950 0.968538 0.910539
1.000000 1.000000 1.000000
