lut/fujifilm/F-Log/F-Log_LUT_E_Ver.1.27/X-H2S/XH2S_FLog_FGamut_to_ETERNA_BT.709_33grid_V.1.00.cube
#title:FLog_FGamut_to_ETERNA_BT.709
#FUJIFILM Corporation
#Gamma:F-Log to ETERNA
#Gamut:F-Gamut to ITU-R BT.709
#Version:1.00
LUT_3D_SIZE 33
0.006836 0.006836 0.006836
0.006836 0.006836 0.006836
0.026387 0.006729 0.007503
0.105566 0.006944 0.012882
0.175554 0.010367 0.017285
0.246329 0.009769 0.023195
0.324138 0.010346 0.030304
0.418368 0.013212 0.042519
0.520028 0.013562 0.065340
0.629703 0.016734 0.086876
0.734102 0.016361 0.106234
0.824225 0.020311 0.123641
0.906727 0.019765 0.141356
0.981407 0.022739 0.152902
0.998219 0.023690 0.155300
0.998219 0.023690 0.155300
0.998219 0.023690 0.155300
0.998219 0.023690 0.155300
0.998219 0.023690 0.155300
0.998219 0.023690 0.155300
0.998219 0.023690 0.155300
0.998219 0.023690 0.155300
0.998219 0.023690 0.155300
0.998219 0.023690 0.155300
0.998219 0.023690 0.155300
0.998219 0.023690 0.155300
0.998219 0.023690 0.155300
0.998219 0.023690 0.155300
0.998219 0.023690 0.155300
0.998219 0.023690 0.155300
0.998219 0.023690 0.155300
0.998219 0.023690 0.155300
0.998219 0.023690 0.155300
0.006836 0.006836 0.006836
0.006836 0.006836 0.006836
0.006836 0.006836 0.006836
0.081324 0.006493 0.010262
0.147597 0.010334 0.013688
0.218371 0.009736 0.019598
0.291490 0.009418 0.026483
0.380052 0.010413 0.037500
0.481321 0.013109 0.057835
0.578873 0.016559 0.075464
0.674473 0.017384 0.094601
0.764405 0.016338 0.112540
0.849836 0.019730 0.127991
0.929206 0.022925 0.143223
0.998219 0.023690 0.155300
0.998219 0.023690 0.155300
0.998219 0.023690 0.155300
0.998219 0.023690 0.155300
0.998219 0.023690 0.155300
0.998219 0.023690 0.155300
0.998219 0.023690 0.155300
0.998219 0.023690 0.155300
0.998219 0.023690 0.155300
0.998219 0.023690 0.155300
0.998219 0.023690 0.155300
0.998219 0.023690 0.155300
0.998219 0.023690 0.155300
0.998219 0.023690 0.155300
0.998219 0.023690 0.155300
0.998219 0.023690 0.155300
0.998219 0.023690 0.155300
0.998219 0.023690 0.155300
0.998219 0.023690 0.155300
0.006836 0.006836 0.006836
0.006836 0.006836 0.006836
0.006836 0.006836 0.006836
0.040854 0.007066 0.010657
0.122771 0.006559 0.012573
0.189045 0.010400 0.015999
0.262164 0.010082 0.022886
0.337629 0.009707 0.032481
0.426776 0.013352 0.045449
0.520028 0.013562 0.065340
0.617583 0.016676 0.084699
0.706145 0.016663 0.100906
0.793921 0.019999 0.119066
0.876424 0.019790 0.135051
0.951104 0.022425 0.148328
0.998219 0.023690 0.155300
0.998219 0.023690 0.155300
0.998219 0.023690 0.155300
0.998219 0.023690 0.155300
0.998219 0.023690 0.155300
0.998219 0.023690 0.155300
0.998219 0.023690 0.155300
0.998219 0.023690 0.155300
0.998219 0.023690 0.155300
0.998219 0.023690 0.155300
0.998219 0.023690 0.155300
0.998219 0.023690 0.155300
0.998219 0.023690 0.155300
0.998219 0.023690 0.155300
0.998219 0.023690 0.155300
0.998219 0.023690 0.155300
0.998219 0.023690 0.155300
0.998219 0.023690 0.155300
0.000343 0.056326 0.000324
0.000948 0.035305 0.004179
0.000000 0.019676 0.003066
0.009766 0.010438 0.006305
0.095791 0.006830 0.013414
0.163434 0.009973 0.016840
0.228146 0.009852 0.019066
0.298527 0.010928 0.025953
0.380052 0.010413 0.037500
0.470175 0.014028 0.056636
0.562453 0.013597 0.073820
0.653945 0.016850 0.091225
0.742509 0.016837 0.107435
0.825594 0.019278 0.125371
0.903013 0.020520 0.138648
0.977691 0.023157 0.151925
0.998219 0.023690 0.155300
0.998219 0.023690 0.155300
0.998219 0.023690 0.155300
0.998219 0.023690 0.155300
0.998219 0.023690 0.155300
0.998219 0.023690 0.155300
0.998219 0.023690 0.155300
0.998219 0.023690 0.155300
0.998219 0.023690 0.155300
0.998219 0.023690 0.155300
0.998219 0.023690 0.155300
0.998219 0.023690 0.155300
0.998219 0.023690 0.155300
0.998219 0.023690 0.155300
0.998219 0.023690 0.155300
0.998219 0.023690 0.155300
0.998219 0.023690 0.155300
0.000000 0.113349 0.000649
0.000000 0.102018 0.000000
0.000000 0.088341 0.000000
0.000000 0.076674 0.000000
0.067986 0.059470 0.003750
0.142494 0.035119 0.010809
0.201166 0.010793 0.016445
0.264511 0.010361 0.023863
0.336261 0.010404 0.032481
0.424429 0.012737 0.046203
0.513969 0.013365 0.065116
0.605461 0.016954 0.080792
0.694024 0.016606 0.098731
0.777110 0.019718 0.113207
0.858242 0.020206 0.129191
0.931553 0.023204 0.144200
0.998219 0.023690 0.155300
0.998219 0.023690 0.155300
0.998219 0.023690 0.155300
0.998219 0.023690 0.155300
0.998219 0.023690 0.155300
0.998219 0.023690 0.155300
0.998219 0.023690 0.155300
0.998219 0.023690 0.155300
0.998219 0.023690 0.155300
0.998219 0.023690 0.155300
0.998219 0.023690 0.155300
0.998219 0.023690 0.155300
0.998219 0.023690 0.155300
0.998219 0.023690 0.155300
0.998219 0.023690 0.155300
0.998219 0.023690 0.155300
0.998219 0.023690 0.155300
0.000000 0.171686 0.000218
0.000064 0.156335 0.000082
0.000074 0.144667 0.000167
0.000475 0.131326 0.000000
0.010261 0.119437 0.000562
0.117801 0.108025 0.000000
0.182331 0.090567 0.006301
0.244910 0.070484 0.014114
0.311212 0.038315 0.022988
0.388458 0.010554 0.040430
0.473891 0.013273 0.059343
0.564799 0.013876 0.074797
0.649254 0.016627 0.087543
0.734102 0.016361 0.106234
0.813473 0.019556 0.121465
0.890890 0.020462 0.136473
0.960879 0.022541 0.147797
0.998219 0.023690 0.155300
0.998219 0.023690 0.155300
0.998219 0.023690 0.155300
0.998219 0.023690 0.155300
0.998219 0.023690 0.155300
0.998219 0.023690 0.155300
0.998219 0.023690 0.155300
0.998219 0.023690 0.155300
0.998219 0.023690 0.155300
0.998219 0.023690 0.155300
0.998219 0.023690 0.155300
0.998219 0.023690 0.155300
0.998219 0.023690 0.155300
0.998219 0.023690 0.155300
0.998219 0.023690 0.155300
0.998219 0.023690 0.155300
0.000207 0.219667 0.000000
0.000000 0.206687 0.000000
0.000619 0.194323 0.000047
0.000000 0.181679 0.000000
0.000000 0.171686 0.000218
0.083936 0.158452 0.000493
0.161172 0.145719 0.000543
0.225502 0.136275 0.000371
0.290618 0.121804 0.006898
0.365900 0.104766 0.017109
0.448422 0.081221 0.033265
0.530962 0.032662 0.058246
0.615236 0.016397 0.083722
0.696369 0.017220 0.097976
0.777110 0.019718 0.113207
0.854528 0.019953 0.131676
0.926862 0.022646 0.142247
0.989812 0.023214 0.154102
0.998219 0.023690 0.155300
0.998219 0.023690 0.155300
0.998219 0.023690 0.155300
0.998219 0.023690 0.155300
0.998219 0.023690 0.155300
0.998219 0.023690 0.155300
0.998219 0.023690 0.155300
0.998219 0.023690 0.155300
0.998219 0.023690 0.155300
0.998219 0.023690 0.155300
0.998219 0.023690 0.155300
0.998219 0.023690 0.155300
0.998219 0.023690 0.155300
0.998219 0.023690 0.155300
0.998219 0.023690 0.155300
0.000000 0.273006 0.000000
0.000000 0.258352 0.000000
0.000000 0.244676 0.000000
0.000197 0.231334 0.000000
0.000207 0.219667 0.000000
0.022698 0.211495 0.000000
0.130236 0.199747 0.000507
0.203365 0.189106 0.000558
0.270434 0.178268 0.000387
0.342979 0.164640 0.000215
0.425490 0.153099 0.014555
0.506251 0.132598 0.028227
0.591701 0.110640 0.054234
0.672472 0.076455 0.078376
0.744853 0.017116 0.108411
0.821878 0.020032 0.122664
0.894605 0.020044 0.137450
0.960879 0.022541 0.147797
0.998219 0.023690 0.155300
0.998219 0.023690 0.155300
0.998219 0.023690 0.155300
0.998219 0.023690 0.155300
0.998219 0.023690 0.155300
0.998219 0.023690 0.155300
0.998219 0.023690 0.155300
0.998219 0.023690 0.155300
0.998219 0.023690 0.155300
0.998219 0.023690 0.155300
0.998219 0.023690 0.155300
0.998219 0.023690 0.155300
0.998219 0.023690 0.155300
0.998219 0.023690 0.155300
0.998219 0.023690 0.155300
0.000503 0.333993 0.000745
0.000000 0.314678 0.000000
0.000000 0.300025 0.000000
0.000000 0.284674 0.000000
0.000000 0.273006 0.000000
0.000000 0.261003 0.001038
0.096370 0.250174 0.001003
0.176929 0.239368 0.000000
0.251036 0.229703 0.000574
0.320057 0.221154 0.000625
0.399640 0.209037 0.000000
0.484890 0.197445 0.007340
0.568770 0.184871 0.023410
0.649722 0.167014 0.048664
0.727944 0.139221 0.072272
0.800699 0.101879 0.099429
0.864303 0.020067 0.131144
0.931553 0.023204 0.144200
0.991182 0.022853 0.152370
0.998219 0.023690 0.155300
0.998219 0.023690 0.155300
0.998219 0.023690 0.155300
0.998219 0.023690 0.155300
0.998219 0.023690 0.155300
0.998219 0.023690 0.155300
0.998219 0.023690 0.155300
0.998219 0.023690 0.155300
0.998219 0.023690 0.155300
0.998219 0.023690 0.155300
0.998219 0.023690 0.155300
0.998219 0.023690 0.155300
0.998219 0.023690 0.155300
0.998219 0.023690 0.155300
0.000252 0.399000 0.000762
0.000463 0.380662 0.000402
0.000281 0.364334 0.000000
0.000000 0.346358 0.000660
0.000503 0.333993 0.000745
0.000000 0.319339 0.000609
0.016166 0.306309 0.000000
0.145208 0.297080 0.000000
0.229482 0.285521 0.000983
0.302612 0.274879 0.001034
0.379062 0.266166 0.000000
0.459621 0.255024 0.000000
0.545263 0.243104 0.000000
0.627775 0.230555 0.018901
0.705595 0.216103 0.043402
0.780878 0.196039 0.069188
0.851089 0.165424 0.094083
0.915638 0.120935 0.119593
0.967917 0.023378 0.150727
0.999588 0.022993 0.155300
0.999588 0.022993 0.155300
0.999588 0.022993 0.155300
0.998219 0.023690 0.155300
0.998219 0.023690 0.155300
0.998219 0.023690 0.155300
0.998219 0.023690 0.155300
0.998219 0.023690 0.155300
0.998219 0.023690 0.155300
0.998219 0.023690 0.155300
0.998219 0.023690 0.155300
0.998219 0.023690 0.155300
0.998219 0.023690 0.155300
0.998219 0.023690 0.155300
0.000194 0.469003 0.000247
0.000000 0.449689 0.000000
0.000000 0.431015 0.000282
0.000000 0.414351 0.000898
0.000252 0.399000 0.000762
0.000000 0.384346 0.000625
0.000080 0.371004 0.000000
0.085722 0.359084 0.000000
0.193262 0.347335 0.000418
0.276559 0.335135 0.000000
0.361024 0.328572 0.000000
0.441582 0.317430 0.000000
0.525856 0.306207 0.000000
0.607392 0.296378 0.000000
0.685604 0.282604 0.010401
0.762448 0.266504 0.037387
0.834016 0.246523 0.063925
0.899332 0.222357 0.085583
0.960944 0.185596 0.113270
0.999902 0.117682 0.138062
0.999588 0.022993 0.155300
0.999588 0.022993 0.155300
0.999588 0.022993 0.155300
0.999588 0.022993 0.155300
0.999588 0.022993 0.155300
0.998219 0.023690 0.155300
0.998219 0.023690 0.155300
0.998219 0.023690 0.155300
0.998219 0.023690 0.155300
0.998219 0.023690 0.155300
0.998219 0.023690 0.155300
0.998219 0.023690 0.155300
0.998219 0.023690 0.155300
0.000000 0.540681 0.000707
0.000000 0.522343 0.000347
0.000000 0.503028 0.000000
0.000375 0.485667 0.000000
0.000000 0.470677 0.001223
0.000000 0.454350 0.000109
0.000022 0.440672 0.000949
0.000424 0.427331 0.000058
0.141980 0.416821 0.000000
0.249912 0.403398 0.000039
0.334769 0.395162 0.000000
0.423734 0.384833 0.000000
0.506246 0.375980 0.000019
0.590520 0.364757 0.000000
0.670102 0.352639 0.000000
0.743623 0.339988 0.000000
0.814799 0.323361 0.018503
0.883044 0.300107 0.053472
0.948755 0.273594 0.077613
0.999614 0.235407 0.106587
0.999844 0.191046 0.120242
0.999884 0.141688 0.134429
0.999347 0.078013 0.146749
0.999588 0.022993 0.155300
0.999588 0.022993 0.155300
0.999588 0.022993 0.155300
0.999588 0.022993 0.155300
0.998219 0.023690 0.155300
0.998219 0.023690 0.155300
0.998219 0.023690 0.155300
0.998219 0.023690 0.155300
0.998219 0.023690 0.155300
0.998219 0.023690 0.155300
0.000661 0.611660 0.001169
0.000000 0.592345 0.000000
0.000000 0.574705 0.000000
0.000000 0.557343 0.000090
0.000000 0.541017 0.000000
0.000000 0.529013 0.000793
0.000000 0.512685 0.000000
0.000000 0.501018 0.000000
0.048859 0.487579 0.000000
0.211336 0.476265 0.000141
0.309684 0.467726 0.000329
0.405686 0.458906 0.000000
0.492305 0.447960 0.000035
0.572471 0.438830 0.000000
0.652244 0.431372 0.000050
0.731242 0.416268 0.000000
0.802810 0.401328 0.000000
0.870473 0.381808 0.000000
0.934027 0.357660 0.034590
0.994462 0.325250 0.068668
0.999575 0.284764 0.092399
0.999996 0.245063 0.107254
0.999442 0.205059 0.117672
0.999279 0.163045 0.128844
0.999710 0.112013 0.142054
0.999588 0.022993 0.155300
0.999588 0.022993 0.155300
0.999588 0.022993 0.155300
0.999588 0.022993 0.155300
0.999588 0.022993 0.155300
0.999588 0.022993 0.155300
0.999588 0.022993 0.155300
0.999588 0.022993 0.155300
0.000018 0.678677 0.000431
0.000000 0.662013 0.001047
0.000000 0.645685 0.000000
0.000000 0.629022 0.000551
0.000000 0.612693 0.000000
0.000000 0.599017 0.000278
0.000000 0.584362 0.000141
0.000000 0.572695 0.000227
0.000000 0.561029 0.000313
0.152817 0.550913 0.000551
0.277168 0.541126 0.000000
0.380599 0.531469 0.000086
0.473864 0.523708 0.001027
0.556375 0.515191 0.000000
0.637517 0.507037 0.000288
0.714362 0.496314 0.000000
0.787883 0.483662 0.000390
0.853783 0.466851 0.000000
0.918124 0.445740 0.000000
0.979926 0.417338 0.009540
0.999698 0.379833 0.048004
0.999536 0.334457 0.076480
0.998981 0.293444 0.092089
0.999403 0.254416 0.103484
0.998848 0.214076 0.115632
1.000000 0.169690 0.125829
0.999319 0.114695 0.137840
0.999588 0.022993 0.155300
0.999588 0.022993 0.155300
0.999588 0.022993 0.155300
0.999588 0.022993 0.155300
0.999588 0.022993 0.155300
0.999588 0.022993 0.155300
0.000553 0.739999 0.000223
0.000372 0.723336 0.000840
0.000773 0.709994 0.000000
0.000199 0.695341 0.000000
0.000603 0.681663 0.000653
0.000028 0.667010 0.000516
0.000038 0.655343 0.000602
0.000000 0.642698 0.000000
0.000058 0.632008 0.000774
0.060672 0.622983 0.000000
0.243284 0.614550 0.000976
0.356098 0.607019 0.000856
0.449754 0.597920 0.000000
0.535196 0.592334 0.000785
0.616730 0.582504 0.000305
0.693181 0.573791 0.000000
0.765335 0.561838 0.000000
0.831426 0.549687 0.000234
0.896744 0.529889 0.000000
0.955021 0.508581 0.000000
0.999429 0.477584 0.000000
0.999266 0.433889 0.019219
0.999104 0.388850 0.045965
0.999335 0.342137 0.071734
0.999173 0.299449 0.086368
0.999010 0.256427 0.102732
0.998848 0.214076 0.115632
0.999864 0.166031 0.129066
0.999710 0.112013 0.142054
0.999588 0.022993 0.155300
0.999588 0.022993 0.155300
0.999588 0.022993 0.155300
0.999588 0.022993 0.155300
0.000000 0.790352 0.000101
0.000000 0.778685 0.000186
0.000140 0.765008 0.001027
0.000000 0.752364 0.000137
0.000160 0.742010 0.000000
0.000000 0.729029 0.000308
0.000180 0.718675 0.000000
0.000190 0.707007 0.000000
0.000000 0.699024 0.000035
0.000007 0.690344 0.000343
0.201777 0.684151 0.000000
0.328082 0.676316 0.000203
0.428775 0.668391 0.000000
0.516955 0.661746 0.000000
0.599467 0.652893 0.000097
0.675526 0.645854 0.000000
0.743963 0.634319 0.000000
0.813769 0.622085 0.000000
0.876540 0.608343 0.000000
0.935011 0.591696 0.000523
0.991729 0.566425 0.000000
0.999580 0.528913 0.000250
0.999227 0.484255 0.000000
0.999065 0.441231 0.016202
0.999688 0.391837 0.046187
0.999335 0.342137 0.071734
0.998981 0.293444 0.092089
1.000000 0.250060 0.106723
0.999049 0.207070 0.116918
0.999480 0.156037 0.130129
1.000000 0.145011 0.132921
0.998907 0.140711 0.133452
0.999692 0.136691 0.134961
0.000000 0.838696 0.000734
0.000677 0.826331 0.000820
0.000000 0.815697 0.000000
0.000000 0.804030 0.000000
0.000313 0.793338 0.000324
0.000000 0.783682 0.000000
0.000000 0.775698 0.000000
0.000000 0.768692 0.001251
0.000000 0.759035 0.000582
0.000000 0.750690 0.000000
0.154805 0.744873 0.000000
0.300268 0.738607 0.000836
0.410737 0.730796 0.000000
0.500286 0.723454 0.000000
0.582011 0.718286 0.000421
0.657094 0.709933 0.000695
0.724746 0.702082 0.000746
0.791814 0.691244 0.000574
0.854192 0.679512 0.000179
0.915986 0.664792 0.000000
0.968787 0.646274 0.000000
0.998334 0.616277 0.000000
1.000000 0.578569 0.000128
0.999380 0.535583 0.000695
0.998442 0.487938 0.000063
1.000000 0.435538 0.016734
0.998913 0.383853 0.046496
0.999928 0.332448 0.077235
0.999966 0.283090 0.091422
0.998828 0.238754 0.108540
0.999432 0.217062 0.115856
0.998848 0.214076 0.115632
0.999633 0.210056 0.117140
0.000436 0.879670 0.000922
0.000053 0.870013 0.000254
0.000000 0.859043 0.000339
0.000264 0.851675 0.000000
0.000000 0.841682 0.000958
0.000082 0.835010 0.000512
0.000283 0.828340 0.000066
0.000000 0.820357 0.000375
0.000000 0.813686 0.000000
0.000000 0.806680 0.001214
0.111749 0.798172 0.000117
0.285168 0.792947 0.000492
0.387815 0.787311 0.000148
0.483031 0.782176 0.000000
0.564175 0.774020 0.000077
0.639840 0.768655 0.000574
0.707886 0.759130 0.000000
0.773192 0.750999 0.000000
0.836153 0.741917 0.000281
0.896578 0.727895 0.000000
0.949570 0.714374 0.000000
0.989276 0.693813 0.000555
0.993996 0.660042 0.000000
0.999894 0.620241 0.000317
1.000000 0.578569 0.000128
0.999580 0.528913 0.000250
0.999820 0.475574 0.000148
0.999275 0.420877 0.026226
0.999708 0.366149 0.058473
0.999355 0.316785 0.082289
0.999383 0.279095 0.096390
0.999776 0.277085 0.097144
0.999976 0.269406 0.101891
0.000000 0.918356 0.000887
0.000607 0.908001 0.000219
0.000000 0.901692 0.001503
0.000000 0.895357 0.000000
0.000000 0.887374 0.000000
0.000043 0.881680 0.000168
0.000244 0.875009 0.000000
0.000000 0.868700 0.001009
0.000254 0.863006 0.001540
0.000000 0.855358 0.000117
0.072799 0.849714 0.000000
0.267138 0.843685 0.000679
0.371738 0.840338 0.000559
0.466372 0.832216 0.000000
0.547121 0.826072 0.000000
0.621419 0.821404 0.000008
0.687702 0.814249 0.000059
0.751639 0.806480 0.000863
0.817338 0.796339 0.000692
0.874630 0.785722 0.000000
0.927232 0.773875 0.000000
0.979250 0.759041 0.000000
0.985139 0.730908 0.000297
0.989860 0.697136 0.000000
0.993020 0.658730 0.000059
0.999119 0.612594 0.000000
0.999158 0.565925 0.000000
0.998422 0.511273 0.000000
0.999055 0.455587 0.002274
0.999095 0.402197 0.037227
0.998941 0.344483 0.069250
0.999728 0.340798 0.069028
0.999536 0.334457 0.076480
0.000000 0.951684 0.000000
0.000000 0.946686 0.000183
0.000000 0.941689 0.000715
0.000000 0.935019 0.000270
0.000004 0.928349 0.000000
0.000000 0.922376 0.000000
0.000014 0.916681 0.000000
0.000000 0.910709 0.000000
0.000000 0.905712 0.000000
0.000000 0.900017 0.000526
0.058685 0.893364 0.000355
0.251657 0.888369 0.000000
0.358994 0.883628 0.000000
0.449127 0.879271 0.000000
0.529484 0.874800 0.000454
0.601828 0.867843 0.000726
0.671433 0.862616 0.000000
0.732634 0.856242 0.000074
0.794225 0.848194 0.000000
0.853864 0.837855 0.000000
0.909787 0.827601 0.000000
0.960044 0.815138 0.000757
0.978246 0.792730 0.000000
0.982180 0.762307 0.000570
0.985531 0.729233 0.000000
0.989085 0.689152 0.000000
0.995768 0.645668 0.000145
0.999914 0.596906 0.000488
0.998785 0.544265 0.000386
0.999227 0.484255 0.000000
0.999860 0.423863 0.026450
0.999869 0.411189 0.031725
0.999095 0.403878 0.028575
0.000157 0.979678 0.000679
0.000549 0.977668 0.001434
0.000000 0.972032 0.000000
0.000000 0.967034 0.000000
0.000000 0.963350 0.000000
0.000000 0.960028 0.001074
0.000000 0.953357 0.000628
0.000377 0.949673 0.000406
0.000000 0.943700 0.000000
0.000000 0.940016 0.000000
0.069208 0.936464 0.000000
0.243997 0.930541 0.000000
0.349965 0.926498 0.000000
0.436776 0.920548 0.000000
0.515764 0.916776 0.000196
0.583023 0.910934 0.000000
0.653606 0.906348 0.000743
0.714806 0.900310 0.000000
0.776005 0.893935 0.000621
0.833880 0.886305 0.000000
0.887459 0.875434 0.000586
0.936345 0.864005 0.000000
0.967836 0.847965 0.000000
0.973333 0.821841 0.000000
0.976292 0.790440 0.000000
0.984726 0.756251 0.000000
0.987303 0.714859 0.000161
0.993986 0.671709 0.000000
0.999503 0.622251 0.000000
0.999743 0.568912 0.000000
0.999207 0.507589 0.000000
0.998644 0.481268 0.000000
0.999429 0.477584 0.000000
0.000000 0.981688 0.000000
0.000157 0.979678 0.000679
0.000000 0.981688 0.000000
0.000000 0.980375 0.000679
0.000157 0.979678 0.000679
0.000000 0.980375 0.000679
0.000000 0.980375 0.000679
0.000157 0.979678 0.000679
0.000000 0.975018 0.000000
0.000000 0.973705 0.000234
0.113756 0.968463 0.000335
0.251398 0.965043 0.000000
0.343875 0.961301 0.000000
0.425209 0.958143 0.000000
0.500874 0.952778 0.000000
0.568719 0.949923 0.000000
0.635980 0.943745 0.000039
0.696786 0.939381 0.000090
0.755640 0.932727 0.000000
0.812148 0.925458 0.000501
0.865332 0.916933 0.000000
0.913826 0.907179 0.000000
0.961153 0.891450 0.000000
0.963126 0.870404 0.000000
0.968621 0.844281 0.000000
0.973926 0.813161 0.000226
0.979040 0.777378 0.000000
0.984938 0.737914 0.000000
0.990253 0.695126 0.000000
0.997138 0.644970 0.000145
0.999139 0.589259 0.000000
0.998776 0.555931 0.000301
0.999953 0.550574 0.000000
0.000000 0.981688 0.000000
0.000000 0.981688 0.000000
0.000000 0.981688 0.000000
0.000157 0.979678 0.000679
0.000000 0.981688 0.000000
0.000000 0.981688 0.000000
0.000000 0.981688 0.000000
0.000000 0.981688 0.000000
0.000000 0.983361 0.000902
0.000000 0.981688 0.000000
0.176698 0.983051 0.000000
0.270737 0.983609 0.000000
0.344833 0.985613 0.000000
0.417951 0.986639 0.000000
0.488534 0.982388 0.000000
0.551686 0.978304 0.000348
0.615815 0.975531 0.000621
0.674275 0.970887 0.000000
0.732737 0.965907 0.000501
0.786899 0.958360 0.000106
0.841061 0.950811 0.000000
0.890531 0.942369 0.000000
0.934727 0.929709 0.000000
0.956442 0.913554 0.000294
0.962521 0.890417 0.000688
0.964696 0.863037 0.000000
0.971369 0.831219 0.000000
0.976091 0.797112 0.000090
0.981988 0.757646 0.000000
0.987696 0.713184 0.000000
0.994581 0.663028 0.000000
0.999503 0.622251 0.000000
1.000000 0.618566 0.000000
0.000000 0.981688 0.000000
0.000000 0.981688 0.000000
0.000000 0.981688 0.000000
0.000000 0.981688 0.000000
0.000000 0.981688 0.000000
0.000000 0.981688 0.000000
0.000000 0.981688 0.000000
0.000000 0.981688 0.000000
0.000000 0.983361 0.000902
0.045902 0.982985 0.000730
0.198594 0.983560 0.000000
0.292633 0.983782 0.000539
0.356954 0.986007 0.000281
0.424012 0.986836 0.000023
0.479927 0.988247 0.000297
0.540924 0.988880 0.000000
0.599184 0.990906 0.000000
0.655097 0.992318 0.000000
0.702998 0.991244 0.000000
0.762829 0.985566 0.000243
0.815621 0.978715 0.000000
0.863331 0.972645 0.000208
0.910456 0.963587 0.000345
0.947221 0.951428 0.000790
0.950171 0.932031 0.000000
0.956250 0.908894 0.000000
0.960770 0.881458 0.000019
0.966467 0.848662 0.000000
0.972558 0.813858 0.000226
0.978455 0.774392 0.000000
0.985531 0.729233 0.000000
0.991823 0.687758 0.000000
0.993001 0.682064 0.000000
0.000000 0.981688 0.000000
0.000000 0.981688 0.000000
0.000000 0.981688 0.000000
0.000000 0.981688 0.000000
0.000000 0.981688 0.000000
0.000000 0.981688 0.000000
0.000000 0.981688 0.000000
0.000000 0.983361 0.000902
0.000000 0.981688 0.000000
0.099863 0.982107 0.000781
0.198594 0.983560 0.000000
0.276796 0.983471 0.000848
0.340141 0.984719 0.000000
0.403484 0.985630 0.000110
0.461744 0.987655 0.000000
0.519028 0.988371 0.000000
0.577287 0.990397 0.000000
0.634178 0.992786 0.000672
0.691461 0.993500 0.000944
0.739946 0.995748 0.000000
0.788429 0.997660 0.000000
0.835938 0.998260 0.000121
0.885408 0.989817 0.000000
0.930189 0.980480 0.000000
0.946426 0.967115 0.000000
0.948006 0.948080 0.000000
0.954478 0.922932 0.000000
0.958607 0.897505 0.000157
0.963911 0.866720 0.000000
0.972739 0.830521 0.000000
0.976292 0.790440 0.000000
0.981213 0.749663 0.000000
0.985521 0.740900 0.000000
0.050987 0.982205 0.000000
0.012863 0.983395 0.000000
0.005825 0.981885 0.000148
0.005825 0.981885 0.000148
0.005825 0.981885 0.000148
0.003478 0.981269 0.000902
0.000000 0.981688 0.000000
0.000000 0.981688 0.000000
0.005825 0.981885 0.000148
0.115699 0.982419 0.000472
0.198594 0.983560 0.000000
0.254509 0.984972 0.000179
0.321567 0.985801 0.000000
0.380220 0.985818 0.000196
0.437502 0.986532 0.000468
0.493417 0.987943 0.000743
0.548355 0.988379 0.000039
0.602899 0.990488 0.000312
0.655097 0.992318 0.000000
0.704559 0.995206 0.000637
0.758127 0.996339 0.000000
0.810327 0.998168 0.000000
0.862526 0.999664 0.000257
0.905343 0.999704 0.000000
0.938776 0.997620 0.000000
0.941916 0.982548 0.000085
0.944866 0.962815 0.000000
0.950946 0.939679 0.000121
0.958203 0.911183 0.000000
0.961163 0.879447 0.000773
0.968621 0.844281 0.000000
0.975104 0.807802 0.000000
0.976876 0.793428 0.000000
0.115699 0.982419 0.000472
0.115699 0.982419 0.000472
0.117069 0.981722 0.000472
0.099863 0.982107 0.000781
0.082659 0.982493 0.001091
0.082659 0.982493 0.001091
0.045902 0.982985 0.000730
0.050987 0.982205 0.000000
0.082659 0.982493 0.001091
0.153432 0.983240 0.000077
0.207393 0.982362 0.000128
0.254509 0.984972 0.000179
0.314529 0.984291 0.000454
0.364383 0.985506 0.000504
0.416974 0.985326 0.000555
0.465459 0.987238 0.000606
0.515313 0.988453 0.000655
0.568489 0.991259 0.000930
0.618735 0.990800 0.000005
0.669564 0.993327 0.000000
0.721765 0.995157 0.000000
0.773964 0.996650 0.000000
0.826163 0.998481 0.000000
0.873671 0.999080 0.000000
0.919810 1.000000 0.000532
