lut/fujifilm/F-Log/F-Log_LUT_E_Ver.1.27/X-H2S/XH2S_FLog_FGamut_to_ETERNA_BT.709_33grid_V.1.00.cube
#title:FLog_FGamut_to_ETERNA_BT.709
#FUJIFILM Corporation
#Gamma:F-Log to ETERNA
#Gamut:F-Gamut to ITU-R BT.709
#Version:1.00
LUT_3D_SIZE 9
0.006836 0.006836 0.006836
0.175554 0.010367 0.017285
0.520028 0.013562 0.065340
0.906727 0.019765 0.141356
0.998219 0.023690 0.155300
0.998219 0.023690 0.155300
0.998219 0.023690 0.155300
0.998219 0.023690 0.155300
0.998219 0.023690 0.155300
0.000000 0.113349 0.000649
0.067986 0.059470 0.003750
0.336261 0.010404 0.032481
0.694024 0.016606 0.098731
0.998219 0.023690 0.155300
0.998219 0.023690 0.155300
0.998219 0.023690 0.155300
0.998219 0.023690 0.155300
0.998219 0.023690 0.155300
0.000503 0.333993 0.000745
0.000000 0.273006 0.000000
0.251036 0.229703 0.000574
0.568770 0.184871 0.023410
0.864303 0.020067 0.131144
0.998219 0.023690 0.155300
0.998219 0.023690 0.155300
0.998219 0.023690 0.155300
0.998219 0.023690 0.155300
0.000661 0.611660 0.001169
0.000000 0.541017 0.000000
0.048859 0.487579 0.000000
0.492305 0.447960 0.000035
0.802810 0.401328 0.000000
0.999575 0.284764 0.092399
0.999710 0.112013 0.142054
0.999588 0.022993 0.155300
0.999588 0.022993 0.155300
0.000000 0.838696 0.000734
0.000313 0.793338 0.000324
0.000000 0.759035 0.000582
0.410737 0.730796 0.000000
0.724746 0.702082 0.000746
0.968787 0.646274 0.000000
0.998442 0.487938 0.000063
0.999966 0.283090 0.091422
0.999633 0.210056 0.117140
0.000157 0.979678 0.000679
0.000000 0.963350 0.000000
0.000000 0.943700 0.000000
0.349965 0.926498 0.000000
0.653606 0.906348 0.000743
0.887459 0.875434 0.000586
0.976292 0.790440 0.000000
0.999503 0.622251 0.000000
0.999429 0.477584 0.000000
0.000000 0.981688 0.000000
0.000000 0.981688 0.000000
0.000000 0.981688 0.000000
0.340141 0.984719 0.000000
0.577287 0.990397 0.000000
0.788429 0.997660 0.000000
0.946426 0.967115 0.000000
0.963911 0.866720 0.000000
0.985521 0.740900 0.000000
0.207393 0.982362 0.000128
0.177674 0.984363 0.000000
0.162231 0.982042 0.000301
0.301039 0.984595 0.000008
0.461744 0.987655 0.000000
0.651383 0.992401 0.000363
0.851382 1.000000 0.000790
0.942098 0.999212 0.000000
0.952909 0.930300 0.000430
0.290287 0.983504 0.000000
0.290287 0.983504 0.000000
0.290287 0.983504 0.000000
0.340141 0.984719 0.000000
0.429096 0.985720 0.000999
0.551676 0.989971 0.000263
0.709643 0.994426 0.000000
0.899282 0.999507 0.000000
0.942098 0.999212 0.000000
0.007018 0.006697 0.092743
0.169495 0.010170 0.017062
0.515337 0.013004 0.063387
0.883855 0.019961 0.131812
0.998219 0.023690 0.155300
0.998219 0.023690 0.155300
0.998219 0.023690 0.155300
0.998219 0.023690 0.155300
0.998219 0.023690 0.155300
0.000084 0.112500 0.105813
0.056641 0.056641 0.056641
0.326485 0.010961 0.029551
0.679556 0.016269 0.095578
0.986098 0.023633 0.153126
0.998219 0.023690 0.155300
0.998219 0.023690 0.155300
0.998219 0.023690 0.155300
0.998219 0.023690 0.155300
0.000000 0.326879 0.081769
0.000158 0.271618 0.031570
0.241844 0.232911 0.000000
0.561924 0.189030 0.019949
0.859410 0.026515 0.127905
0.998219 0.023690 0.155300
0.998219 0.023690 0.155300
0.998219 0.023690 0.155300
0.998219 0.023690 0.155300
0.000000 0.607697 0.000000
0.000000 0.542690 0.000000
0.019725 0.492231 0.000742
0.486042 0.454435 0.000257
0.799872 0.409728 0.000000
0.998981 0.293444 0.092089
0.999309 0.127035 0.134293
0.999588 0.022993 0.155300
0.999588 0.022993 0.155300
0.000000 0.830014 0.001043
0.000000 0.790352 0.000101
0.000000 0.761044 0.000000
0.396068 0.736458 0.000492
0.722592 0.706799 0.000000
0.969956 0.652248 0.000000
0.998825 0.497931 0.000000
0.999373 0.292107 0.089383
1.000000 0.220720 0.112617
0.000000 0.973705 0.000234
0.000000 0.957377 0.000000
0.000000 0.940713 0.000000
0.319269 0.926850 0.001104
0.644807 0.907546 0.000519
0.883352 0.877862 0.000000
0.976091 0.797112 0.000090
0.998324 0.627609 0.000761
0.998833 0.486264 0.000000
0.000000 0.980375 0.000679
0.000000 0.980375 0.000679
0.000000 0.980375 0.000679
0.314529 0.984291 0.000454
0.565166 0.989667 0.000706
0.778655 0.997545 0.000000
0.946034 0.968789 0.000172
0.964494 0.869707 0.000000
0.984345 0.746594 0.000000
0.238089 0.981673 0.000266
0.212476 0.981583 0.000000
0.201725 0.980491 0.000000
0.300062 0.983282 0.000761
0.455684 0.987459 0.000000
0.642977 0.991924 0.000000
0.842975 0.999769 0.000000
0.942098 0.999212 0.000000
0.952124 0.934320 0.000000
0.311599 0.980689 0.000984
0.306516 0.981806 0.000008
0.296348 0.983701 0.000000
0.337795 0.984103 0.000366
0.424012 0.986836 0.000023
0.548355 0.988379 0.000039
0.704559 0.995206 0.000637
0.895567 0.999589 0.000000
0.942098 0.999212 0.000000
0.014609 0.003177 0.313675
0.145605 0.007327 0.257118
0.499482 0.014182 0.176003
0.860589 0.020149 0.131898
0.998219 0.023690 0.155300
0.998219 0.023690 0.155300
0.998219 0.023690 0.155300
0.998219 0.023690 0.155300
0.998219 0.023690 0.155300
0.000000 0.099818 0.335485
0.000506 0.046250 0.257375
0.313549 0.009933 0.231535
0.663721 0.016628 0.092426
0.972608 0.023937 0.152680
0.998219 0.023690 0.155300
0.998219 0.023690 0.155300
0.998219 0.023690 0.155300
0.998219 0.023690 0.155300
0.000262 0.325495 0.319254
0.000000 0.269937 0.254988
0.233398 0.233398 0.233398
0.560133 0.193804 0.188523
0.854680 0.074306 0.116956
0.998219 0.023690 0.155300
0.998219 0.023690 0.155300
0.998219 0.023690 0.155300
0.998219 0.023690 0.155300
0.000028 0.604501 0.322382
0.000000 0.547934 0.263309
0.000000 0.501981 0.234766
0.487565 0.464402 0.210501
0.800054 0.418663 0.037605
0.998578 0.308467 0.084328
0.999884 0.141688 0.134429
0.999588 0.022993 0.155300
0.999588 0.022993 0.155300
0.000000 0.818867 0.317598
0.000000 0.785933 0.272419
0.000303 0.758964 0.237311
0.386849 0.734003 0.208644
0.726479 0.709171 0.131028
0.965063 0.658024 0.000000
0.998815 0.509599 0.000000
0.999363 0.304111 0.087567
0.999815 0.227392 0.113063
0.000000 0.960902 0.286926
0.000338 0.946603 0.256172
0.000000 0.933002 0.225418
0.312988 0.918346 0.198428
0.641857 0.902745 0.127203
0.873970 0.875737 0.000141
0.974721 0.797810 0.000090
0.998122 0.634615 0.000000
1.000000 0.496898 0.000730
0.000520 0.975366 0.193257
0.000000 0.974769 0.165125
0.000000 0.976793 0.145113
0.306497 0.980271 0.127891
0.558522 0.986484 0.000263
0.764189 0.996536 0.000157
0.946426 0.967115 0.000000
0.962340 0.874089 0.000000
0.984726 0.756251 0.000000
0.227901 0.978673 0.145231
0.213826 0.979014 0.128989
0.201907 0.979344 0.090027
0.335047 0.980697 0.085075
0.469959 0.983471 0.000000
0.643371 0.989914 0.000000
0.835545 1.000000 0.000000
0.942098 0.999212 0.000000
0.949578 0.940376 0.000121
0.312154 0.979693 0.201684
0.323108 0.980163 0.170535
0.329763 0.979074 0.132996
0.369659 0.980985 0.044211
0.445717 0.982348 0.000468
0.555784 0.987878 0.000263
0.697521 0.994033 0.000000
0.889506 0.999392 0.000000
0.942098 0.999212 0.000000
0.016905 0.003316 0.615324
0.026893 0.003913 0.517528
0.478130 0.010565 0.447651
0.846878 0.020547 0.285739
0.998219 0.023690 0.155300
0.998219 0.023690 0.155300
0.998219 0.023690 0.155300
0.998219 0.023690 0.155300
0.998219 0.023690 0.155300
0.000609 0.082653 0.635043
0.007321 0.026009 0.523609
0.287707 0.006816 0.460985
0.663088 0.014175 0.389414
0.960879 0.022541 0.147797
0.998219 0.023690 0.155300
0.998219 0.023690 0.155300
0.998219 0.023690 0.155300
0.998219 0.023690 0.155300
0.000214 0.327708 0.607814
0.000664 0.273171 0.519098
0.190150 0.236330 0.468792
0.556570 0.197830 0.434128
0.861859 0.093443 0.350808
0.998219 0.023690 0.155300
0.998219 0.023690 0.155300
0.998219 0.023690 0.155300
0.998219 0.023690 0.155300
0.000773 0.598083 0.576196
0.000238 0.547514 0.521028
0.000278 0.506559 0.491953
0.472656 0.472656 0.472656
0.805854 0.423278 0.409809
0.999728 0.316265 0.195352
0.999089 0.157711 0.131106
0.999588 0.022993 0.155300
0.999588 0.022993 0.155300
0.000000 0.801790 0.566304
0.000000 0.775855 0.529470
0.000264 0.752870 0.508653
0.341052 0.733916 0.491960
0.717239 0.707534 0.454949
0.966575 0.659494 0.313907
0.998603 0.527936 0.000000
0.999746 0.314775 0.083043
0.999221 0.236744 0.109292
0.000000 0.941505 0.541578
0.000308 0.929851 0.522406
0.000126 0.917555 0.500527
0.232400 0.906348 0.497270
0.628711 0.892833 0.469715
0.875088 0.866784 0.377398
0.982715 0.793720 0.154374
0.996946 0.640309 0.000000
0.999207 0.507589 0.000000
0.000000 0.968967 0.460161
0.000000 0.970312 0.453238
0.000000 0.969678 0.440903
0.220232 0.975717 0.437558
0.533627 0.983051 0.417321
0.764531 0.986993 0.339652
0.955215 0.959773 0.091046
0.963126 0.870404 0.000000
0.982180 0.762307 0.000570
0.110366 0.974943 0.378484
0.016719 0.975063 0.366493
0.049176 0.975026 0.350078
0.290822 0.977275 0.347179
0.481437 0.980308 0.362735
0.645666 0.987701 0.313680
0.832596 0.997485 0.115668
0.942098 0.999212 0.000000
0.948792 0.944059 0.000345
0.236268 0.975407 0.405657
0.253281 0.975738 0.376461
0.270294 0.975733 0.348996
0.353581 0.977889 0.333609
0.461111 0.980497 0.320843
0.562198 0.985684 0.243160
0.703764 0.992074 0.095949
0.882077 0.999556 0.000926
0.942098 0.999212 0.000000
0.024096 0.000704 0.901176
0.023913 0.000000 0.820461
0.432336 0.007118 0.748273
0.839197 0.017159 0.640278
0.999176 0.023469 0.282431
0.998219 0.023690 0.155300
0.998219 0.023690 0.155300
0.998219 0.023690 0.155300
0.998219 0.023690 0.155300
0.010565 0.049356 0.891734
0.023913 0.003532 0.801426
0.230969 0.003667 0.728813
0.657371 0.013171 0.683697
0.961405 0.019915 0.536859
0.998219 0.023690 0.155300
0.998219 0.023690 0.155300
0.998219 0.023690 0.155300
0.998219 0.023690 0.155300
0.000576 0.317010 0.833269
0.000625 0.272117 0.764480
0.000270 0.238885 0.705235
0.537756 0.201505 0.695840
0.865133 0.094894 0.651704
0.999155 0.019917 0.420694
0.998219 0.023690 0.155300
0.998219 0.023690 0.155300
0.998219 0.023690 0.155300
0.000000 0.580113 0.782704
0.000208 0.541179 0.733617
0.000000 0.506933 0.689192
0.416895 0.477205 0.706852
0.796815 0.423372 0.690025
0.999860 0.318337 0.569816
1.000000 0.245076 0.302761
0.999588 0.022993 0.155300
0.999588 0.022993 0.155300
0.000206 0.778512 0.736560
0.000224 0.760219 0.710774
0.000000 0.739940 0.689202
0.214145 0.721434 0.700629
0.700195 0.700195 0.700195
0.961251 0.651441 0.634899
0.999684 0.548512 0.464441
0.999133 0.350151 0.065258
0.999604 0.247410 0.104770
0.000489 0.911899 0.700028
0.000000 0.901944 0.685293
0.000000 0.892629 0.673266
0.000711 0.885590 0.680719
0.582161 0.875544 0.680831
0.862545 0.850638 0.647625
0.999671 0.784741 0.533056
0.999434 0.652167 0.265453
0.999580 0.528913 0.000250
0.000259 0.963989 0.646569
0.000000 0.964021 0.640403
0.000000 0.964694 0.636941
0.000000 0.970026 0.634681
0.469862 0.977479 0.630390
0.745536 0.972323 0.610633
0.953205 0.945821 0.510813
0.980674 0.859803 0.342000
0.980025 0.767025 0.000000
0.000270 0.968790 0.561864
0.000000 0.968491 0.547796
0.000000 0.970507 0.537414
0.121683 0.972108 0.534723
0.421195 0.976714 0.539242
0.636637 0.984193 0.552449
0.828632 0.993680 0.471185
0.952228 0.999288 0.229500
0.949578 0.940376 0.000121
0.000461 0.970761 0.576906
0.000000 0.972479 0.552458
0.040155 0.972286 0.524907
0.255214 0.975149 0.511487
0.406929 0.977436 0.495844
0.566266 0.981531 0.493735
0.710360 0.988396 0.431676
0.884383 0.997438 0.254207
0.942098 0.999212 0.000000
0.027599 0.000000 0.999417
0.027599 0.000000 0.999417
0.287236 0.003695 0.966571
0.807677 0.013422 0.922087
1.000000 0.016779 0.698426
1.000000 0.023203 0.220220
0.998219 0.023690 0.155300
0.998219 0.023690 0.155300
0.998219 0.023690 0.155300
0.027599 0.000000 0.999417
0.027599 0.000000 0.999417
0.023310 0.000355 0.922164
0.613931 0.011107 0.919621
0.949235 0.017027 0.849199
0.999922 0.020747 0.517207
0.998219 0.023690 0.155300
0.998219 0.023690 0.155300
0.998219 0.023690 0.155300
0.000585 0.278122 0.973523
0.000615 0.248497 0.946093
0.000835 0.228910 0.892175
0.464215 0.198843 0.893867
0.846911 0.093923 0.892957
1.000000 0.016721 0.743110
0.999549 0.023621 0.392031
0.998219 0.023690 0.155300
0.998219 0.023690 0.155300
0.000000 0.540552 0.926419
0.000983 0.516564 0.901164
0.000228 0.491967 0.867035
0.272982 0.465831 0.877312
0.760814 0.417206 0.884726
1.000000 0.308889 0.848831
1.000000 0.272968 0.588663
0.999874 0.136888 0.219137
0.998219 0.023690 0.155300
0.000415 0.733625 0.872905
0.000000 0.724006 0.856442
0.000244 0.712015 0.839001
0.000000 0.701014 0.845255
0.632342 0.682791 0.864984
0.938357 0.632289 0.844954
1.000000 0.562113 0.709961
0.999388 0.432169 0.473199
0.998912 0.333778 0.304336
0.000116 0.867386 0.818847
0.000711 0.861729 0.803582
0.000328 0.854425 0.790801
0.000328 0.851400 0.806376
0.475999 0.846697 0.825113
0.824219 0.824219 0.824219
1.000000 0.773035 0.763703
0.998973 0.668969 0.608460
0.998889 0.572265 0.421316
0.000000 0.954808 0.773033
0.000000 0.956488 0.764380
0.000000 0.956158 0.756480
0.000000 0.955150 0.761672
0.308562 0.955540 0.772359
0.692349 0.948922 0.776398
0.934610 0.925206 0.742833
0.995686 0.849976 0.653055
0.997737 0.770544 0.474169
0.000643 0.962892 0.702614
0.000000 0.962924 0.696445
0.000059 0.963602 0.683356
0.000643 0.966589 0.683578
0.272784 0.972467 0.693375
0.579919 0.980898 0.701047
0.811587 0.991047 0.692202
0.971135 0.996296 0.589367
0.975320 0.931448 0.432582
0.000000 0.964560 0.713218
0.000643 0.964573 0.693962
0.000000 0.966956 0.675679
0.000000 0.969309 0.663566
0.278069 0.972747 0.652375
0.508178 0.978261 0.645793
0.709152 0.986746 0.648926
0.879249 0.996061 0.566014
0.953586 1.000000 0.281327
0.027599 0.000000 0.999417
0.027599 0.000000 0.999417
0.027599 0.000000 0.999417
0.718321 0.010638 0.999461
1.000000 0.016639 0.999098
1.000000 0.019936 0.606575
0.998219 0.023690 0.155300
0.998219 0.023690 0.155300
0.998219 0.023690 0.155300
0.027599 0.000000 0.999417
0.027599 0.000000 0.999417
0.027599 0.000000 0.999417
0.478434 0.006354 0.999652
0.912066 0.013289 1.000000
1.000000 0.016581 0.829015
0.999741 0.019544 0.438223
0.999578 0.022562 0.217511
0.998219 0.023690 0.155300
0.000845 0.199095 0.985707
0.000000 0.197783 0.986461
0.000654 0.193763 0.987970
0.280435 0.180467 0.999359
0.798226 0.078182 0.998910
1.000000 0.016644 0.989470
0.999700 0.020507 0.673223
1.000000 0.023260 0.390301
1.000000 0.023012 0.341181
0.000842 0.444830 0.945387
0.000449 0.446503 0.946363
0.000258 0.441843 0.945165
0.000268 0.430176 0.945250
0.672836 0.394664 1.000000
0.991797 0.290506 0.999828
0.999878 0.247281 0.815715
1.000000 0.203397 0.526970
1.000000 0.193131 0.475450
0.000082 0.660254 0.900355
0.000867 0.656234 0.901862
0.001259 0.653889 0.904349
0.000282 0.652576 0.905101
0.477909 0.640416 0.974246
0.879907 0.598716 0.982672
0.999635 0.525519 0.882786
1.000000 0.448807 0.683887
1.000000 0.404960 0.594110
0.000941 0.807959 0.865691
0.000000 0.807318 0.862986
0.000357 0.805309 0.863738
0.000000 0.801986 0.865246
0.177089 0.802252 0.921355
0.748371 0.789059 0.947204
1.000000 0.738433 0.922685
0.999719 0.679019 0.777480
0.999385 0.627157 0.694180
0.000000 0.920712 0.838207
0.000854 0.917669 0.840692
0.000000 0.913370 0.841223
0.000000 0.915348 0.846636
0.000000 0.916641 0.874769
0.588153 0.915066 0.898493
0.893555 0.893555 0.893555
1.000000 0.839589 0.831344
1.000000 0.777740 0.739476
0.000633 0.953387 0.811548
0.000633 0.954731 0.804626
0.000000 0.954427 0.800187
0.000000 0.958415 0.804848
0.000623 0.963710 0.818384
0.448911 0.973963 0.831929
0.761322 0.986611 0.838316
0.985582 0.979976 0.798274
0.991117 0.920289 0.731301
0.000240 0.954052 0.817714
0.000240 0.956741 0.803871
0.000633 0.957756 0.789050
0.000000 0.960133 0.780399
0.000824 0.964769 0.778136
0.354491 0.974166 0.778715
0.648527 0.982570 0.778044
0.866707 0.992351 0.772216
0.973078 1.000000 0.641418
0.027599 0.000000 0.999417
0.027599 0.000000 0.999417
0.027599 0.000000 0.999417
0.451456 0.006625 1.000000
0.970719 0.013642 0.998738
0.999863 0.016144 0.900855
0.999137 0.019726 0.541656
0.998956 0.019867 0.455750
1.000000 0.023260 0.390301
0.027599 0.000000 0.999417
0.027599 0.000000 0.999417
0.027599 0.000000 0.999417
0.157025 0.000231 1.000000
0.819789 0.010360 1.000000
1.000000 0.016639 0.999098
0.999691 0.020075 0.735434
1.000000 0.019695 0.547825
1.000000 0.019791 0.487343
0.000904 0.126740 0.998336
0.001488 0.130063 0.996828
0.001679 0.135058 0.996296
0.001479 0.142065 0.995012
0.654133 0.083077 1.000000
1.000000 0.013651 0.998875
0.999470 0.016809 0.907023
1.000000 0.019847 0.657425
1.000000 0.019600 0.608304
0.001323 0.334454 0.964220
0.000144 0.340147 0.963688
0.000144 0.340147 0.963688
0.001313 0.346457 0.962403
0.460938 0.356084 1.000000
0.913230 0.257268 1.000000
0.999888 0.199990 0.999229
1.000000 0.176036 0.753043
1.000000 0.168782 0.705208
0.000753 0.553531 0.925578
0.000000 0.554564 0.923847
0.000945 0.558864 0.923316
0.000160 0.562548 0.923540
0.106310 0.568109 0.959141
0.775345 0.552033 1.000000
1.000000 0.452313 1.000000
1.000000 0.411548 0.850542
0.999580 0.377682 0.778961
0.000809 0.729262 0.885774
0.000809 0.729262 0.885774
0.000000 0.728285 0.884797
0.000000 0.728621 0.883066
0.000607 0.732572 0.903523
0.610387 0.731112 0.973575
0.946494 0.691195 1.000000
0.999729 0.642146 0.907352
0.998802 0.597957 0.828935
0.000116 0.861001 0.851727
0.000510 0.858655 0.854211
0.000000 0.857678 0.853234
0.000000 0.857678 0.853234
0.000116 0.858312 0.865571
0.385253 0.862233 0.931734
0.813026 0.852219 0.983524
1.000000 0.812075 0.947817
1.000000 0.772186 0.868868
0.000823 0.951998 0.843894
0.000000 0.953031 0.842164
0.000000 0.951022 0.842918
0.000000 0.951022 0.842918
0.000039 0.953666 0.854500
0.000000 0.965612 0.897366
0.652031 0.967891 0.947235
0.950195 0.950195 0.950195
1.000000 0.908488 0.896500
0.000823 0.951662 0.845625
0.000823 0.951662 0.845625
0.000823 0.951662 0.845625
0.000000 0.952695 0.843894
0.000000 0.955004 0.857207
0.000000 0.962638 0.877886
0.509507 0.975838 0.894636
0.822895 0.989462 0.902000
0.985362 0.999898 0.850461
0.027599 0.000000 0.999417
0.027599 0.000000 0.999417
0.027599 0.000000 0.999417
0.027599 0.000000 0.999417
0.802584 0.010746 1.000000
1.000000 0.013651 0.998875
0.999681 0.016619 0.813219
1.000000 0.016385 0.744840
0.999700 0.019498 0.678415
0.027599 0.000000 0.999417
0.027599 0.000000 0.999417
0.027599 0.000000 0.999417
0.027599 0.000000 0.999417
0.595739 0.006387 1.000000
1.000000 0.013651 0.998875
0.999853 0.016385 0.959606
0.999681 0.016283 0.814948
0.999299 0.016709 0.762367
0.000751 0.074738 1.000000
0.007014 0.068264 1.000000
0.000751 0.074738 1.000000
0.001527 0.082721 1.000000
0.367688 0.114509 0.998778
0.881371 0.013978 1.000000
1.000000 0.016639 0.999098
1.000000 0.016486 0.889496
0.999480 0.016904 0.846542
0.001390 0.250095 0.978664
0.001390 0.250095 0.978664
0.001390 0.250095 0.978664
0.000213 0.256125 0.976402
0.036556 0.278289 0.989679
0.753875 0.276843 1.000000
1.000000 0.063307 0.998753
1.000000 0.128706 0.952354
0.999776 0.117787 0.917387
0.000640 0.452172 0.942371
0.000640 0.452172 0.942371
0.000247 0.453846 0.943347
0.000000 0.455856 0.942595
0.000238 0.465849 0.941530
0.592198 0.499143 0.999297
0.955899 0.431981 0.999415
0.999369 0.353338 0.999089
1.000000 0.333720 0.951340
0.000082 0.660254 0.900355
0.000484 0.645569 0.906387
0.000484 0.645569 0.906387
0.000091 0.647579 0.905632
0.000091 0.647915 0.903902
0.353556 0.653229 0.960302
0.825505 0.656578 0.998742
0.999183 0.574680 0.999188
0.999796 0.547705 0.973711
0.000000 0.828338 0.859128
0.000548 0.810305 0.863207
0.000951 0.796291 0.865777
0.000367 0.792969 0.867284
0.000760 0.790959 0.868040
0.000166 0.791909 0.907530
0.695185 0.792208 0.976261
0.981813 0.773071 0.999765
0.999640 0.731020 0.989640
0.000000 0.951358 0.841188
0.000000 0.948707 0.839235
0.000249 0.938017 0.840297
0.000844 0.930008 0.837146
0.000068 0.922026 0.837453
0.000068 0.916312 0.866872
0.477099 0.913505 0.932246
0.872413 0.906552 0.984875
0.999906 0.878668 0.999660
0.000823 0.951662 0.845625
0.000823 0.951662 0.845625
0.000823 0.951662 0.845625
0.000823 0.951662 0.845625
0.000823 0.951662 0.845625
0.000000 0.957648 0.868790
0.298950 0.968538 0.910539
0.741167 0.983876 0.956657
1.000000 1.000000 1.000000
