lut/fujifilm/F-Log/F-Log_LUT_E_Ver.1.27/X-H2/XH2_FLog_FGamut_to_ETERNA-BB_BT.709_33gird_V.1.00.cube
#title:FLog_FGamut_to_ETERNA-BB_BT.709
#FUJIFILM Corporation
#Gamma:F-Log to ETERNA BLEACH BYPASS
#Gamut:F-Gamut to ITU-R BT.709
#Version:1.00
LUT_3D_SIZE 33
0.000000 0.000000 0.000000
0.000000 0.000000 0.000000
0.003715 0.000000 0.000000
0.027172 0.003717 0.003821
0.046723 0.003276 0.006220
0.071549 0.006713 0.009062
0.099505 0.006747 0.012660
0.145644 0.007373 0.016926
0.210549 0.010567 0.027273
0.295981 0.014295 0.040996
0.388258 0.013527 0.059910
0.466260 0.016747 0.078601
0.529211 0.016980 0.092188
0.579256 0.019495 0.110743
0.618549 0.022598 0.120199
0.645136 0.022994 0.125527
0.657258 0.023051 0.127702
0.657258 0.023051 0.127702
0.657258 0.023051 0.127702
0.657258 0.023051 0.127702
0.669149 0.061421 0.147372
0.672260 0.080678 0.151414
0.672260 0.080678 0.151414
0.672260 0.080678 0.151414
0.672260 0.080678 0.151414
0.672260 0.080678 0.151414
0.672260 0.080678 0.151414
0.672260 0.080678 0.151414
0.672260 0.080678 0.151414
0.672260 0.080678 0.151414
0.672260 0.080678 0.151414
0.672260 0.080678 0.151414
0.672260 0.080678 0.151414
0.000000 0.000000 0.000000
0.000000 0.000000 0.000000
0.000000 0.000000 0.000000
0.017397 0.003603 0.004352
0.037924 0.004136 0.007727
0.063535 0.003891 0.010348
0.091100 0.006608 0.009731
0.125118 0.006838 0.013550
0.180246 0.010590 0.020968
0.256295 0.012865 0.032516
0.334690 0.014075 0.051962
0.414845 0.013586 0.066968
0.485811 0.015970 0.082732
0.541916 0.019689 0.096316
0.592353 0.020529 0.113894
0.626372 0.020424 0.119446
0.652174 0.023831 0.128457
0.657258 0.023051 0.127702
0.657258 0.023051 0.127702
0.657258 0.023051 0.127702
0.657258 0.023051 0.127702
0.671485 0.073031 0.149992
0.672260 0.080678 0.151414
0.672260 0.080678 0.151414
0.672260 0.080678 0.151414
0.672260 0.080678 0.151414
0.672260 0.080678 0.151414
0.672260 0.080678 0.151414
0.672260 0.080678 0.151414
0.672260 0.080678 0.151414
0.672260 0.080678 0.151414
0.672260 0.080678 0.151414
0.672260 0.080678 0.151414
0.000000 0.000000 0.000000
0.000000 0.000000 0.000000
0.000000 0.000000 0.000000
0.009776 0.000115 0.000000
0.029517 0.003661 0.006527
0.054153 0.002775 0.006442
0.077609 0.006911 0.009285
0.109281 0.006526 0.013859
0.149943 0.010276 0.016394
0.210549 0.010567 0.027273
0.282884 0.013260 0.037844
0.364016 0.013412 0.055559
0.441434 0.013982 0.072297
0.507315 0.017144 0.088813
0.561074 0.020248 0.103152
0.605844 0.019890 0.116071
0.633016 0.022936 0.123352
0.657258 0.023051 0.127702
0.657258 0.023051 0.127702
0.657258 0.023051 0.127702
0.657258 0.023051 0.127702
0.657258 0.023051 0.127702
0.671485 0.073031 0.149992
0.672260 0.080678 0.151414
0.672260 0.080678 0.151414
0.672260 0.080678 0.151414
0.672260 0.080678 0.151414
0.672260 0.080678 0.151414
0.672260 0.080678 0.151414
0.672260 0.080678 0.151414
0.672260 0.080678 0.151414
0.672260 0.080678 0.151414
0.672260 0.080678 0.151414
0.000575 0.013981 0.003597
0.000000 0.010995 0.003375
0.000583 0.002987 0.000222
0.000000 0.000000 0.000000
0.025802 0.003743 0.007281
0.046723 0.003276 0.006220
0.064904 0.003194 0.010348
0.093446 0.006886 0.010707
0.125118 0.006838 0.013550
0.174186 0.010392 0.020746
0.242804 0.013840 0.028609
0.319246 0.013097 0.046102
0.399011 0.013611 0.065546
0.468606 0.017363 0.077849
0.529211 0.016980 0.092188
0.575541 0.019913 0.109766
0.614835 0.023017 0.119223
0.641422 0.023412 0.124551
0.657258 0.023051 0.127702
0.657258 0.023051 0.127702
0.657258 0.023051 0.127702
0.657258 0.023051 0.127702
0.660571 0.034965 0.134761
0.672260 0.080678 0.151414
0.672260 0.080678 0.151414
0.672260 0.080678 0.151414
0.672260 0.080678 0.151414
0.672260 0.080678 0.151414
0.672260 0.080678 0.151414
0.672260 0.080678 0.151414
0.672260 0.080678 0.151414
0.672260 0.080678 0.151414
0.672260 0.080678 0.151414
0.003878 0.037563 0.010569
0.003495 0.028579 0.006442
0.003303 0.023582 0.006972
0.003505 0.017584 0.003066
0.019340 0.017224 0.006220
0.043390 0.013350 0.005910
0.061572 0.013270 0.010039
0.083670 0.006771 0.011238
0.109281 0.006526 0.013859
0.147014 0.006675 0.016926
0.205858 0.010344 0.023591
0.275453 0.013761 0.037621
0.354240 0.013297 0.056089
0.429312 0.013587 0.071851
0.496563 0.016725 0.084907
0.549739 0.017178 0.097293
0.591377 0.019889 0.111188
0.626372 0.019752 0.122907
0.648853 0.022575 0.126504
0.657258 0.023051 0.127702
0.657258 0.023051 0.127702
0.657258 0.023051 0.127702
0.657258 0.023051 0.127702
0.665253 0.046184 0.141820
0.672260 0.080678 0.151414
0.672260 0.080678 0.151414
0.672260 0.080678 0.151414
0.672260 0.080678 0.151414
0.672260 0.080678 0.151414
0.672260 0.080678 0.151414
0.672260 0.080678 0.151414
0.672260 0.080678 0.151414
0.672260 0.080678 0.151414
0.003666 0.056237 0.009200
0.000000 0.051323 0.010484
0.003676 0.044234 0.011015
0.000747 0.040969 0.009817
0.013652 0.037679 0.010039
0.037894 0.038466 0.010929
0.066053 0.032502 0.010620
0.086388 0.029047 0.009336
0.110833 0.022493 0.013243
0.144266 0.019737 0.016840
0.188844 0.016398 0.019905
0.246519 0.013423 0.029586
0.315532 0.013852 0.043394
0.391580 0.014448 0.063593
0.460199 0.016887 0.076648
0.518459 0.015890 0.091742
0.568503 0.019412 0.105105
0.608190 0.019833 0.118777
0.635362 0.022878 0.126058
0.657258 0.023051 0.127702
0.657258 0.023051 0.127702
0.657258 0.023051 0.127702
0.657258 0.023051 0.127702
0.657258 0.023051 0.127702
0.668947 0.068092 0.147817
0.672260 0.080678 0.151414
0.672260 0.080678 0.151414
0.672260 0.080678 0.151414
0.672260 0.080678 0.151414
0.672260 0.080678 0.151414
0.672260 0.080678 0.151414
0.672260 0.080678 0.151414
0.672260 0.080678 0.151414
0.006969 0.080491 0.012711
0.000000 0.074658 0.010313
0.000000 0.067987 0.009868
0.000142 0.061316 0.009422
0.003666 0.056237 0.009200
0.037684 0.057140 0.009558
0.056651 0.054048 0.010004
0.082261 0.054138 0.010895
0.105527 0.053949 0.010809
0.137591 0.051891 0.014406
0.179039 0.051286 0.020181
0.236715 0.048981 0.026398
0.303190 0.043463 0.043223
0.371618 0.040570 0.058540
0.436723 0.035413 0.077093
0.495576 0.026743 0.087305
0.544261 0.019969 0.097293
0.587662 0.019971 0.111941
0.620311 0.019892 0.120954
0.645136 0.022994 0.125527
0.657258 0.023051 0.127702
0.657258 0.023051 0.127702
0.657258 0.023051 0.127702
0.657258 0.023051 0.127702
0.660571 0.034965 0.134761
0.672260 0.080678 0.151414
0.672260 0.080678 0.151414
0.672260 0.080678 0.151414
0.672260 0.080678 0.151414
0.672260 0.080678 0.151414
0.672260 0.080678 0.151414
0.672260 0.080678 0.151414
0.672260 0.080678 0.151414
0.013009 0.103351 0.016223
0.010473 0.097067 0.020968
0.003637 0.089895 0.015863
0.002469 0.084258 0.013688
0.003254 0.080574 0.013465
0.025936 0.077399 0.013156
0.050963 0.074503 0.013825
0.074229 0.074314 0.013739
0.100233 0.072731 0.013652
0.130928 0.072042 0.013788
0.167292 0.072216 0.020317
0.219490 0.072701 0.026534
0.281072 0.073967 0.038391
0.351060 0.074701 0.056636
0.420073 0.074794 0.072176
0.485953 0.077285 0.092153
0.541082 0.079020 0.109953
0.585852 0.078663 0.122871
0.620071 0.070543 0.134899
0.644725 0.046322 0.134984
0.657258 0.023051 0.127702
0.657258 0.023051 0.127702
0.658818 0.026679 0.130632
0.667196 0.059468 0.145419
0.670307 0.078389 0.151191
0.680647 0.102809 0.161095
0.680446 0.109143 0.163270
0.682600 0.104762 0.163048
0.682600 0.104762 0.163048
0.682016 0.102112 0.161095
0.679086 0.098846 0.159894
0.679086 0.098846 0.159894
0.677918 0.093209 0.157720
0.019242 0.129862 0.026125
0.017097 0.122576 0.026434
0.016715 0.113928 0.020575
0.016916 0.107930 0.016669
0.013403 0.101341 0.016976
0.029631 0.098970 0.020882
0.051730 0.093481 0.016891
0.072649 0.093349 0.014097
0.094545 0.093522 0.015741
0.121918 0.091578 0.013926
0.158282 0.091751 0.020453
0.206183 0.090004 0.023743
0.264633 0.094675 0.034843
0.332275 0.095131 0.052114
0.399133 0.099269 0.069605
0.466383 0.100390 0.093042
0.526204 0.103355 0.109337
0.579177 0.109472 0.127358
0.619055 0.114554 0.142231
0.650133 0.120497 0.158608
0.672814 0.116650 0.161762
0.682600 0.104762 0.163048
0.680647 0.102809 0.161095
0.681422 0.110119 0.164246
0.685519 0.119022 0.167621
0.685319 0.125021 0.171528
0.687856 0.129961 0.173703
0.686879 0.128984 0.172726
0.686295 0.126334 0.170773
0.686295 0.126334 0.170773
0.685319 0.125021 0.171528
0.687080 0.122650 0.170551
0.687080 0.122650 0.170551
0.023511 0.164744 0.040910
0.022545 0.153108 0.034829
0.019817 0.143844 0.029722
0.016696 0.135582 0.029055
0.020612 0.128493 0.029586
0.025504 0.124062 0.022441
0.049555 0.120525 0.020403
0.068331 0.114115 0.012726
0.094333 0.111860 0.016101
0.117208 0.113345 0.016993
0.147903 0.113328 0.013668
0.194042 0.113617 0.019664
0.253670 0.112931 0.029566
0.312514 0.114247 0.048345
0.381716 0.119001 0.065082
0.446622 0.120178 0.085812
0.508002 0.126435 0.106765
0.565275 0.134112 0.131179
0.613167 0.141679 0.146497
0.647958 0.147541 0.162122
0.676107 0.150555 0.175570
0.695074 0.146790 0.179476
0.693907 0.141152 0.177301
0.691954 0.138864 0.177078
0.691954 0.138864 0.177078
0.693907 0.141152 0.177301
0.695074 0.146790 0.179476
0.692144 0.143860 0.176546
0.695860 0.142770 0.180984
0.693907 0.141152 0.177301
0.692930 0.140175 0.176324
0.691954 0.138864 0.177078
0.691954 0.138864 0.177078
0.013304 0.209611 0.059379
0.016446 0.196220 0.051567
0.013133 0.183969 0.046239
0.023310 0.171415 0.041356
0.022928 0.161757 0.040688
0.020198 0.152493 0.035581
0.046988 0.148234 0.030082
0.070456 0.142719 0.022628
0.089816 0.138960 0.016907
0.115234 0.133718 0.020058
0.145537 0.135712 0.015981
0.185223 0.137813 0.021001
0.239767 0.137570 0.033387
0.299981 0.139197 0.046973
0.368016 0.137978 0.063265
0.432528 0.140830 0.084974
0.495277 0.145717 0.109388
0.556659 0.152309 0.128610
0.604740 0.163865 0.148586
0.647547 0.171878 0.166387
0.677255 0.178855 0.181035
0.700713 0.180974 0.194262
0.702282 0.173942 0.192086
0.700139 0.167329 0.188933
0.699162 0.166352 0.187956
0.699554 0.164341 0.188711
0.699162 0.166352 0.187956
0.700531 0.165654 0.187956
0.700339 0.160994 0.186758
0.699363 0.160018 0.185781
0.699363 0.160018 0.185781
0.696827 0.155078 0.183607
0.696827 0.155078 0.183607
0.000000 0.264891 0.075809
0.007014 0.248398 0.073188
0.006832 0.233750 0.063422
0.002543 0.220187 0.058848
0.013506 0.204285 0.052012
0.016446 0.196220 0.051567
0.035614 0.187464 0.046375
0.065534 0.179464 0.043360
0.090370 0.173252 0.035906
0.115598 0.166710 0.020555
0.142578 0.165767 0.023175
0.176596 0.166669 0.023535
0.232903 0.165063 0.029753
0.290770 0.165739 0.045824
0.358997 0.168509 0.066777
0.421556 0.169744 0.084801
0.487628 0.175886 0.111168
0.549984 0.183119 0.133097
0.606865 0.193142 0.155028
0.648886 0.204165 0.176512
0.680550 0.213095 0.193114
0.703029 0.214575 0.203632
0.713983 0.208659 0.205363
0.712230 0.200036 0.202965
0.709110 0.192108 0.200566
0.707549 0.188146 0.199368
0.706380 0.182845 0.195461
0.706380 0.182845 0.195461
0.706380 0.182509 0.197191
0.704427 0.180892 0.193508
0.704821 0.178546 0.195993
0.702474 0.178266 0.195016
0.702474 0.178266 0.195016
0.000291 0.332503 0.103202
0.000000 0.312859 0.093968
0.000521 0.294191 0.085710
0.000340 0.278200 0.082868
0.000000 0.264219 0.079269
0.007014 0.248398 0.073188
0.017191 0.236852 0.063113
0.053172 0.229050 0.060320
0.081139 0.220776 0.046699
0.111451 0.212110 0.037514
0.142931 0.209418 0.028776
0.176364 0.204981 0.041028
0.225243 0.205219 0.040101
0.285264 0.203531 0.045567
0.351144 0.205685 0.067273
0.419764 0.206780 0.087250
0.486229 0.211249 0.112641
0.550539 0.219763 0.139984
0.608397 0.230427 0.164621
0.652763 0.241392 0.188812
0.687164 0.249264 0.203683
0.714919 0.253952 0.218109
0.730173 0.250269 0.222769
0.721192 0.235811 0.217973
0.719439 0.227188 0.215575
0.717688 0.218900 0.211445
0.713198 0.211671 0.209046
0.713006 0.207346 0.206116
0.711445 0.203384 0.204918
0.711838 0.201709 0.203941
0.711838 0.201709 0.203941
0.712230 0.200036 0.202965
0.709300 0.196770 0.201766
0.000424 0.401790 0.131574
0.000050 0.381809 0.124070
0.000655 0.363142 0.115813
0.000000 0.345508 0.105825
0.000100 0.327843 0.102005
0.000000 0.312859 0.093968
0.000000 0.297875 0.085933
0.041194 0.286611 0.086601
0.074828 0.278865 0.081102
0.112570 0.269698 0.072140
0.138584 0.260480 0.051375
0.179841 0.255886 0.052489
0.226371 0.253829 0.060969
0.281893 0.255571 0.069142
0.349927 0.255024 0.081973
0.418154 0.257793 0.102926
0.487357 0.261203 0.126586
0.555775 0.268296 0.150468
0.613433 0.284286 0.182473
0.661906 0.293497 0.204934
0.702952 0.304215 0.221982
0.733638 0.312169 0.237607
0.756510 0.311638 0.248879
0.745778 0.288893 0.239952
0.735629 0.269134 0.231251
0.731733 0.253560 0.227430
0.725290 0.245050 0.219617
0.721192 0.235811 0.217973
0.721001 0.231151 0.216773
0.720415 0.228500 0.214819
0.719439 0.227188 0.215575
0.719832 0.225849 0.212866
0.719247 0.222527 0.214374
0.000163 0.472078 0.164382
0.000769 0.453074 0.157856
0.000000 0.432790 0.145913
0.000000 0.415461 0.140363
0.000000 0.397826 0.130376
0.000050 0.381809 0.124070
0.000845 0.367466 0.118742
0.005940 0.355691 0.114614
0.065971 0.344016 0.111512
0.112120 0.334990 0.105482
0.143015 0.329311 0.096519
0.182318 0.323772 0.090489
0.229050 0.319076 0.077757
0.291609 0.318967 0.102703
0.353584 0.319567 0.108391
0.420835 0.323041 0.119715
0.491990 0.328403 0.145327
0.559622 0.338509 0.172895
0.628233 0.349592 0.201437
0.681005 0.361370 0.225098
0.725372 0.373345 0.244098
0.758797 0.379567 0.261453
0.785969 0.381940 0.272195
0.783643 0.359000 0.267929
0.770374 0.331651 0.255098
0.757295 0.308290 0.246926
0.745778 0.289565 0.236492
0.740512 0.274689 0.232673
0.734461 0.263497 0.229074
0.731924 0.258220 0.228628
0.731339 0.255570 0.226675
0.731733 0.253560 0.227430
0.730173 0.250269 0.222769
0.000487 0.545017 0.199144
0.000000 0.524397 0.188933
0.000000 0.505393 0.182406
0.000000 0.486085 0.171442
0.000000 0.469427 0.162429
0.000375 0.454748 0.158832
0.000585 0.438763 0.146359
0.000000 0.426120 0.145470
0.046351 0.419072 0.144851
0.102669 0.408486 0.137313
0.139625 0.402332 0.132036
0.192419 0.395482 0.131642
0.250879 0.392182 0.123792
0.303864 0.390327 0.122866
0.366423 0.391226 0.142622
0.430933 0.395758 0.155675
0.502089 0.401794 0.177829
0.574414 0.413466 0.202155
0.642630 0.426894 0.228215
0.703810 0.439821 0.249614
0.753846 0.452995 0.273273
0.790986 0.459472 0.288144
0.818741 0.463823 0.304302
0.824619 0.447692 0.303410
0.805883 0.411802 0.288933
0.793006 0.382779 0.275125
0.778760 0.354117 0.263046
0.768420 0.329025 0.256604
0.759248 0.310579 0.247148
0.754174 0.300364 0.244528
0.750267 0.296457 0.240621
0.748314 0.294504 0.238668
0.745778 0.289565 0.236492
0.000000 0.617316 0.231200
0.000000 0.598008 0.220234
0.000066 0.579341 0.211976
0.000000 0.559697 0.202743
0.000000 0.542366 0.197191
0.000000 0.524397 0.188933
0.000000 0.509718 0.185336
0.000000 0.502406 0.182184
0.043937 0.493069 0.181344
0.106898 0.484996 0.177710
0.159691 0.477809 0.179047
0.212092 0.472632 0.179629
0.266839 0.468742 0.175996
0.324906 0.467453 0.167394
0.386489 0.469056 0.177520
0.451583 0.475565 0.195988
0.520002 0.485012 0.207758
0.592326 0.496685 0.232085
0.665234 0.511007 0.258366
0.724653 0.525297 0.285934
0.775473 0.535459 0.305911
0.813588 0.542913 0.321758
0.844475 0.544868 0.333477
0.862464 0.539454 0.339867
0.848813 0.502784 0.324637
0.832423 0.467508 0.309407
0.819937 0.435803 0.299811
0.804524 0.401504 0.285558
0.790278 0.373178 0.271749
0.782082 0.355373 0.264999
0.780522 0.351410 0.263801
0.775639 0.346190 0.260649
0.773686 0.344237 0.258696
0.000000 0.680934 0.263563
0.000000 0.665950 0.255528
0.000000 0.649629 0.244786
0.000410 0.630625 0.238257
0.000000 0.617988 0.227739
0.000631 0.603645 0.222411
0.000000 0.591673 0.218058
0.000000 0.580677 0.214683
0.043084 0.572039 0.213843
0.120513 0.564638 0.211632
0.177020 0.557033 0.213945
0.232741 0.553112 0.216480
0.289441 0.550167 0.219991
0.346725 0.550881 0.220266
0.408116 0.551184 0.211887
0.475949 0.557308 0.225163
0.545344 0.566051 0.246563
0.613954 0.578813 0.266454
0.679823 0.591962 0.291535
0.742373 0.604193 0.312934
0.789871 0.613098 0.330958
0.832093 0.618459 0.346805
0.861219 0.623458 0.356040
0.890153 0.623459 0.365805
0.879038 0.590385 0.359671
0.869684 0.556620 0.343910
0.855638 0.521286 0.331387
0.842570 0.486932 0.319840
0.825787 0.453666 0.303856
0.812910 0.423299 0.296970
0.811742 0.417997 0.293063
0.805883 0.411802 0.288933
0.803738 0.405188 0.285781
0.074217 0.732876 0.297707
0.059175 0.719566 0.285765
0.016370 0.709202 0.280079
0.000000 0.697591 0.272574
0.000000 0.687268 0.265738
0.000000 0.676946 0.258902
0.000000 0.665950 0.255528
0.000000 0.655627 0.248692
0.067257 0.647776 0.248741
0.148008 0.641631 0.248485
0.203147 0.635059 0.249067
0.257107 0.633510 0.252578
0.317129 0.631484 0.259772
0.377734 0.632782 0.265460
0.439709 0.634056 0.267687
0.499338 0.638073 0.253363
0.569709 0.647120 0.279200
0.632651 0.658348 0.296160
0.698330 0.667846 0.314851
0.759903 0.679771 0.331813
0.809162 0.685969 0.350589
0.844349 0.691164 0.360048
0.881295 0.693989 0.368528
0.903584 0.691143 0.376118
0.906534 0.671410 0.375758
0.896395 0.639312 0.370602
0.885672 0.604900 0.361762
0.872212 0.571882 0.352923
0.860905 0.535491 0.338669
0.849206 0.501446 0.321929
0.841593 0.485955 0.318863
0.839057 0.481015 0.316688
0.834566 0.474123 0.312558
0.146904 0.778548 0.317340
0.140461 0.769031 0.314718
0.120528 0.760488 0.308191
0.112716 0.751668 0.305571
0.092388 0.744798 0.300019
0.091422 0.732491 0.297399
0.065035 0.725762 0.289895
0.074428 0.716892 0.285234
0.142271 0.713701 0.286484
0.189981 0.707629 0.286844
0.241596 0.706136 0.287649
0.294187 0.704948 0.292890
0.348149 0.703062 0.298133
0.403670 0.705140 0.304574
0.467206 0.709703 0.311461
0.526050 0.714381 0.312934
0.586654 0.720384 0.294394
0.653704 0.729520 0.311356
0.716061 0.737760 0.328093
0.770989 0.746839 0.342879
0.819272 0.752396 0.358949
0.857196 0.756198 0.368406
0.887106 0.757512 0.377418
0.913110 0.754921 0.382523
0.925633 0.740964 0.387269
0.918031 0.714143 0.382559
0.908869 0.683021 0.378378
0.899707 0.652236 0.372468
0.889377 0.615812 0.364382
0.873380 0.577519 0.355097
0.870269 0.559270 0.345863
0.865777 0.552041 0.343464
0.862656 0.544114 0.341067
0.223699 0.820449 0.345625
0.209827 0.811767 0.341051
0.200253 0.805989 0.335944
0.177580 0.798505 0.331149
0.172114 0.790636 0.326042
0.157847 0.783965 0.320714
0.142606 0.776317 0.314411
0.151213 0.770122 0.315164
0.191099 0.766562 0.314548
0.233724 0.761606 0.313929
0.277517 0.762288 0.315487
0.325026 0.762215 0.319754
0.374880 0.762758 0.323266
0.427662 0.766901 0.326246
0.487875 0.769873 0.332911
0.544958 0.775914 0.340551
0.606146 0.781879 0.337808
0.665776 0.786906 0.318294
0.725788 0.794867 0.334055
0.778762 0.802327 0.345157
0.825091 0.805597 0.361004
0.860669 0.809455 0.367754
0.891949 0.810072 0.376765
0.916584 0.807842 0.383601
0.934967 0.800753 0.389015
0.929903 0.777863 0.391672
0.925623 0.752968 0.385452
0.920176 0.721093 0.383982
0.911407 0.688633 0.377095
0.899124 0.649249 0.372246
0.894059 0.627702 0.367980
0.891521 0.622762 0.365805
0.888401 0.614836 0.363407
0.298743 0.854061 0.369781
0.278023 0.849202 0.363477
0.273534 0.842309 0.359348
0.253207 0.835440 0.353797
0.243633 0.829663 0.348690
0.226628 0.824050 0.345093
0.218031 0.819250 0.340965
0.214910 0.811660 0.336836
0.240914 0.810077 0.336750
0.278062 0.807910 0.336133
0.315795 0.808059 0.339200
0.360957 0.808379 0.339027
0.408073 0.809980 0.344270
0.452056 0.815322 0.347026
0.507186 0.819074 0.354445
0.563684 0.822800 0.358402
0.620766 0.829512 0.362582
0.679609 0.834526 0.362324
0.730832 0.841093 0.331227
0.784200 0.845871 0.346543
0.825838 0.849254 0.356976
0.862786 0.852078 0.365458
0.893087 0.852391 0.370031
0.919676 0.851777 0.380551
0.941965 0.849941 0.382950
0.938462 0.830676 0.388535
0.936719 0.809714 0.389684
0.932048 0.785149 0.391363
0.923862 0.755003 0.388160
0.920176 0.721093 0.383982
0.913943 0.693237 0.381001
0.910430 0.687320 0.377847
0.907893 0.682045 0.377402
0.359711 0.884653 0.395000
0.343684 0.880354 0.390649
0.335479 0.873543 0.387273
0.322190 0.868519 0.379460
0.308901 0.862825 0.375109
0.301672 0.857998 0.367520
0.294443 0.851829 0.366851
0.283107 0.848422 0.362722
0.296990 0.847117 0.358731
0.329055 0.846067 0.357136
0.358380 0.845403 0.360735
0.393375 0.846946 0.363801
0.433453 0.848382 0.362651
0.481153 0.852633 0.369847
0.531983 0.854489 0.372606
0.579289 0.860752 0.379048
0.633441 0.864534 0.380296
0.685833 0.871025 0.380794
0.738616 0.875840 0.380313
0.783587 0.878895 0.340871
0.824832 0.884623 0.348819
0.859826 0.884823 0.358809
0.891106 0.885775 0.366090
0.915349 0.885891 0.370442
0.939982 0.883325 0.379007
0.943707 0.870903 0.381801
0.940787 0.854961 0.385879
0.940415 0.833302 0.387027
0.936719 0.809714 0.389684
0.932833 0.781465 0.391141
0.923862 0.755003 0.388160
0.924455 0.746659 0.386738
0.923872 0.743336 0.388246
0.413451 0.908739 0.421282
0.401722 0.907680 0.414667
0.395863 0.901821 0.408808
0.380813 0.898161 0.407164
0.369869 0.893417 0.400328
0.367724 0.887139 0.395445
0.355412 0.883093 0.388609
0.345445 0.878318 0.387942
0.358352 0.876036 0.382972
0.381618 0.875511 0.384618
0.404882 0.875659 0.382801
0.432448 0.877703 0.385646
0.467441 0.879582 0.386980
0.506151 0.881043 0.389294
0.550528 0.885047 0.389345
0.598619 0.888297 0.392101
0.645927 0.894895 0.396813
0.692648 0.899850 0.394379
0.741718 0.903741 0.399845
0.786879 0.905741 0.391019
0.822074 0.909016 0.350380
0.855700 0.910921 0.355176
0.884633 0.911595 0.361480
0.909852 0.912687 0.366808
0.934486 0.910793 0.371913
0.942701 0.906273 0.373644
0.942127 0.890946 0.376968
0.941553 0.875621 0.380293
0.940787 0.854961 0.385879
0.938462 0.830676 0.388535
0.934766 0.807089 0.391192
0.933991 0.799441 0.389770
0.936146 0.794724 0.391278
0.462318 0.915605 0.446227
0.456650 0.914741 0.439837
0.449614 0.914239 0.435175
0.442968 0.911729 0.431269
0.432218 0.911309 0.427363
0.424203 0.909830 0.421727
0.412475 0.908436 0.416845
0.410521 0.906482 0.414891
0.412283 0.905119 0.408723
0.428511 0.903757 0.407437
0.448063 0.903987 0.406375
0.472697 0.903100 0.406289
0.505346 0.904701 0.406648
0.536626 0.906998 0.407008
0.572595 0.909854 0.409321
0.614628 0.913579 0.408396
0.659004 0.916912 0.411907
0.702013 0.921613 0.411958
0.744435 0.924000 0.408324
0.787444 0.929373 0.404914
0.825175 0.931203 0.399328
0.852751 0.930653 0.355535
0.881684 0.932673 0.354919
0.905926 0.932116 0.362731
0.927822 0.931280 0.369567
0.941706 0.928631 0.372497
0.943669 0.919253 0.372804
0.941332 0.906634 0.375375
0.942127 0.890946 0.376968
0.940969 0.872634 0.380069
0.942549 0.852591 0.384903
0.939429 0.843657 0.387695
0.941190 0.841285 0.386718
0.484014 0.919087 0.465622
0.476976 0.918921 0.459231
0.475999 0.917944 0.458254
0.472285 0.919035 0.453816
0.470332 0.917082 0.451863
0.464664 0.915883 0.447203
0.461341 0.914964 0.443519
0.456650 0.915078 0.438105
0.465058 0.915890 0.437575
0.477178 0.916956 0.434559
0.491252 0.920311 0.431765
0.514518 0.920122 0.431680
0.535629 0.925323 0.426624
0.564169 0.928680 0.428714
0.592712 0.932709 0.427343
0.632789 0.934144 0.426195
0.669737 0.938649 0.426023
0.710792 0.941061 0.425852
0.750476 0.944507 0.423949
0.787817 0.947338 0.422800
0.824572 0.947855 0.417968
0.851552 0.948927 0.410206
0.878151 0.949083 0.356785
0.900048 0.948583 0.361892
0.921944 0.947746 0.368727
0.942864 0.946271 0.372855
0.943066 0.938929 0.375871
0.945027 0.930223 0.372719
0.943669 0.919253 0.372804
0.942701 0.906273 0.373644
0.944865 0.889216 0.378700
0.944483 0.879223 0.379762
0.941553 0.875957 0.378562
0.506293 0.925220 0.486968
0.503363 0.922626 0.482308
0.495934 0.924134 0.476895
0.495349 0.921484 0.474942
0.490658 0.921262 0.471257
0.488705 0.919645 0.467575
0.484014 0.919759 0.462161
0.480691 0.918840 0.458477
0.484406 0.919093 0.455992
0.497504 0.920799 0.455683
0.514316 0.922424 0.454621
0.533083 0.926002 0.455512
0.555955 0.928831 0.449480
0.581174 0.931267 0.447887
0.613038 0.936552 0.448469
0.646270 0.941475 0.447320
0.684194 0.947964 0.442933
0.719187 0.950180 0.442538
0.756135 0.954348 0.444097
0.788391 0.958967 0.438512
0.824754 0.960822 0.436387
0.846652 0.962674 0.429380
0.872654 0.963107 0.418910
0.894954 0.961701 0.359098
0.915481 0.961563 0.365934
