lut/fujifilm/F-Log/F-Log_LUT_E_Ver.1.27/X-H2/XH2_FLog_FGamut_to_ETERNA-BB_BT.709_33gird_V.1.00.cube
#title:FLog_FGamut_to_ETERNA-BB_BT.709
#FUJIFILM Corporation
#Gamma:F-Log to ETERNA BLEACH BYPASS
#Gamut:F-Gamut to ITU-R BT.709
#Version:1.00
LUT_3D_SIZE 9
0.000000 0.000000 0.000000
0.046723 0.003276 0.006220
0.210549 0.010567 0.027273
0.529211 0.016980 0.092188
0.657258 0.023051 0.127702
0.669149 0.061421 0.147372
0.672260 0.080678 0.151414
0.672260 0.080678 0.151414
0.672260 0.080678 0.151414
0.003878 0.037563 0.010569
0.019340 0.017224 0.006220
0.109281 0.006526 0.013859
0.354240 0.013297 0.056089
0.591377 0.019889 0.111188
0.657258 0.023051 0.127702
0.672260 0.080678 0.151414
0.672260 0.080678 0.151414
0.672260 0.080678 0.151414
0.019242 0.129862 0.026125
0.013403 0.101341 0.016976
0.094545 0.093522 0.015741
0.264633 0.094675 0.034843
0.526204 0.103355 0.109337
0.672814 0.116650 0.161762
0.685519 0.119022 0.167621
0.686295 0.126334 0.170773
0.687080 0.122650 0.170551
0.000291 0.332503 0.103202
0.000000 0.264219 0.079269
0.081139 0.220776 0.046699
0.225243 0.205219 0.040101
0.486229 0.211249 0.112641
0.687164 0.249264 0.203683
0.719439 0.227188 0.215575
0.711445 0.203384 0.204918
0.709300 0.196770 0.201766
0.000000 0.617316 0.231200
0.000000 0.542366 0.197191
0.043937 0.493069 0.181344
0.266839 0.468742 0.175996
0.520002 0.485012 0.207758
0.775473 0.535459 0.305911
0.848813 0.502784 0.324637
0.790278 0.373178 0.271749
0.773686 0.344237 0.258696
0.223699 0.820449 0.345625
0.172114 0.790636 0.326042
0.191099 0.766562 0.314548
0.374880 0.762758 0.323266
0.606146 0.781879 0.337808
0.825091 0.805597 0.361004
0.934967 0.800753 0.389015
0.911407 0.688633 0.377095
0.888401 0.614836 0.363407
0.462318 0.915605 0.446227
0.432218 0.911309 0.427363
0.412283 0.905119 0.408723
0.505346 0.904701 0.406648
0.659004 0.916912 0.411907
0.825175 0.931203 0.399328
0.927822 0.931280 0.369567
0.942127 0.890946 0.376968
0.941190 0.841285 0.386718
0.546755 0.929591 0.521099
0.534049 0.928563 0.508316
0.525059 0.927118 0.496512
0.573150 0.932047 0.490618
0.660143 0.944780 0.479583
0.793274 0.958473 0.471083
0.900803 0.966793 0.428897
0.942844 0.968934 0.376145
0.941887 0.945294 0.371878
0.577046 0.935858 0.555003
0.574117 0.933938 0.546882
0.574117 0.934274 0.545153
0.600312 0.938022 0.542805
0.655441 0.943789 0.539840
0.740088 0.954562 0.536479
0.843510 0.962287 0.508141
0.927582 0.970505 0.442348
0.942452 0.970943 0.375390
0.002930 0.000241 0.016775
0.037924 0.004136 0.007727
0.197451 0.009868 0.022390
0.504968 0.017201 0.086104
0.657258 0.023051 0.127702
0.659986 0.032315 0.132808
0.672260 0.080678 0.151414
0.672260 0.080678 0.151414
0.672260 0.080678 0.151414
0.004068 0.038192 0.032536
0.016602 0.016602 0.016602
0.099505 0.006747 0.012660
0.332344 0.013796 0.050985
0.579256 0.020167 0.107282
0.657258 0.023051 0.127702
0.670307 0.078389 0.151191
0.672260 0.080678 0.151414
0.672260 0.080678 0.151414
0.020602 0.133102 0.065841
0.010070 0.105032 0.049547
0.095522 0.093155 0.023642
0.253881 0.093584 0.034398
0.514667 0.106620 0.105653
0.667922 0.122090 0.163715
0.686496 0.119999 0.168598
0.686879 0.128984 0.172726
0.686295 0.126334 0.170773
0.000000 0.334462 0.137504
0.000148 0.268162 0.109355
0.086405 0.226914 0.095512
0.222886 0.211566 0.064996
0.481729 0.215015 0.113617
0.686379 0.252948 0.203907
0.721977 0.232127 0.217749
0.713006 0.207346 0.206116
0.711838 0.201709 0.203941
0.000219 0.619915 0.268207
0.000479 0.550298 0.231938
0.061324 0.502627 0.215028
0.271510 0.483898 0.222769
0.519600 0.495329 0.224224
0.774880 0.543468 0.309063
0.855055 0.518300 0.331163
0.797889 0.387662 0.280008
0.780522 0.351410 0.263801
0.209807 0.824011 0.397985
0.161935 0.795797 0.368996
0.184636 0.772648 0.351555
0.375453 0.771026 0.356282
0.607304 0.790445 0.384890
0.823915 0.811963 0.357012
0.936719 0.809714 0.389684
0.915505 0.697536 0.380468
0.892498 0.623739 0.366782
0.453117 0.919389 0.502269
0.431814 0.913224 0.487090
0.410511 0.907731 0.468449
0.499860 0.908740 0.460208
0.657626 0.920875 0.455082
0.824191 0.933492 0.441528
0.926454 0.932650 0.366105
0.944664 0.896223 0.377415
0.939035 0.845667 0.386942
0.543422 0.932274 0.558859
0.532086 0.929876 0.549539
0.524073 0.929406 0.538711
0.578810 0.935839 0.541914
0.663848 0.945610 0.534117
0.794049 0.957717 0.515766
0.902556 0.968360 0.467637
0.941476 0.969967 0.374414
0.942470 0.947609 0.375563
0.570393 0.937620 0.589082
0.575870 0.936175 0.582160
0.573523 0.936568 0.577722
0.605387 0.940844 0.583497
0.659146 0.947310 0.580531
0.740863 0.955488 0.572512
0.843893 0.964214 0.548609
0.926797 0.969148 0.468527
0.942452 0.970943 0.375390
0.006243 0.003082 0.070555
0.040844 0.006971 0.071136
0.178474 0.013875 0.077234
0.478381 0.016805 0.080778
0.647483 0.023273 0.126504
0.657258 0.023051 0.127702
0.672260 0.080678 0.151414
0.672260 0.080678 0.151414
0.672260 0.080678 0.151414
0.006404 0.037703 0.097452
0.010341 0.014337 0.061817
0.097735 0.010368 0.067196
0.311816 0.013934 0.044149
0.566550 0.017122 0.104883
0.657258 0.023051 0.127702
0.669149 0.061421 0.147372
0.672260 0.080678 0.151414
0.672260 0.080678 0.151414
0.007293 0.137299 0.130535
0.000000 0.108511 0.101151
0.103516 0.103516 0.103516
0.251516 0.102524 0.105929
0.502544 0.106226 0.105206
0.667136 0.125438 0.165668
0.687080 0.122650 0.170551
0.688440 0.132611 0.175656
0.686295 0.126334 0.170773
0.000655 0.344995 0.209258
0.000521 0.278396 0.167043
0.090493 0.238074 0.147254
0.233810 0.224186 0.151262
0.484639 0.229517 0.176942
0.684224 0.256993 0.205860
0.724122 0.239077 0.219172
0.715151 0.213624 0.210999
0.711053 0.205393 0.204163
0.000390 0.631107 0.355758
0.000000 0.567862 0.305868
0.064033 0.524134 0.277067
0.278135 0.500333 0.274957
0.536575 0.519476 0.312356
0.777799 0.557392 0.315367
0.859345 0.531863 0.335739
0.802571 0.399551 0.283605
0.784620 0.359977 0.268906
0.200989 0.830396 0.491035
0.157808 0.803412 0.460539
0.173081 0.782444 0.434223
0.371719 0.780327 0.429543
0.609047 0.799309 0.446039
0.829171 0.822038 0.445539
0.940234 0.816302 0.389375
0.915494 0.709202 0.380382
0.895227 0.633675 0.368426
0.445476 0.921424 0.588929
0.423782 0.917269 0.572997
0.403456 0.912753 0.555333
0.497887 0.913317 0.544605
0.655652 0.924780 0.542941
0.825740 0.935007 0.515321
0.928589 0.935136 0.450504
0.944272 0.899240 0.371469
0.942941 0.850917 0.383926
0.536375 0.932685 0.609488
0.523278 0.932322 0.602875
0.514287 0.930540 0.592800
0.573715 0.937196 0.599687
0.668721 0.949054 0.606403
0.797552 0.960178 0.596703
0.903522 0.968905 0.530824
0.948895 0.970380 0.429925
0.942470 0.948281 0.372102
0.561393 0.937087 0.632567
0.561000 0.939770 0.628352
0.561786 0.937766 0.619477
0.604794 0.941460 0.624718
0.665197 0.948755 0.634313
0.743591 0.955343 0.626071
0.841537 0.965185 0.601191
0.927179 0.970403 0.512456
0.942452 0.970943 0.375390
0.020287 0.007160 0.244012
0.026357 0.007116 0.185485
0.168881 0.013954 0.161942
0.462918 0.020679 0.169922
0.637707 0.023494 0.125305
0.657258 0.023051 0.127702
0.672260 0.080678 0.151414
0.672260 0.080678 0.151414
0.672260 0.080678 0.151414
0.028463 0.046284 0.260974
0.017167 0.013013 0.170664
0.099678 0.009873 0.141742
0.301628 0.017319 0.156234
0.557551 0.020285 0.129331
0.657258 0.023051 0.127702
0.661738 0.040604 0.136937
0.672452 0.085003 0.154344
0.672260 0.080678 0.151414
0.049094 0.152786 0.283809
0.032904 0.120923 0.216219
0.104866 0.110694 0.182945
0.243282 0.116264 0.176707
0.507207 0.123974 0.198616
0.663613 0.130517 0.165890
0.686295 0.126334 0.170773
0.690001 0.136911 0.175125
0.687856 0.129961 0.173703
0.003737 0.371023 0.358403
0.000090 0.302206 0.294000
0.098669 0.259723 0.254200
0.242188 0.242188 0.242188
0.496731 0.249453 0.256731
0.696709 0.277945 0.270828
0.728220 0.247980 0.222547
0.716711 0.217587 0.212199
0.714960 0.209636 0.206340
0.000160 0.646566 0.490922
0.000602 0.595965 0.441923
0.072592 0.552079 0.401984
0.286693 0.530294 0.389492
0.551395 0.546324 0.409364
0.798095 0.578762 0.426219
0.865194 0.549390 0.341511
0.811742 0.417997 0.293063
0.788716 0.369215 0.270551
0.153260 0.836275 0.611637
0.096197 0.811942 0.578210
0.152524 0.793050 0.553453
0.370321 0.792502 0.550418
0.614102 0.810343 0.564429
0.835403 0.830066 0.550617
0.947643 0.823677 0.469028
0.920176 0.721093 0.383982
0.898932 0.644588 0.371046
0.424929 0.924396 0.687480
0.397174 0.919708 0.673056
0.380562 0.914774 0.656366
0.488092 0.915701 0.652255
0.651525 0.928362 0.655249
0.828258 0.939084 0.641917
0.932283 0.937887 0.555136
0.950121 0.901644 0.455113
0.940787 0.854961 0.385879
0.516028 0.934699 0.678176
0.509384 0.932524 0.672538
0.507431 0.931915 0.663664
0.563144 0.938317 0.673035
0.672225 0.950842 0.690801
0.797926 0.963020 0.692461
0.903109 0.972742 0.640649
0.951030 0.972529 0.516056
0.942470 0.948281 0.372102
0.543786 0.938379 0.697793
0.548868 0.938944 0.690116
0.550631 0.938254 0.680488
0.589924 0.943036 0.681293
0.657758 0.950169 0.689379
0.752181 0.958704 0.697602
0.846411 0.968292 0.675207
0.929314 0.973561 0.593395
0.950063 0.970976 0.458058
0.068531 0.013345 0.496813
0.051336 0.013826 0.436640
0.174711 0.016505 0.364817
0.467378 0.032999 0.326074
0.645500 0.034812 0.235042
0.658818 0.026679 0.130632
0.672452 0.085003 0.154344
0.672452 0.085003 0.154344
0.672452 0.085003 0.154344
0.079072 0.034454 0.488965
0.043524 0.014079 0.387298
0.108638 0.013386 0.322875
0.310399 0.023229 0.299829
0.568857 0.032145 0.269910
0.657258 0.023051 0.127702
0.660571 0.034965 0.134761
0.673821 0.084305 0.154344
0.672452 0.085003 0.154344
0.098898 0.173016 0.485894
0.078411 0.138920 0.415376
0.102873 0.121802 0.353696
0.254196 0.127444 0.330375
0.517919 0.146193 0.330234
0.681171 0.152610 0.280202
0.697219 0.153404 0.182630
0.691954 0.138864 0.177078
0.690001 0.136911 0.175125
0.096942 0.399658 0.531876
0.085081 0.335026 0.467472
0.102917 0.288365 0.421093
0.254844 0.272650 0.403359
0.511532 0.286529 0.421055
0.719926 0.309206 0.408750
0.760618 0.296439 0.316368
0.719247 0.222527 0.214374
0.714758 0.215634 0.210246
0.000000 0.662696 0.622625
0.000000 0.618425 0.585431
0.059838 0.578133 0.549707
0.298766 0.559786 0.540059
0.577148 0.577148 0.577148
0.826397 0.604203 0.589343
0.901700 0.583322 0.499359
0.832814 0.465498 0.310161
0.800426 0.392601 0.282184
0.000357 0.835219 0.709727
0.000377 0.816253 0.687402
0.063741 0.797863 0.667306
0.342726 0.800926 0.673641
0.606643 0.819632 0.698926
0.840649 0.838703 0.706548
0.961104 0.829473 0.618035
0.945748 0.745335 0.500469
0.910440 0.671283 0.400430
0.370174 0.924492 0.770630
0.339680 0.920864 0.757935
0.335975 0.911967 0.744930
0.455817 0.916269 0.751113
0.634694 0.928900 0.765160
0.825691 0.943269 0.772730
0.938315 0.941495 0.717766
0.961237 0.907161 0.603144
0.947805 0.861658 0.478621
0.484932 0.934615 0.751610
0.476525 0.934474 0.748680
0.474180 0.934868 0.744243
0.537715 0.939432 0.751130
0.654225 0.951456 0.769117
0.796929 0.966221 0.789950
0.906997 0.976793 0.763785
0.958429 0.979136 0.659648
0.953586 0.951782 0.530515
0.511711 0.938326 0.765060
0.520510 0.938473 0.758360
0.524618 0.938061 0.749707
0.568995 0.942401 0.748027
0.640543 0.949787 0.753630
0.748647 0.960999 0.772148
0.850498 0.971722 0.766750
0.933594 0.977619 0.706902
0.953174 0.973093 0.550355
0.104482 0.017019 0.614895
0.097254 0.016562 0.584809
0.151024 0.016736 0.554243
0.469675 0.049269 0.544660
0.677487 0.078369 0.483681
0.701528 0.124813 0.284282
0.695860 0.143442 0.177523
0.680446 0.109143 0.163270
0.673821 0.084305 0.154344
0.100183 0.017810 0.596391
0.088264 0.017468 0.560891
0.086321 0.013257 0.510570
0.313098 0.029183 0.501950
0.588934 0.064027 0.481402
0.694913 0.068480 0.377539
0.711657 0.175300 0.254743
0.692930 0.140175 0.176324
0.685519 0.119022 0.167621
0.129573 0.173482 0.600070
0.119434 0.147097 0.565495
0.103620 0.131180 0.526175
0.257477 0.140753 0.510222
0.542888 0.176333 0.520739
0.714145 0.192534 0.493563
0.728430 0.208134 0.332937
0.714374 0.203624 0.221692
0.706380 0.182509 0.197191
0.151467 0.406282 0.628883
0.139001 0.355947 0.595234
0.121835 0.315714 0.564739
0.251866 0.297474 0.557473
0.531808 0.320480 0.587109
0.754076 0.345789 0.610528
0.802580 0.345875 0.500000
0.780914 0.331924 0.354539
0.766084 0.304645 0.319741
0.083589 0.667020 0.706457
0.094573 0.631145 0.682489
0.091671 0.597246 0.659051
0.270971 0.576563 0.655074
0.570073 0.597439 0.705392
0.832609 0.623804 0.754816
0.924322 0.610495 0.702731
0.906391 0.572118 0.561879
0.869704 0.509760 0.465215
0.000549 0.828789 0.768031
0.000000 0.812163 0.752852
0.000000 0.796850 0.736918
0.270967 0.796419 0.748000
0.579451 0.819756 0.795300
0.839844 0.839844 0.839844
0.976910 0.828154 0.806089
0.979122 0.773598 0.704285
0.958463 0.717892 0.599860
0.235664 0.917115 0.810191
0.204979 0.908489 0.798028
0.216717 0.900235 0.792613
0.383282 0.907138 0.808478
0.591676 0.922087 0.835973
0.811406 0.940104 0.869328
0.941225 0.941546 0.855500
0.978603 0.911823 0.782015
0.975722 0.870722 0.675688
0.420994 0.931293 0.807910
0.417671 0.930374 0.804227
0.417671 0.930710 0.802496
0.491174 0.939377 0.813512
0.613744 0.951598 0.831722
0.775608 0.966587 0.861121
0.907953 0.980939 0.868418
0.975213 0.984844 0.817532
0.965477 0.956208 0.724960
0.451881 0.933921 0.816168
0.460287 0.935405 0.812176
0.471432 0.935832 0.806454
0.521870 0.939696 0.808458
0.602801 0.948535 0.816233
0.724394 0.960452 0.830007
0.855954 0.975464 0.853101
0.938456 0.983319 0.827553
0.965850 0.981230 0.706508
0.108197 0.016601 0.615872
0.108197 0.016601 0.615872
0.108197 0.016601 0.615872
0.423517 0.051815 0.644050
0.685643 0.110918 0.654481
0.717938 0.095081 0.514262
0.733111 0.217335 0.350379
0.727453 0.211190 0.311196
0.723940 0.208633 0.290739
0.114258 0.016461 0.617825
0.114258 0.016461 0.617825
0.100183 0.016802 0.601581
0.268701 0.026669 0.614208
0.594563 0.082656 0.636270
0.727683 0.111714 0.608648
0.735074 0.194850 0.418176
0.731158 0.217398 0.338044
0.729013 0.214145 0.317587
0.142499 0.141145 0.629884
0.141332 0.135170 0.629438
0.126874 0.126528 0.609067
0.220320 0.136439 0.604200
0.539346 0.180212 0.647114
0.738146 0.213390 0.665871
0.768057 0.239910 0.545098
0.758675 0.264671 0.407945
0.750671 0.256567 0.376437
0.176514 0.374002 0.660871
0.165005 0.342937 0.653984
0.156236 0.312830 0.634984
0.210015 0.296634 0.628731
0.512631 0.324434 0.677007
0.770074 0.360894 0.739214
0.840847 0.370043 0.694942
0.832239 0.405139 0.545367
0.822675 0.392735 0.514390
0.161027 0.641567 0.737210
0.153426 0.615752 0.727308
0.153062 0.586122 0.709508
0.189445 0.565986 0.700632
0.528233 0.588628 0.757700
0.823408 0.621203 0.843737
0.944438 0.609151 0.845347
0.926275 0.608751 0.723718
0.917506 0.585365 0.670109
0.000558 0.811409 0.797536
0.000568 0.801086 0.790700
0.000000 0.785798 0.778226
0.102841 0.776813 0.775929
0.503603 0.801736 0.830031
0.808172 0.828130 0.897566
0.963018 0.820962 0.913824
0.981037 0.794998 0.846063
0.982244 0.764721 0.793207
0.075362 0.896679 0.830446
0.033138 0.889639 0.823250
0.014181 0.882072 0.817699
0.214965 0.885225 0.823093
0.497647 0.905491 0.859651
0.765661 0.928731 0.910809
0.934570 0.934570 0.934570
0.987967 0.913421 0.903422
0.989959 0.879460 0.850344
0.297045 0.923035 0.832875
0.288639 0.922895 0.829945
0.297045 0.923371 0.831144
0.385407 0.931374 0.840875
0.538863 0.945887 0.869074
0.723791 0.966349 0.904024
0.892691 0.983183 0.931160
0.985753 0.985117 0.916972
0.982069 0.958599 0.874724
0.325585 0.925720 0.838425
0.345721 0.928937 0.837586
0.361556 0.929583 0.835546
0.425092 0.934483 0.840704
0.528897 0.943798 0.854563
0.670233 0.959261 0.875394
0.830727 0.974948 0.904793
0.937462 0.988202 0.916390
0.979894 0.989341 0.859199
0.108197 0.016601 0.615872
0.108197 0.016601 0.615872
0.108197 0.016601 0.615872
0.250318 0.026700 0.645133
0.661974 0.113357 0.712562
0.748181 0.132798 0.686177
0.771963 0.242471 0.555926
0.760636 0.237481 0.499969
0.752241 0.233404 0.457325
0.114258 0.016461 0.617825
0.108197 0.016601 0.615872
0.108197 0.016601 0.615872
0.155312 0.017194 0.626305
0.552521 0.080853 0.687294
0.733906 0.132753 0.706719
0.765529 0.208516 0.619148
0.767081 0.240950 0.533738
0.759076 0.234525 0.493578
0.136669 0.099274 0.629472
0.135109 0.095312 0.628274
0.135109 0.095312 0.628274
0.134908 0.102318 0.626988
0.476213 0.153570 0.684329
0.719581 0.191379 0.725101
0.793246 0.246430 0.702449
0.794012 0.286580 0.596496
0.789330 0.280405 0.563481
0.169766 0.263842 0.646156
0.167229 0.258902 0.643981
0.165084 0.251952 0.642559
0.164893 0.247291 0.641360
0.427419 0.284987 0.692430
0.742127 0.340791 0.778964
0.849254 0.352706 0.787855
0.854892 0.407055 0.698814
0.846888 0.398616 0.669035
0.170307 0.539739 0.706082
0.180484 0.526849 0.702929
0.179518 0.514878 0.698579
0.176980 0.509939 0.696403
0.403939 0.531773 0.742539
0.772407 0.587319 0.860719
0.927837 0.580115 0.892773
0.937027 0.589342 0.829722
0.925510 0.576329 0.789872
0.072951 0.750820 0.774012
0.084297 0.743903 0.771305
0.080783 0.737651 0.769883
0.104642 0.729454 0.766644
0.347447 0.742285 0.800445
0.731759 0.789838 0.901098
0.941724 0.792377 0.954106
0.986323 0.773433 0.917544
0.977160 0.749033 0.878753
0.000318 0.861723 0.813212
0.000000 0.858401 0.814719
0.000000 0.854076 0.811789
0.000328 0.850392 0.811566
0.302570 0.861573 0.835035
0.666757 0.899284 0.910657
0.901932 0.915589 0.963714
0.989336 0.902641 0.955336
0.986819 0.880080 0.923913
0.198706 0.917893 0.843156
0.198706 0.917893 0.843156
0.198706 0.917893 0.843156
0.185609 0.916185 0.843465
0.379537 0.931468 0.864347
0.619986 0.952664 0.912661
0.846362 0.971512 0.958573
0.973633 0.973633 0.973633
0.990073 0.957966 0.951223
0.198706 0.917893 0.843156
0.208482 0.918008 0.842625
0.208482 0.918008 0.842625
0.225295 0.918959 0.845023
0.375823 0.931551 0.865102
0.568573 0.950174 0.897566
0.778135 0.969415 0.934159
0.928461 0.988005 0.958144
0.990628 0.995954 0.951188
0.108197 0.016601 0.615872
0.108197 0.016601 0.615872
0.108197 0.016601 0.615872
0.108197 0.016601 0.615872
0.520074 0.072582 0.686488
0.751292 0.142310 0.740402
0.790125 0.237832 0.703511
0.789340 0.246893 0.676047
0.784457 0.247051 0.645206
0.114258 0.016461 0.617825
0.108197 0.016601 0.615872
0.108197 0.016601 0.615872
0.108197 0.016601 0.615872
0.384224 0.043670 0.660551
0.704389 0.124051 0.726149
0.751696 0.136026 0.703173
0.789732 0.242530 0.688913
0.788756 0.245586 0.667173
0.131213 0.079067 0.627914
0.123037 0.037590 0.623066
0.121869 0.031953 0.620891
0.123430 0.035579 0.623820
0.286603 0.119875 0.652703
0.666407 0.188236 0.726559
0.756377 0.142539 0.734458
0.812758 0.288287 0.726999
0.809244 0.285059 0.710003
0.158671 0.207433 0.640195
0.154583 0.187199 0.635176
0.152044 0.181586 0.636461
0.152044 0.181586 0.636461
0.227681 0.208870 0.648812
0.633651 0.310943 0.746019
0.827760 0.334152 0.811277
0.858808 0.382827 0.787597
0.855878 0.381913 0.774285
0.181136 0.452870 0.679528
0.176283 0.413993 0.669711
0.183330 0.404173 0.667535
0.181377 0.402220 0.665582
0.180984 0.403894 0.666559
0.626820 0.519355 0.795855
0.882301 0.558806 0.890632
0.929043 0.542107 0.879719
0.924160 0.540585 0.857531
0.128914 0.697930 0.753949
0.152793 0.667405 0.745692
0.149288 0.650494 0.739163
0.156134 0.647007 0.739163
0.161027 0.641567 0.737210
0.576226 0.694099 0.834009
0.875289 0.752234 0.932433
0.981479 0.714152 0.952805
0.978751 0.708920 0.926934
0.000000 0.841744 0.805707
0.000000 0.827761 0.802109
0.000000 0.815428 0.796028
0.000000 0.805772 0.795359
0.000000 0.800109 0.789723
0.475616 0.831663 0.852134
0.829244 0.870253 0.942352
0.972735 0.879655 0.971613
0.992898 0.849549 0.962379
0.185609 0.916185 0.843465
0.163713 0.916349 0.840089
0.149448 0.909005 0.838222
0.128145 0.901159 0.831695
0.092567 0.896630 0.828408
0.428625 0.912696 0.866524
0.755483 0.937589 0.934727
0.941194 0.952687 0.978104
0.994381 0.942818 0.983657
0.198706 0.917893 0.843156
0.198706 0.917893 0.843156
0.198706 0.917893 0.843156
0.198706 0.917893 0.843156
0.246799 0.920471 0.849375
0.460469 0.938627 0.880778
0.697787 0.963227 0.928337
0.893074 0.985447 0.969900
1.000000 1.000000 1.000000
