lut/fujifilm/F-Log/F-Log_LUT_E_Ver.1.27/X-H2/XH2_FLog_FGamut_to_ETERNA-BB_BT.709_33gird_V.1.00.cube
#title:FLog_FGamut_to_ETERNA-BB_BT.709
#FUJIFILM Corporation
#Gamma:F-Log to ETERNA BLEACH BYPASS
#Gamut:F-Gamut to ITU-R BT.709
#Version:1.00
LUT_3D_SIZE 5
0.000000 0.000000 0.000000
0.210549 0.010567 0.027273
0.657258 0.023051 0.127702
0.672260 0.080678 0.151414
0.672260 0.080678 0.151414
0.019242 0.129862 0.026125
0.094545 0.093522 0.015741
0.526204 0.103355 0.109337
0.685519 0.119022 0.167621
0.687080 0.122650 0.170551
0.000000 0.617316 0.231200
0.043937 0.493069 0.181344
0.520002 0.485012 0.207758
0.848813 0.502784 0.324637
0.773686 0.344237 0.258696
0.462318 0.915605 0.446227
0.412283 0.905119 0.408723
0.659004 0.916912 0.411907
0.927822 0.931280 0.369567
0.941190 0.841285 0.386718
0.577046 0.935858 0.555003
0.574117 0.934274 0.545153
0.655441 0.943789 0.539840
0.843510 0.962287 0.508141
0.942452 0.970943 0.375390
0.006243 0.003082 0.070555
0.178474 0.013875 0.077234
0.647483 0.023273 0.126504
0.672260 0.080678 0.151414
0.672260 0.080678 0.151414
0.007293 0.137299 0.130535
0.103516 0.103516 0.103516
0.502544 0.106226 0.105206
0.687080 0.122650 0.170551
0.686295 0.126334 0.170773
0.000390 0.631107 0.355758
0.064033 0.524134 0.277067
0.536575 0.519476 0.312356
0.859345 0.531863 0.335739
0.784620 0.359977 0.268906
0.445476 0.921424 0.588929
0.403456 0.912753 0.555333
0.655652 0.924780 0.542941
0.928589 0.935136 0.450504
0.942941 0.850917 0.383926
0.561393 0.937087 0.632567
0.561786 0.937766 0.619477
0.665197 0.948755 0.634313
0.841537 0.965185 0.601191
0.942452 0.970943 0.375390
0.068531 0.013345 0.496813
0.174711 0.016505 0.364817
0.645500 0.034812 0.235042
0.672452 0.085003 0.154344
0.672452 0.085003 0.154344
0.098898 0.173016 0.485894
0.102873 0.121802 0.353696
0.517919 0.146193 0.330234
0.697219 0.153404 0.182630
0.690001 0.136911 0.175125
0.000000 0.662696 0.622625
0.059838 0.578133 0.549707
0.577148 0.577148 0.577148
0.901700 0.583322 0.499359
0.800426 0.392601 0.282184
0.370174 0.924492 0.770630
0.335975 0.911967 0.744930
0.634694 0.928900 0.765160
0.938315 0.941495 0.717766
0.947805 0.861658 0.478621
0.511711 0.938326 0.765060
0.524618 0.938061 0.749707
0.640543 0.949787 0.753630
0.850498 0.971722 0.766750
0.953174 0.973093 0.550355
0.108197 0.016601 0.615872
0.108197 0.016601 0.615872
0.685643 0.110918 0.654481
0.733111 0.217335 0.350379
0.723940 0.208633 0.290739
0.142499 0.141145 0.629884
0.126874 0.126528 0.609067
0.539346 0.180212 0.647114
0.768057 0.239910 0.545098
0.750671 0.256567 0.376437
0.161027 0.641567 0.737210
0.153062 0.586122 0.709508
0.528233 0.588628 0.757700
0.944438 0.609151 0.845347
0.917506 0.585365 0.670109
0.075362 0.896679 0.830446
0.014181 0.882072 0.817699
0.497647 0.905491 0.859651
0.934570 0.934570 0.934570
0.989959 0.879460 0.850344
0.325585 0.925720 0.838425
0.361556 0.929583 0.835546
0.528897 0.943798 0.854563
0.830727 0.974948 0.904793
0.979894 0.989341 0.859199
0.108197 0.016601 0.615872
0.108197 0.016601 0.615872
0.520074 0.072582 0.686488
0.790125 0.237832 0.703511
0.784457 0.247051 0.645206
0.131213 0.079067 0.627914
0.121869 0.031953 0.620891
0.286603 0.119875 0.652703
0.756377 0.142539 0.734458
0.809244 0.285059 0.710003
0.181136 0.452870 0.679528
0.183330 0.404173 0.667535
0.180984 0.403894 0.666559
0.882301 0.558806 0.890632
0.924160 0.540585 0.857531
0.000000 0.841744 0.805707
0.000000 0.815428 0.796028
0.000000 0.800109 0.789723
0.829244 0.870253 0.942352
0.992898 0.849549 0.962379
0.198706 0.917893 0.843156
0.198706 0.917893 0.843156
0.246799 0.920471 0.849375
0.697787 0.963227 0.928337
1.000000 1.000000 1.000000
